;FLAVOR:Marlin
;TIME:16051
;Filament used: 12.0237m
;Layer height: 0.2
;MINX:66.8
;MINY:66.922
;MINZ:0.26
;MAXX:153.2
;MAXY:153.078
;MAXZ:40.06
;Generated with Cura_SteamEngine 4.13.1
M140 S60
M105
M190 S60
M104 S195
M105
M109 S195
M82 ;absolute extrusion mode
G28 ;Home
G1 Z15.0 F2000 ;Move the platform
G92 E0
G92 E0
G1 F2700 E-6.5
;LAYER_COUNT:200
;LAYER:0
M107
M204 S1000
G0 F7500 X68.705 Y68.656 Z0.26
;TYPE:SKIRT
G1 F2700 E0
G1 F1500 X69.033 Y68.371 E0.01879
G1 X69.482 Y68.03 E0.04317
G1 X69.614 Y67.934 E0.05022
G1 X70.09 Y67.657 E0.07404
G1 X70.659 Y67.389 E0.10123
G1 X71.307 Y67.165 E0.13088
G1 X71.917 Y67.025 E0.15794
G1 X72.566 Y66.945 E0.18621
G1 X73.678 Y66.922 E0.2343
G1 X144.652 Y66.922 E3.30309
G1 X145.297 Y66.931 E3.33098
G1 X145.858 Y66.989 E3.35537
G1 X146.475 Y67.108 E3.38254
G1 X147.108 Y67.3 E3.41114
G1 X147.682 Y67.541 E3.43805
G1 X148.282 Y67.872 E3.46768
G1 X148.799 Y68.235 E3.495
G1 X149.292 Y68.663 E3.52323
G1 X149.681 Y69.077 E3.54779
G1 X149.795 Y69.204 E3.55517
G1 X150.12 Y69.65 E3.57903
G1 X150.433 Y70.167 E3.60516
G1 X150.718 Y70.772 E3.63408
G1 X150.936 Y71.398 E3.66274
G1 X151.09 Y72.058 E3.69204
G1 X151.155 Y72.585 E3.715
G1 X151.174 Y72.798 E3.72425
G1 X151.192 Y73.119 E3.73815
G1 X151.197 Y73.269 E3.74464
G1 X151.2 Y73.598 E3.75886
G1 X151.2 Y94.502 E4.66271
G1 X151.24 Y97.299 E4.78366
G1 X151.355 Y100.016 E4.90125
G1 X151.548 Y102.742 E5.01941
G1 X151.818 Y105.468 E5.13785
G1 X152.166 Y108.191 E5.25655
G1 X152.595 Y110.921 E5.37604
G1 X152.882 Y112.514 E5.44602
G1 X152.995 Y113.11 E5.47225
G1 X153.027 Y113.311 E5.48105
G1 X153.136 Y114.188 E5.51927
G1 X153.176 Y114.61 E5.53759
G1 X153.196 Y115.036 E5.55603
G1 X153.2 Y115.333 E5.56888
G1 X153.2 Y144.245 E6.81898
G1 X153.19 Y144.942 E6.84912
G1 X153.182 Y145.126 E6.85708
G1 X153.158 Y145.442 E6.87078
G1 X153.137 Y145.658 E6.88017
G1 X153.067 Y146.256 E6.9062
G1 X152.951 Y146.815 E6.93089
G1 X152.719 Y147.578 E6.96537
G1 X152.609 Y147.905 E6.98029
G1 X152.382 Y148.421 E7.00466
G1 X152.008 Y149.1 E7.03818
G1 X151.811 Y149.434 E7.05494
G1 X151.483 Y149.888 E7.07916
G1 X150.93 Y150.525 E7.11564
G1 X150.734 Y150.738 E7.12815
G1 X150.307 Y151.125 E7.15307
G1 X149.585 Y151.668 E7.19213
G1 X149.384 Y151.81 E7.20277
G1 X148.892 Y152.096 E7.22738
G1 X148.183 Y152.427 E7.26121
G1 X147.844 Y152.574 E7.27719
G1 X147.308 Y152.75 E7.30158
G1 X146.604 Y152.914 E7.33283
G1 X146.209 Y152.994 E7.35026
G1 X145.643 Y153.056 E7.37488
G1 X144.531 Y153.078 E7.42297
G1 X75.136 Y153.078 E10.42348
G1 X74.496 Y153.069 E10.45116
G1 X73.938 Y153.012 E10.47541
G1 X73.14 Y152.859 E10.51054
G1 X72.788 Y152.779 E10.52615
G1 X72.266 Y152.61 E10.54987
G1 X71.451 Y152.265 E10.58814
G1 X71.209 Y152.154 E10.59965
G1 X70.708 Y151.867 E10.62462
G1 X70.108 Y151.447 E10.65628
G1 X69.791 Y151.211 E10.67337
G1 X69.379 Y150.842 E10.69729
G1 X68.836 Y150.264 E10.73158
G1 X68.751 Y150.171 E10.73702
G1 X68.58 Y149.974 E10.7483
G1 X68.259 Y149.533 E10.77189
G1 X67.859 Y148.872 E10.80529
G1 X67.677 Y148.55 E10.82129
G1 X67.447 Y148.037 E10.8456
G1 X67.161 Y147.208 E10.88351
G1 X67.08 Y146.949 E10.89525
G1 X66.958 Y146.387 E10.92011
G1 X66.864 Y145.627 E10.95322
G1 X66.822 Y145.183 E10.97251
G1 X66.804 Y144.808 E10.98874
G1 X66.8 Y144.485 E11.00271
G1 X66.8 Y115.568 E12.25303
G1 X66.81 Y114.862 E12.28355
G1 X66.86 Y113.655 E12.33579
G1 X66.901 Y112.927 E12.36731
G1 X66.978 Y110.179 E12.48618
G1 X66.976 Y107.46 E12.60374
G1 X66.896 Y104.667 E12.72456
G1 X66.819 Y103.221 E12.78717
G1 X66.803 Y102.742 E12.80789
G1 X66.8 Y102.413 E12.82212
G1 X66.8 Y73.766 E14.06076
G1 X66.81 Y73.065 E14.09108
G1 X66.833 Y72.673 E14.10805
G1 X66.847 Y72.529 E14.11431
G1 X66.89 Y72.162 E14.13029
G1 X67.008 Y71.599 E14.15516
G1 X67.184 Y71.023 E14.1812
G1 X67.443 Y70.411 E14.20993
G1 X67.756 Y69.844 E14.23794
G1 X68.133 Y69.302 E14.26648
G1 X68.513 Y68.861 E14.29165
G1 X68.705 Y68.656 E14.3038
G1 F2700 E7.8038
;MESH:SchachtelDeckelPWM.stl
G0 F7500 X69.336 Y102.941
G0 X69.412 Y103.667
G0 X69.649 Y104.397
G0 X70.033 Y105.062
G0 X74.301 Y109.291
G0 X74.527 Y110.353
G0 X145.444 Y110.704
G0 X146.304 Y110.887
G0 X147.118 Y111.251
G0 X147.825 Y111.766
G0 X148.418 Y112.424
G0 X148.861 Y113.19
G0 X149.132 Y114.025
G0 X149.229 Y114.95
G0 X149.229 Y144.862
G0 X149.132 Y145.786
G0 X148.861 Y146.621
G0 X148.418 Y147.387
G0 X147.822 Y148.048
G0 X147.247 Y148.465
G0 X145.459 Y149.278
;TYPE:WALL-INNER
G1 F2700 E14.3038
G1 F1500 X74.539 Y149.278 E17.37025
G1 X73.639 Y149.086 E17.41004
G1 X72.801 Y148.712 E17.44972
G1 X72.057 Y148.171 E17.48949
G1 X71.443 Y147.489 E17.52917
G1 X70.982 Y146.69 E17.56906
G1 X70.7 Y145.823 E17.60848
G1 X70.6 Y144.872 E17.64982
G1 X70.6 Y114.94 E18.94403
G1 X70.7 Y113.988 E18.98542
G1 X70.982 Y113.121 E19.02484
G1 X71.443 Y112.322 E19.06472
G1 X72.061 Y111.636 E19.10465
G1 X72.803 Y111.098 E19.14428
G1 X73.646 Y110.724 E19.18415
G1 X74.541 Y110.533 E19.22372
G1 X145.461 Y110.533 E22.29017
G1 X146.361 Y110.725 E22.32996
G1 X147.202 Y111.101 E22.36979
G1 X147.942 Y111.639 E22.40935
G1 X148.557 Y112.322 E22.44909
G1 X149.018 Y113.121 E22.48898
G1 X149.3 Y113.988 E22.5284
G1 X149.4 Y114.94 E22.56979
G1 X149.4 Y144.872 E23.86399
G1 X149.3 Y145.823 E23.90534
G1 X149.018 Y146.69 E23.94476
G1 X148.557 Y147.489 E23.98465
G1 X147.939 Y148.175 E24.02457
G1 X147.197 Y148.713 E24.0642
G1 X146.354 Y149.087 E24.10407
G1 X145.459 Y149.278 E24.14364
G0 F7500 X145.5 Y149.678
;TYPE:WALL-OUTER
G1 F1500 X74.497 Y149.678 E27.21368
G1 X73.515 Y149.468 E27.2571
G1 X72.598 Y149.059 E27.30052
G1 X71.789 Y148.471 E27.34376
G1 X71.116 Y147.724 E27.38723
G1 X70.616 Y146.857 E27.43051
G1 X70.306 Y145.904 E27.47384
G1 X70.2 Y144.895 E27.51771
G1 X70.2 Y114.917 E28.8139
G1 X70.306 Y113.907 E28.85781
G1 X70.616 Y112.954 E28.90114
G1 X71.116 Y112.087 E28.94442
G1 X71.793 Y111.336 E28.98814
G1 X72.602 Y110.749 E29.03135
G1 X73.519 Y110.342 E29.07473
G1 X74.5 Y110.133 E29.1181
G1 X145.503 Y110.133 E32.18814
G1 X146.485 Y110.343 E32.23156
G1 X147.402 Y110.752 E32.27498
G1 X148.213 Y111.342 E32.31834
G1 X148.884 Y112.087 E32.36169
G1 X149.384 Y112.954 E32.40497
G1 X149.694 Y113.907 E32.4483
G1 X149.8 Y114.917 E32.49221
G1 X149.8 Y144.895 E33.7884
G1 X149.694 Y145.904 E33.83227
G1 X149.384 Y146.857 E33.8756
G1 X148.884 Y147.724 E33.91887
G1 X148.207 Y148.475 E33.96259
G1 X147.398 Y149.062 E34.00581
G1 X146.481 Y149.469 E34.04919
G1 X145.5 Y149.678 E34.09256
G0 F7500 X145.3 Y149.678
G0 X145.3 Y149.238
G0 X145.415 Y148.888
;TYPE:SKIN
G1 F1500 X74.583 Y148.888 E37.15521
G1 X73.761 Y148.712 E37.19155
G1 X72.997 Y148.372 E37.22771
G1 X72.318 Y147.877 E37.26404
G1 X71.76 Y147.259 E37.30004
G1 X71.341 Y146.53 E37.3364
G1 X71.084 Y145.741 E37.37228
G1 X70.99 Y144.85 E37.41102
G1 X70.99 Y114.961 E38.70336
G1 X71.084 Y114.07 E38.7421
G1 X71.341 Y113.281 E38.77798
G1 X71.76 Y112.552 E38.81434
G1 X72.323 Y111.928 E38.85068
G1 X72.998 Y111.439 E38.88672
G1 X73.766 Y111.098 E38.92305
G1 X74.585 Y110.923 E38.95926
G1 X145.417 Y110.923 E42.02191
G1 X146.243 Y111.1 E42.05843
G1 X147.002 Y111.439 E42.09438
G1 X147.681 Y111.933 E42.13068
G1 X148.24 Y112.552 E42.16675
G1 X148.659 Y113.281 E42.2031
G1 X148.916 Y114.07 E42.23898
G1 X149.01 Y114.961 E42.27772
G1 X149.01 Y144.85 E43.57007
G1 X148.916 Y145.741 E43.6088
G1 X148.659 Y146.53 E43.64468
G1 X148.24 Y147.259 E43.68104
G1 X147.677 Y147.883 E43.71738
G1 X147.002 Y148.372 E43.75342
G1 X146.234 Y148.713 E43.78975
G1 X145.415 Y148.888 E43.82596
G1 F2700 E37.32596
G0 F7500 X145.415 Y149.168
G0 X146.299 Y148.925
G0 X147.111 Y148.564
G0 X147.822 Y148.048
G0 X148.418 Y147.387
G0 X148.861 Y146.621
G0 X149.132 Y145.786
G0 X149.229 Y144.862
G0 X149.229 Y114.95
G0 X149.132 Y114.025
G0 X148.861 Y113.19
G0 X148.418 Y112.424
G0 X147.825 Y111.766
G0 X146.614 Y110.96
G1 F2700 E43.82596
G0 F7500 X146.435 Y111.362
G1 F1500 X148.556 Y113.484 E43.95569
G0 F7500 X148.774 Y114.267
G1 F1500 X145.642 Y111.135 E44.1472
G0 F7500 X145.024 Y111.082
G1 F1500 X148.842 Y114.901 E44.3807
G0 F7500 X148.849 Y115.474
G1 F1500 X144.458 Y111.082 E44.64923
G0 F7500 X143.892 Y111.082
G1 F1500 X148.849 Y116.039 E44.95234
G0 F7500 X148.849 Y116.605
G1 F1500 X143.327 Y111.082 E45.29003
G0 F7500 X142.761 Y111.082
G1 F1500 X148.849 Y117.171 E45.66233
G0 F7500 X148.849 Y117.736
G1 F1500 X142.195 Y111.082 E46.06921
G0 F7500 X141.629 Y111.082
G1 F1500 X148.849 Y118.302 E46.5107
G0 F7500 X148.849 Y118.868
G1 F1500 X141.064 Y111.082 E46.98677
G0 F7500 X140.498 Y111.082
G1 F1500 X148.849 Y119.433 E47.49741
G0 F7500 X148.849 Y119.999
G1 F1500 X139.932 Y111.082 E48.04267
G0 F7500 X139.367 Y111.082
G1 F1500 X148.849 Y120.565 E48.62251
G0 F7500 X148.849 Y121.13
G1 F1500 X138.801 Y111.082 E49.23692
G0 F7500 X138.235 Y111.082
G1 F1500 X148.849 Y121.696 E49.88595
G0 F7500 X148.849 Y122.262
G1 F1500 X137.67 Y111.082 E50.56955
G0 F7500 X137.104 Y111.082
G1 F1500 X148.849 Y122.827 E51.28773
G0 F7500 X148.849 Y123.393
G1 F1500 X136.538 Y111.082 E52.04053
G0 F7500 X135.973 Y111.082
G1 F1500 X148.849 Y123.959 E52.8279
G0 F7500 X148.849 Y124.525
G1 F1500 X135.407 Y111.082 E53.64988
G0 F7500 X134.841 Y111.082
G1 F1500 X148.849 Y125.09 E54.50644
G0 F7500 X148.849 Y125.656
G1 F1500 X134.276 Y111.082 E55.39758
G0 F7500 X133.71 Y111.082
G1 F1500 X148.849 Y126.222 E56.32333
G0 F7500 X148.849 Y126.787
G1 F1500 X133.144 Y111.082 E57.28366
G0 F7500 X132.578 Y111.082
G1 F1500 X148.849 Y127.353 E58.2786
G0 F7500 X148.849 Y127.919
G1 F1500 X132.013 Y111.082 E59.30812
G0 F7500 X131.447 Y111.082
G1 F1500 X148.849 Y128.484 E60.37222
G0 F7500 X148.849 Y129.05
G1 F1500 X130.881 Y111.082 E61.47093
G0 F7500 X130.316 Y111.082
G1 F1500 X148.849 Y129.616 E62.60421
G0 F7500 X148.849 Y130.181
G1 F1500 X129.75 Y111.082 E63.77208
G0 F7500 X129.184 Y111.082
G1 F1500 X148.849 Y130.747 E64.97455
G0 F7500 X148.849 Y131.313
G1 F1500 X128.619 Y111.082 E66.21161
G0 F7500 X128.053 Y111.082
G1 F1500 X148.849 Y131.878 E67.48324
G0 F7500 X148.849 Y132.444
G1 F1500 X127.487 Y111.082 E68.78949
G0 F7500 X126.922 Y111.082
G1 F1500 X148.849 Y133.01 E70.13031
G0 F7500 X148.849 Y133.576
G1 F1500 X126.356 Y111.082 E71.50574
G0 F7500 X125.79 Y111.082
G1 F1500 X148.849 Y134.141 E72.91576
G0 F7500 X148.849 Y134.707
G1 F1500 X125.225 Y111.082 E74.36035
G0 F7500 X124.659 Y111.082
G1 F1500 X148.849 Y135.273 E75.83955
G0 F7500 X148.849 Y135.838
G1 F1500 X124.093 Y111.082 E77.35333
G0 F7500 X123.528 Y111.082
G1 F1500 X148.849 Y136.404 E78.90169
G0 F7500 X148.849 Y136.97
G1 F1500 X122.962 Y111.082 E80.48466
G0 F7500 X122.396 Y111.082
G1 F1500 X148.849 Y137.535 E82.1022
G0 F7500 X148.849 Y138.101
G1 F1500 X121.83 Y111.082 E83.75436
G0 F7500 X121.265 Y111.082
G1 F1500 X148.849 Y138.667 E85.4411
G0 F7500 X148.849 Y139.232
G1 F1500 X120.699 Y111.082 E87.16242
G0 F7500 X120.133 Y111.082
G1 F1500 X148.849 Y139.798 E88.91834
G0 F7500 X148.849 Y140.364
G1 F1500 X119.568 Y111.082 E90.70885
G0 F7500 X119.002 Y111.082
G1 F1500 X148.849 Y140.929 E92.53393
G0 F7500 X148.849 Y141.495
G1 F1500 X118.436 Y111.082 E94.39363
G0 F7500 X117.871 Y111.082
G1 F1500 X148.849 Y142.061 E96.2879
G0 F7500 X148.849 Y142.626
G1 F1500 X117.305 Y111.082 E98.21675
G0 F7500 X116.739 Y111.082
G1 F1500 X148.849 Y143.192 E100.18022
G0 F7500 X148.849 Y143.758
G1 F1500 X116.174 Y111.082 E102.17826
G0 F7500 X115.608 Y111.082
G1 F1500 X148.849 Y144.324 E104.21091
G0 F7500 X148.845 Y144.885
G1 F1500 X115.042 Y111.082 E106.2779
G0 F7500 X114.477 Y111.082
G1 F1500 X148.79 Y145.396 E108.3761
G0 F7500 X148.703 Y145.874
G1 F1500 X113.911 Y111.082 E110.50356
G0 F7500 X113.345 Y111.082
G1 F1500 X148.564 Y146.301 E112.65713
G0 F7500 X148.384 Y146.687
G1 F1500 X112.779 Y111.082 E114.83431
G0 F7500 X112.214 Y111.082
G1 F1500 X148.178 Y147.047 E117.03347
G0 F7500 X147.93 Y147.364
G1 F1500 X111.648 Y111.082 E119.25204
G0 F7500 X111.082 Y111.082
G1 F1500 X147.661 Y147.661 E121.48877
G0 F7500 X147.353 Y147.918
G1 F1500 X110.517 Y111.082 E123.74122
G0 F7500 X109.951 Y111.082
G1 F1500 X147.025 Y148.156 E126.00822
G0 F7500 X146.653 Y148.35
G1 F1500 X109.385 Y111.082 E128.28709
G0 F7500 X108.82 Y111.082
G1 F1500 X146.261 Y148.524 E130.57656
G0 F7500 X145.809 Y148.638
G1 F1500 X108.254 Y111.082 E132.873
G0 F7500 X107.688 Y111.082
G1 F1500 X145.333 Y148.727 E135.17492
G0 F7500 X144.767 Y148.727
G1 F1500 X107.123 Y111.082 E137.47681
G0 F7500 X106.557 Y111.082
G1 F1500 X144.201 Y148.727 E139.77869
G0 F7500 X143.636 Y148.727
G1 F1500 X105.991 Y111.082 E142.08061
G0 F7500 X105.426 Y111.082
G1 F1500 X143.07 Y148.727 E144.3825
G0 F7500 X142.504 Y148.727
G1 F1500 X104.86 Y111.082 E146.68438
G0 F7500 X104.294 Y111.082
G1 F1500 X141.938 Y148.727 E148.98627
G0 F7500 X141.373 Y148.727
G1 F1500 X103.729 Y111.082 E151.28816
G0 F7500 X103.163 Y111.082
G1 F1500 X140.807 Y148.727 E153.59004
G0 F7500 X140.241 Y148.727
G1 F1500 X102.597 Y111.082 E155.89193
G0 F7500 X102.031 Y111.082
G1 F1500 X139.676 Y148.727 E158.19385
G0 F7500 X139.11 Y148.727
G1 F1500 X101.466 Y111.082 E160.49573
G0 F7500 X100.9 Y111.082
G1 F1500 X138.544 Y148.727 E162.79762
G0 F7500 X137.979 Y148.727
G1 F1500 X100.334 Y111.082 E165.09954
G0 F7500 X99.769 Y111.082
G1 F1500 X137.413 Y148.727 E167.40142
G0 F7500 X136.847 Y148.727
G1 F1500 X99.203 Y111.082 E169.70331
G0 F7500 X98.637 Y111.082
G1 F1500 X136.282 Y148.727 E172.00523
G0 F7500 X135.716 Y148.727
G1 F1500 X98.072 Y111.082 E174.30711
G0 F7500 X97.506 Y111.082
G1 F1500 X135.15 Y148.727 E176.609
G0 F7500 X134.585 Y148.727
G1 F1500 X96.94 Y111.082 E178.91092
G0 F7500 X96.375 Y111.082
G1 F1500 X134.019 Y148.727 E181.2128
G0 F7500 X133.453 Y148.727
G1 F1500 X95.809 Y111.082 E183.51469
G0 F7500 X95.243 Y111.082
G1 F1500 X132.887 Y148.727 E185.81657
G0 F7500 X132.322 Y148.727
G1 F1500 X94.678 Y111.082 E188.11846
G0 F7500 X94.112 Y111.082
G1 F1500 X131.756 Y148.727 E190.42035
G0 F7500 X131.19 Y148.727
G1 F1500 X93.546 Y111.082 E192.72223
G0 F7500 X92.981 Y111.082
G1 F1500 X130.625 Y148.727 E195.02412
G0 F7500 X130.059 Y148.727
G1 F1500 X92.415 Y111.082 E197.32601
G0 F7500 X91.849 Y111.082
G1 F1500 X129.493 Y148.727 E199.62789
G0 F7500 X128.928 Y148.727
G1 F1500 X91.283 Y111.082 E201.92981
G0 F7500 X90.718 Y111.082
G1 F1500 X128.362 Y148.727 E204.2317
G0 F7500 X127.796 Y148.727
G1 F1500 X90.152 Y111.082 E206.53358
G0 F7500 X89.586 Y111.082
G1 F1500 X127.231 Y148.727 E208.8355
G0 F7500 X126.665 Y148.727
G1 F1500 X89.021 Y111.082 E211.13739
G0 F7500 X88.455 Y111.082
G1 F1500 X126.099 Y148.727 E213.43927
G0 F7500 X125.534 Y148.727
G1 F1500 X87.889 Y111.082 E215.74119
G0 F7500 X87.324 Y111.082
G1 F1500 X124.968 Y148.727 E218.04308
G0 F7500 X124.402 Y148.727
G1 F1500 X86.758 Y111.082 E220.34496
G0 F7500 X86.192 Y111.082
G1 F1500 X123.837 Y148.727 E222.64688
G0 F7500 X123.271 Y148.727
G1 F1500 X85.627 Y111.082 E224.94877
G0 F7500 X85.061 Y111.082
G1 F1500 X122.705 Y148.727 E227.25065
G0 F7500 X122.139 Y148.727
G1 F1500 X84.495 Y111.082 E229.55254
G0 F7500 X83.93 Y111.082
G1 F1500 X121.574 Y148.727 E231.85443
G0 F7500 X121.008 Y148.727
G1 F1500 X83.364 Y111.082 E234.15631
G0 F7500 X82.798 Y111.082
G1 F1500 X120.442 Y148.727 E236.4582
G0 F7500 X119.877 Y148.727
G1 F1500 X82.232 Y111.082 E238.76012
G0 F7500 X81.667 Y111.082
G1 F1500 X119.311 Y148.727 E241.062
G0 F7500 X118.745 Y148.727
G1 F1500 X81.101 Y111.082 E243.36389
G0 F7500 X80.535 Y111.082
G1 F1500 X118.18 Y148.727 E245.66581
G0 F7500 X117.614 Y148.727
G1 F1500 X79.97 Y111.082 E247.96769
G0 F7500 X79.404 Y111.082
G1 F1500 X117.048 Y148.727 E250.26958
G0 F7500 X116.483 Y148.727
G1 F1500 X78.838 Y111.082 E252.57149
G0 F7500 X78.273 Y111.082
G1 F1500 X115.917 Y148.727 E254.87338
G0 F7500 X115.351 Y148.727
G1 F1500 X77.707 Y111.082 E257.17527
G0 F7500 X77.141 Y111.082
G1 F1500 X114.786 Y148.727 E259.47718
G0 F7500 X114.22 Y148.727
G1 F1500 X76.576 Y111.082 E261.77907
G0 F7500 X76.01 Y111.082
G1 F1500 X113.654 Y148.727 E264.08096
G0 F7500 X113.089 Y148.727
G1 F1500 X75.444 Y111.082 E266.38287
G0 F7500 X74.879 Y111.082
G1 F1500 X112.523 Y148.727 E268.68476
G0 F7500 X111.957 Y148.727
G1 F1500 X74.364 Y111.133 E270.98353
G0 F7500 X73.898 Y111.233
G1 F1500 X111.391 Y148.727 E273.27618
G0 F7500 X110.826 Y148.727
