;FLAVOR:Marlin
;TIME:14809
;Filament used: 10.9453m
;Layer height: 0.2
;MINX:71.8
;MINY:66.922
;MINZ:0.3
;MAXX:148.2
;MAXY:153.078
;MAXZ:40.1
;Generated with Cura_SteamEngine 4.13.1
M140 S60
M105
M190 S60
M104 S195
M105
M109 S195
M82 ;absolute extrusion mode
G28 ;Home
G1 Z15.0 F2000 ;Move the platform
G92 E0
G92 E0
G1 F2700 E-6.5
;LAYER_COUNT:200
;LAYER:0
M107
M204 S1000
G0 F7500 X73.513 Y68.861 Z0.3
;TYPE:SKIRT
G1 F2700 E0
G1 F1500 X73.705 Y68.656 E0.01401
G1 X74.033 Y68.371 E0.03569
G1 X74.482 Y68.03 E0.06382
G1 X74.614 Y67.934 E0.07196
G1 X75.09 Y67.657 E0.09944
G1 X75.659 Y67.389 E0.13082
G1 X76.307 Y67.165 E0.16502
G1 X76.917 Y67.025 E0.19625
G1 X77.566 Y66.945 E0.22887
G1 X78.678 Y66.922 E0.28436
G1 X139.652 Y66.922 E3.32637
G1 X140.297 Y66.931 E3.35855
G1 X140.858 Y66.989 E3.38669
G1 X141.475 Y67.108 E3.41804
G1 X142.108 Y67.3 E3.45104
G1 X142.682 Y67.541 E3.4821
G1 X143.282 Y67.872 E3.51628
G1 X143.799 Y68.235 E3.5478
G1 X144.292 Y68.663 E3.58037
G1 X144.681 Y69.077 E3.60871
G1 X144.795 Y69.204 E3.61723
G1 X145.12 Y69.65 E3.64476
G1 X145.433 Y70.167 E3.67491
G1 X145.718 Y70.772 E3.70828
G1 X145.936 Y71.398 E3.74135
G1 X146.09 Y72.058 E3.77516
G1 X146.155 Y72.585 E3.80165
G1 X146.174 Y72.798 E3.81232
G1 X146.192 Y73.119 E3.82836
G1 X146.197 Y73.269 E3.83585
G1 X146.2 Y73.598 E3.85226
G1 X146.2 Y94.502 E4.89517
G1 X146.24 Y97.299 E5.03472
G1 X146.355 Y100.016 E5.1704
G1 X146.548 Y102.742 E5.30674
G1 X146.818 Y105.468 E5.4434
G1 X147.166 Y108.191 E5.58036
G1 X147.595 Y110.921 E5.71823
G1 X147.882 Y112.514 E5.79899
G1 X147.995 Y113.11 E5.82925
G1 X148.027 Y113.311 E5.8394
G1 X148.136 Y114.188 E5.88349
G1 X148.176 Y114.61 E5.90464
G1 X148.196 Y115.036 E5.92592
G1 X148.2 Y115.333 E5.94074
G1 X148.2 Y144.245 E7.38316
G1 X148.19 Y144.942 E7.41794
G1 X148.182 Y145.126 E7.42713
G1 X148.158 Y145.442 E7.44294
G1 X148.137 Y145.658 E7.45377
G1 X148.067 Y146.256 E7.4838
G1 X147.951 Y146.815 E7.51229
G1 X147.719 Y147.578 E7.55207
G1 X147.609 Y147.905 E7.56929
G1 X147.382 Y148.421 E7.59741
G1 X147.008 Y149.1 E7.63609
G1 X146.811 Y149.433 E7.65539
G1 X146.484 Y149.885 E7.68322
G1 X145.918 Y150.538 E7.72633
G1 X145.729 Y150.743 E7.74024
G1 X145.305 Y151.128 E7.76882
G1 X144.684 Y151.597 E7.80764
G1 X144.377 Y151.815 E7.82643
G1 X143.893 Y152.095 E7.85432
G1 X143.097 Y152.466 E7.89814
G1 X142.863 Y152.567 E7.91085
G1 X142.32 Y152.746 E7.93938
G1 X141.445 Y152.948 E7.98418
G1 X141.205 Y152.996 E7.99639
G1 X140.639 Y153.057 E8.02479
G1 X139.552 Y153.078 E8.07903
G1 X80.135 Y153.077 E11.04336
G1 X79.487 Y153.068 E11.07569
G1 X78.928 Y153.011 E11.10372
G1 X78.177 Y152.867 E11.14187
G1 X77.787 Y152.779 E11.16182
G1 X77.263 Y152.609 E11.1893
G1 X76.484 Y152.279 E11.23151
G1 X76.213 Y152.155 E11.24638
G1 X75.707 Y151.866 E11.27545
G1 X75.102 Y151.442 E11.31231
G1 X74.787 Y151.207 E11.33192
G1 X74.374 Y150.837 E11.35958
G1 X73.838 Y150.266 E11.39865
G1 X73.583 Y149.976 E11.41792
G1 X73.259 Y149.533 E11.4453
G1 X72.859 Y148.872 E11.48385
G1 X72.677 Y148.55 E11.5023
G1 X72.447 Y148.037 E11.53035
G1 X72.161 Y147.208 E11.5741
G1 X72.08 Y146.949 E11.58764
G1 X71.958 Y146.387 E11.61633
G1 X71.864 Y145.627 E11.65453
G1 X71.822 Y145.183 E11.67678
G1 X71.804 Y144.808 E11.69552
G1 X71.8 Y144.485 E11.71163
G1 X71.8 Y115.568 E13.15431
G1 X71.81 Y114.862 E13.18953
G1 X71.86 Y113.655 E13.2498
G1 X71.901 Y112.927 E13.28618
G1 X71.978 Y110.179 E13.42333
G1 X71.976 Y107.46 E13.55898
G1 X71.896 Y104.667 E13.69838
G1 X71.819 Y103.221 E13.77063
G1 X71.803 Y102.742 E13.79454
G1 X71.8 Y102.413 E13.81095
G1 X71.8 Y73.766 E15.24016
G1 X71.81 Y73.065 E15.27513
G1 X71.833 Y72.673 E15.29472
G1 X71.847 Y72.529 E15.30194
G1 X71.89 Y72.162 E15.32038
G1 X72.008 Y71.599 E15.34907
G1 X72.184 Y71.023 E15.37912
G1 X72.443 Y70.411 E15.41228
G1 X72.756 Y69.844 E15.44459
G1 X73.133 Y69.302 E15.47753
G1 X73.513 Y68.861 E15.50657
G1 F2700 E9.00657
;MESH:SchachtelDeckelPWM.stl
G0 F7500 X74.336 Y102.941
G0 X74.412 Y103.667
G0 X74.649 Y104.397
G0 X75.033 Y105.062
G0 X79.301 Y109.291
G0 X79.527 Y110.353
G0 X140.447 Y110.705
G0 X141.305 Y110.887
G0 X142.112 Y111.247
G0 X142.829 Y111.771
G0 X143.421 Y112.428
G0 X143.86 Y113.186
G0 X144.132 Y114.025
G0 X144.229 Y114.95
G0 X144.229 Y144.862
G0 X144.132 Y145.786
G0 X143.86 Y146.625
G0 X143.422 Y147.383
G0 X142.821 Y148.048
G0 X142.246 Y148.465
G0 X140.459 Y149.278
;TYPE:WALL-INNER
G1 F2700 E15.50657
G1 F1500 X79.537 Y149.277 E18.54598
G1 X78.638 Y149.086 E18.59183
G1 X77.802 Y148.713 E18.63751
G1 X77.057 Y148.171 E18.68347
G1 X76.443 Y147.489 E18.72925
G1 X75.982 Y146.69 E18.77527
G1 X75.7 Y145.823 E18.82076
G1 X75.6 Y144.872 E18.86847
G1 X75.6 Y114.94 E20.36178
G1 X75.7 Y113.988 E20.40954
G1 X75.983 Y113.117 E20.45523
G1 X76.44 Y112.326 E20.5008
G1 X77.062 Y111.636 E20.54715
G1 X77.803 Y111.098 E20.59283
G1 X78.647 Y110.723 E20.63891
G1 X79.541 Y110.533 E20.68451
G1 X140.463 Y110.534 E23.72392
G1 X141.362 Y110.725 E23.76977
G1 X142.198 Y111.098 E23.81544
G1 X142.944 Y111.642 E23.86151
G1 X143.56 Y112.326 E23.90743
G1 X144.017 Y113.117 E23.95301
G1 X144.3 Y113.988 E23.9987
G1 X144.4 Y114.94 E24.04645
G1 X144.4 Y144.872 E25.53977
G1 X144.3 Y145.823 E25.58747
G1 X144.017 Y146.694 E25.63316
G1 X143.56 Y147.485 E25.67874
G1 X142.938 Y148.175 E25.72509
G1 X142.197 Y148.713 E25.77077
G1 X141.353 Y149.088 E25.81685
G1 X140.459 Y149.278 E25.86245
G0 F7500 X140.5 Y149.678
;TYPE:WALL-OUTER
G1 F1500 X79.496 Y149.677 E28.90595
G1 X78.513 Y149.468 E28.95609
G1 X77.599 Y149.06 E29.00602
G1 X76.789 Y148.471 E29.05599
G1 X76.116 Y147.724 E29.10615
G1 X75.616 Y146.857 E29.15608
G1 X75.306 Y145.904 E29.20608
G1 X75.2 Y144.895 E29.2567
G1 X75.2 Y114.917 E30.75231
G1 X75.306 Y113.907 E30.80297
G1 X75.616 Y112.954 E30.85297
G1 X76.116 Y112.088 E30.90286
G1 X76.794 Y111.336 E30.95337
G1 X77.602 Y110.749 E31.0032
G1 X78.52 Y110.341 E31.05332
G1 X79.5 Y110.133 E31.1033
G1 X140.504 Y110.134 E34.1468
G1 X141.487 Y110.343 E34.19694
G1 X142.401 Y110.751 E34.24688
G1 X143.213 Y111.343 E34.29701
G1 X143.884 Y112.088 E34.34703
G1 X144.384 Y112.954 E34.39692
G1 X144.694 Y113.907 E34.44692
G1 X144.8 Y114.917 E34.49758
G1 X144.8 Y144.895 E35.99319
G1 X144.694 Y145.904 E36.04381
G1 X144.384 Y146.857 E36.09381
G1 X143.884 Y147.723 E36.1437
G1 X143.206 Y148.475 E36.19421
G1 X142.398 Y149.062 E36.24404
G1 X141.48 Y149.47 E36.29416
G1 X140.5 Y149.678 E36.34414
G0 F7500 X140.3 Y149.678
G0 X140.301 Y149.238
G0 X140.415 Y148.888
;TYPE:SKIN
G1 F1500 X79.581 Y148.887 E39.37916
G1 X78.754 Y148.711 E39.42134
G1 X78.004 Y148.376 E39.46232
G1 X77.318 Y147.877 E39.50464
G1 X76.76 Y147.259 E39.54618
G1 X76.341 Y146.53 E39.58813
G1 X76.084 Y145.741 E39.62953
G1 X75.99 Y144.85 E39.67423
G1 X75.99 Y114.961 E41.1654
G1 X76.084 Y114.07 E41.2101
G1 X76.342 Y113.277 E41.2517
G1 X76.757 Y112.557 E41.29316
G1 X77.322 Y111.93 E41.33527
G1 X78.001 Y111.437 E41.37713
G1 X78.767 Y111.097 E41.41894
G1 X79.585 Y110.923 E41.46067
G1 X140.419 Y110.924 E44.49569
G1 X141.246 Y111.1 E44.53787
G1 X141.996 Y111.435 E44.57885
G1 X142.683 Y111.936 E44.62127
G1 X143.243 Y112.557 E44.66299
G1 X143.658 Y113.277 E44.70445
G1 X143.916 Y114.07 E44.74606
G1 X144.01 Y114.961 E44.79075
G1 X144.01 Y144.85 E46.28192
G1 X143.916 Y145.741 E46.32662
G1 X143.658 Y146.534 E46.36823
G1 X143.243 Y147.254 E46.40969
G1 X142.678 Y147.881 E46.45179
G1 X141.999 Y148.374 E46.49366
G1 X141.233 Y148.714 E46.53547
G1 X140.415 Y148.888 E46.57719
G1 F2700 E40.07719
G0 F7500 X140.414 Y149.167
G0 X141.298 Y148.926
G0 X142.111 Y148.564
G0 X142.821 Y148.048
G0 X143.422 Y147.383
G0 X143.86 Y146.625
G0 X144.132 Y145.786
G0 X144.229 Y144.862
G0 X144.229 Y114.95
G0 X144.132 Y114.025
G0 X143.86 Y113.186
G0 X143.421 Y112.428
G0 X142.829 Y111.771
G0 X142.423 Y111.475
G0 X141.447 Y110.885
G1 F2700 E46.57719
G0 F7500 X141.268 Y111.287
G1 F1500 X143.599 Y113.618 E46.74166
G0 F7500 X143.786 Y114.37
G1 F1500 X140.527 Y111.111 E46.9716
G0 F7500 X139.934 Y111.084
G1 F1500 X143.849 Y114.999 E47.24782
G0 F7500 X143.849 Y115.565
G1 F1500 X139.368 Y111.084 E47.56398
G0 F7500 X138.802 Y111.084
G1 F1500 X143.849 Y116.13 E47.92004
G0 F7500 X143.849 Y116.696
G1 F1500 X138.237 Y111.084 E48.31599
G0 F7500 X137.671 Y111.084
G1 F1500 X143.849 Y117.262 E48.75189
G0 F7500 X143.849 Y117.828
G1 F1500 X137.105 Y111.084 E49.22771
G0 F7500 X136.54 Y111.084
G1 F1500 X143.849 Y118.393 E49.7434
G0 F7500 X143.849 Y118.959
G1 F1500 X135.974 Y111.084 E50.29902
G0 F7500 X135.408 Y111.084
G1 F1500 X143.849 Y119.525 E50.89458
G0 F7500 X143.849 Y120.09
G1 F1500 X134.843 Y111.084 E51.53
G0 F7500 X134.277 Y111.084
G1 F1500 X143.849 Y120.656 E52.20536
G0 F7500 X143.849 Y121.222
G1 F1500 X133.711 Y111.084 E52.92065
G0 F7500 X133.146 Y111.084
G1 F1500 X143.849 Y121.787 E53.67581
G0 F7500 X143.849 Y122.353
G1 F1500 X132.58 Y111.084 E54.47089
G0 F7500 X132.014 Y111.084
G1 F1500 X143.849 Y122.919 E55.30592
G0 F7500 X143.849 Y123.484
G1 F1500 X131.449 Y111.084 E56.18081
G0 F7500 X130.883 Y111.084
G1 F1500 X143.849 Y124.05 E57.09563
G0 F7500 X143.849 Y124.616
G1 F1500 X130.317 Y111.084 E58.05038
G0 F7500 X129.751 Y111.084
G1 F1500 X143.849 Y125.181 E59.04504
G0 F7500 X143.849 Y125.747
G1 F1500 X129.186 Y111.084 E60.07959
G0 F7500 X128.62 Y111.084
G1 F1500 X143.849 Y126.313 E61.15408
G0 F7500 X143.849 Y126.878
G1 F1500 X128.054 Y111.084 E62.26847
G0 F7500 X127.489 Y111.084
G1 F1500 X143.849 Y127.444 E63.42275
G0 F7500 X143.849 Y128.01
G1 F1500 X126.923 Y111.084 E64.61697
G0 F7500 X126.357 Y111.084
G1 F1500 X143.849 Y128.576 E65.85113
G0 F7500 X143.849 Y129.141
G1 F1500 X125.792 Y111.084 E67.12515
G0 F7500 X125.226 Y111.084
G1 F1500 X143.849 Y129.707 E68.4391
G0 F7500 X143.849 Y130.273
G1 F1500 X124.66 Y111.084 E69.79299
G0 F7500 X124.095 Y111.084
G1 F1500 X143.849 Y130.838 E71.18674
G0 F7500 X143.849 Y131.404
G1 F1500 X123.529 Y111.084 E72.62043
G0 F7500 X122.963 Y111.084
G1 F1500 X143.849 Y131.97 E74.09405
G0 F7500 X143.849 Y132.535
G1 F1500 X122.398 Y111.084 E75.60753
G0 F7500 X121.832 Y111.084
G1 F1500 X143.849 Y133.101 E77.16095
G0 F7500 X143.849 Y133.667
G1 F1500 X121.266 Y111.084 E78.7543
G0 F7500 X120.701 Y111.084
G1 F1500 X143.849 Y134.232 E80.38752
G0 F7500 X143.849 Y134.798
G1 F1500 X120.135 Y111.084 E82.06067
G0 F7500 X119.569 Y111.084
G1 F1500 X143.849 Y135.364 E83.77375
G0 F7500 X143.849 Y135.929
G1 F1500 X119.003 Y111.084 E85.52674
G0 F7500 X118.438 Y111.084
G1 F1500 X143.849 Y136.495 E87.31962
G0 F7500 X143.849 Y137.061
G1 F1500 X117.872 Y111.084 E89.15244
G0 F7500 X117.306 Y111.084
G1 F1500 X143.849 Y137.627 E91.02519
G0 F7500 X143.849 Y138.192
G1 F1500 X116.741 Y111.084 E92.93781
G0 F7500 X116.175 Y111.084
G1 F1500 X143.849 Y138.758 E94.89036
G0 F7500 X143.849 Y139.324
G1 F1500 X115.609 Y111.084 E96.88284
G0 F7500 X115.044 Y111.084
G1 F1500 X143.849 Y139.889 E98.91519
G0 F7500 X143.849 Y140.455
G1 F1500 X114.478 Y111.084 E100.98747
G0 F7500 X113.912 Y111.084
G1 F1500 X143.849 Y141.021 E103.09969
G0 F7500 X143.849 Y141.586
G1 F1500 X113.347 Y111.084 E105.25177
G0 F7500 X112.781 Y111.084
G1 F1500 X143.849 Y142.152 E107.44378
G0 F7500 X143.849 Y142.718
G1 F1500 X112.215 Y111.084 E109.67573
G0 F7500 X111.65 Y111.084
G1 F1500 X143.849 Y143.283 E111.94755
G0 F7500 X143.849 Y143.849
G1 F1500 X111.084 Y111.084 E114.25929
G0 F7500 X110.518 Y111.084
G1 F1500 X143.849 Y144.415 E116.61098
G0 F7500 X143.836 Y144.967
G1 F1500 X109.952 Y111.083 E119.00168
G0 F7500 X109.386 Y111.083
G1 F1500 X143.782 Y145.479 E121.4285
G0 F7500 X143.681 Y145.944
G1 F1500 X108.82 Y111.083 E123.88813
G0 F7500 X108.255 Y111.083
G1 F1500 X143.543 Y146.371 E126.37789
G0 F7500 X143.351 Y146.745
G1 F1500 X107.689 Y111.083 E128.89404
G0 F7500 X107.123 Y111.083
G1 F1500 X143.145 Y147.105 E131.43558
G0 F7500 X142.886 Y147.411
G1 F1500 X106.558 Y111.083 E133.99872
G0 F7500 X105.992 Y111.083
G1 F1500 X142.617 Y147.708 E136.58281
G0 F7500 X142.299 Y147.956
G1 F1500 X105.426 Y111.083 E139.1844
G0 F7500 X104.861 Y111.083
G1 F1500 X141.971 Y148.194 E141.80275
G0 F7500 X141.59 Y148.378
G1 F1500 X104.295 Y111.083 E144.43411
G0 F7500 X103.729 Y111.083
G1 F1500 X141.197 Y148.551 E147.07768
G0 F7500 X140.734 Y148.654
G1 F1500 X103.164 Y111.083 E149.72848
G0 F7500 X102.598 Y111.083
G1 F1500 X140.241 Y148.726 E152.3844
G0 F7500 X139.675 Y148.726
G1 F1500 X102.032 Y111.083 E155.04032
G0 F7500 X101.466 Y111.083
G1 F1500 X139.109 Y148.726 E157.69623
G0 F7500 X138.544 Y148.726
G1 F1500 X100.901 Y111.083 E160.35215
G0 F7500 X100.335 Y111.083
G1 F1500 X137.978 Y148.726 E163.00807
G0 F7500 X137.412 Y148.726
G1 F1500 X99.769 Y111.083 E165.66398
G0 F7500 X99.204 Y111.083
G1 F1500 X136.847 Y148.726 E168.3199
G0 F7500 X136.281 Y148.726
G1 F1500 X98.638 Y111.083 E170.97582
G0 F7500 X98.072 Y111.083
G1 F1500 X135.715 Y148.726 E173.63174
G0 F7500 X135.15 Y148.726
G1 F1500 X97.507 Y111.083 E176.28765
G0 F7500 X96.941 Y111.083
G1 F1500 X134.584 Y148.726 E178.94357
G0 F7500 X134.018 Y148.726
G1 F1500 X96.375 Y111.083 E181.59949
G0 F7500 X95.81 Y111.083
G1 F1500 X133.452 Y148.726 E184.25537
G0 F7500 X132.887 Y148.726
G1 F1500 X95.244 Y111.083 E186.91128
G0 F7500 X94.678 Y111.083
G1 F1500 X132.321 Y148.726 E189.5672
G0 F7500 X131.755 Y148.726
G1 F1500 X94.113 Y111.083 E192.22308
G0 F7500 X93.547 Y111.083
G1 F1500 X131.19 Y148.726 E194.879
G0 F7500 X130.624 Y148.726
G1 F1500 X92.981 Y111.083 E197.53492
G0 F7500 X92.416 Y111.083
G1 F1500 X130.058 Y148.726 E200.1908
G0 F7500 X129.493 Y148.726
G1 F1500 X91.85 Y111.083 E202.84672
G0 F7500 X91.284 Y111.083
G1 F1500 X128.927 Y148.726 E205.50263
G0 F7500 X128.361 Y148.726
G1 F1500 X90.718 Y111.083 E208.15855
G0 F7500 X90.153 Y111.083
G1 F1500 X127.796 Y148.726 E210.81447
G0 F7500 X127.23 Y148.726
G1 F1500 X89.587 Y111.083 E213.47038
G0 F7500 X89.021 Y111.083
G1 F1500 X126.664 Y148.726 E216.1263
G0 F7500 X126.099 Y148.726
G1 F1500 X88.456 Y111.083 E218.78222
G0 F7500 X87.89 Y111.083
G1 F1500 X125.533 Y148.726 E221.43813
G0 F7500 X124.967 Y148.726
G1 F1500 X87.324 Y111.083 E224.09405
G0 F7500 X86.759 Y111.083
G1 F1500 X124.402 Y148.726 E226.74997
G0 F7500 X123.836 Y148.726
G1 F1500 X86.193 Y111.083 E229.40589
G0 F7500 X85.627 Y111.083
G1 F1500 X123.27 Y148.726 E232.0618
G0 F7500 X122.704 Y148.726
G1 F1500 X85.062 Y111.083 E234.71768
G0 F7500 X84.496 Y111.083
G1 F1500 X122.139 Y148.726 E237.3736
G0 F7500 X121.573 Y148.726
G1 F1500 X83.93 Y111.083 E240.02952
G0 F7500 X83.365 Y111.083
G1 F1500 X121.007 Y148.726 E242.6854
G0 F7500 X120.442 Y148.726
G1 F1500 X82.799 Y111.083 E245.34132
G0 F7500 X82.233 Y111.083
G1 F1500 X119.876 Y148.726 E247.99723
G0 F7500 X119.31 Y148.726
G1 F1500 X81.668 Y111.083 E250.65312
G0 F7500 X81.102 Y111.083
G1 F1500 X118.745 Y148.726 E253.30903
G0 F7500 X118.179 Y148.726
G1 F1500 X80.536 Y111.083 E255.96495
G0 F7500 X79.97 Y111.083
G1 F1500 X117.613 Y148.726 E258.62087
G0 F7500 X117.048 Y148.726
G1 F1500 X79.439 Y111.118 E261.27435
G0 F7500 X78.973 Y111.217
G1 F1500 X116.482 Y148.726 E263.92081
G0 F7500 X115.916 Y148.726
G1 F1500 X78.556 Y111.365 E266.5568
G0 F7500 X78.164 Y111.539
G1 F1500 X115.351 Y148.726 E269.18054
G0 F7500 X114.785 Y148.726
G1 F1500 X77.823 Y111.764 E271.78841
G0 F7500 X77.495 Y112.002
G1 F1500 X114.219 Y148.726 E274.37949
G0 F7500 X113.653 Y148.726
G1 F1500 X77.214 Y112.287 E276.95045
G0 F7500 X76.945 Y112.584
G1 F1500 X113.088 Y148.726 E279.5005
G0 F7500 X112.522 Y148.726
G1 F1500 X76.725 Y112.929 E282.02617
G0 F7500 X76.519 Y113.289
G1 F1500 X111.956 Y148.726 E284.52645
G0 F7500 X111.391 Y148.726
G1 F1500 X76.37 Y113.705 E286.99737
G0 F7500 X76.238 Y114.139
G1 F1500 X110.825 Y148.726 E289.43767
G0 F7500 X110.259 Y148.726
G1 F1500 X76.183 Y114.65 E291.84191
G0 F7500 X76.149 Y115.182
G1 F1500 X109.694 Y148.726 E294.20866
G0 F7500 X109.128 Y148.726
G1 F1500 X76.149 Y115.747 E296.5355
G0 F7500 X76.149 Y116.313
G1 F1500 X108.562 Y148.726 E298.82242
G0 F7500 X107.997 Y148.726
G1 F1500 X76.149 Y116.879 E301.06943
G0 F7500 X76.149 Y117.444
G1 F1500 X107.431 Y148.726 E303.27654
G0 F7500 X106.865 Y148.726
G1 F1500 X76.149 Y118.01 E305.44372
G0 F7500 X76.149 Y118.576
G1 F1500 X106.3 Y148.726 E307.571
G0 F7500 X105.734 Y148.726
