;FLAVOR:Marlin
;TIME:9088
;Filament used: 9.19769m
;Layer height: 0.3
;MINX:58.417
;MINY:58.429
;MINZ:0.3
;MAXX:161.583
;MAXY:161.571
;MAXZ:3
;Generated with Cura_SteamEngine master
M140 S60
M105
M190 S60
M104 S200
M105
M109 S200
M82 ;absolute extrusion mode
G28 ;Home
G1 Z15.0 F6000 ;Move the platform down 15mm
;Prime the extruder
G92 E0
G1 F200 E3
G92 E0
G92 E0
G92 E0
G1 F2400 E-6.5
;LAYER_COUNT:10
;LAYER:0
M107 P1
G0 F3600 X73.712 Y73.352 Z0.3
;TYPE:SKIRT
G1 F2400 E0
G1 F1200 X74.924 Y72.181 E0.08408
G1 X75.265 Y71.864 E0.10731
G1 X76.362 Y70.905 E0.18
G1 X77.639 Y69.834 E0.26315
G1 X78.009 Y69.535 E0.28689
G1 X79.165 Y68.658 E0.35928
G1 X80.497 Y67.691 E0.4414
G1 X80.946 Y67.378 E0.4687
G1 X82.089 Y66.63 E0.53685
G1 X83.561 Y65.71 E0.62345
G1 X83.945 Y65.479 E0.64581
G1 X85.164 Y64.798 E0.71547
G1 X86.693 Y63.985 E0.80187
G1 X87.117 Y63.769 E0.82561
G1 X88.461 Y63.138 E0.89968
G1 X89.965 Y62.47 E0.98179
G1 X90.404 Y62.284 E1.00557
G1 X91.756 Y61.76 E1.07791
G1 X93.321 Y61.191 E1.16099
G1 X93.807 Y61.023 E1.18665
G1 X95.129 Y60.616 E1.25566
G1 X96.795 Y60.139 E1.34211
G1 X97.237 Y60.02 E1.36495
G1 X98.65 Y59.691 E1.43733
G1 X100.232 Y59.353 E1.51804
G1 X100.782 Y59.246 E1.54599
G1 X102.167 Y59.023 E1.61598
G1 X103.824 Y58.791 E1.69946
G1 X104.346 Y58.727 E1.72569
G1 X105.729 Y58.602 E1.79497
G1 X107.426 Y58.484 E1.87984
G1 X107.913 Y58.459 E1.90417
G1 X109.348 Y58.429 E1.97578
G1 X111.025 Y58.429 E2.05944
G1 X111.512 Y58.438 E2.08374
G1 X112.947 Y58.509 E2.15542
G1 X114.646 Y58.629 E2.2404
G1 X115.112 Y58.67 E2.26374
G1 X116.504 Y58.837 E2.33368
G1 X118.227 Y59.078 E2.42048
G1 X118.659 Y59.148 E2.44231
G1 X120.104 Y59.425 E2.51572
G1 X121.697 Y59.765 E2.59698
G1 X122.235 Y59.889 E2.62453
G1 X123.551 Y60.238 E2.69245
G1 X125.229 Y60.718 E2.77953
G1 X125.675 Y60.855 E2.8028
G1 X127.005 Y61.31 E2.87293
G1 X128.578 Y61.882 E2.95644
G1 X129.05 Y62.063 E2.98166
G1 X130.416 Y62.639 E3.05562
G1 X131.906 Y63.303 E3.137
G1 X132.354 Y63.511 E3.16164
G1 X133.58 Y64.131 E3.23019
G1 X135.111 Y64.945 E3.31669
G1 X135.558 Y65.193 E3.3422
G1 X136.751 Y65.906 E3.41153
G1 X138.24 Y66.836 E3.49912
G1 X138.603 Y67.073 E3.52075
G1 X139.773 Y67.886 E3.59183
G1 X141.13 Y68.873 E3.67554
G1 X141.524 Y69.17 E3.70016
G1 X142.668 Y70.091 E3.77343
G1 X143.954 Y71.171 E3.85721
G1 X144.302 Y71.474 E3.88024
G1 X145.345 Y72.442 E3.95123
G1 X146.582 Y73.637 E4.03704
G1 X146.902 Y73.956 E4.05958
G1 X147.887 Y75.007 E4.13144
G1 X149.025 Y76.272 E4.21633
G1 X149.32 Y76.61 E4.23871
G1 X150.242 Y77.743 E4.31159
G1 X151.27 Y79.06 E4.39494
G1 X151.579 Y79.47 E4.42056
G1 X152.364 Y80.584 E4.48855
G1 X153.349 Y82.043 E4.57637
G1 X153.583 Y82.406 E4.59792
G1 X154.338 Y83.654 E4.67069
G1 X155.185 Y85.122 E4.75525
G1 X155.413 Y85.535 E4.77878
G1 X156.057 Y86.789 E4.84911
G1 X156.816 Y88.345 E4.93548
G1 X157.01 Y88.763 E4.95847
G1 X157.561 Y90.051 E5.02837
G1 X158.212 Y91.663 E5.1151
G1 X158.368 Y92.072 E5.13694
G1 X158.849 Y93.457 E5.21008
G1 X159.355 Y95.015 E5.29181
G1 X159.509 Y95.519 E5.3181
G1 X159.878 Y96.88 E5.38845
G1 X160.298 Y98.567 E5.47519
G1 X160.392 Y98.977 E5.49617
G1 X160.674 Y100.406 E5.56884
G1 X160.963 Y102.043 E5.65178
G1 X161.04 Y102.531 E5.67642
G1 X161.221 Y103.977 E5.74913
G1 X161.393 Y105.615 E5.8313
G1 X161.436 Y106.112 E5.85618
G1 X161.517 Y107.569 E5.92899
G1 X161.575 Y109.25 E6.0129
G1 X161.583 Y109.704 E6.03556
G1 X161.562 Y111.151 E6.10775
G1 X161.502 Y112.831 E6.19162
G1 X161.478 Y113.311 E6.2156
G1 X161.357 Y114.733 E6.2868
G1 X161.178 Y116.439 E6.37238
G1 X161.122 Y116.881 E6.39461
G1 X160.899 Y118.318 E6.46716
G1 X160.613 Y119.94 E6.54933
G1 X160.512 Y120.46 E6.57576
G1 X160.2 Y121.831 E6.64591
G1 X159.79 Y123.474 E6.73039
G1 X159.662 Y123.947 E6.75484
G1 X159.248 Y125.317 E6.82624
G1 X158.742 Y126.871 E6.90777
G1 X158.561 Y127.397 E6.93553
G1 X158.066 Y128.698 E7.00497
G1 X157.443 Y130.238 E7.08785
G1 X157.234 Y130.73 E7.11452
G1 X156.639 Y132.015 E7.18517
G1 X155.898 Y133.536 E7.26958
G1 X155.679 Y133.966 E7.29365
G1 X154.993 Y135.211 E7.36457
G1 X154.142 Y136.684 E7.44944
G1 X153.898 Y137.091 E7.47312
G1 X153.125 Y138.287 E7.54416
G1 X152.185 Y139.68 E7.628
G1 X151.899 Y140.088 E7.65286
G1 X151.031 Y141.246 E7.72506
G1 X150.013 Y142.55 E7.8076
G1 X149.708 Y142.926 E7.83175
G1 X148.744 Y144.043 E7.90536
G1 X147.634 Y145.273 E7.98802
G1 X147.307 Y145.624 E8.01195
G1 X146.288 Y146.648 E8.08403
G1 X145.076 Y147.819 E8.16811
G1 X144.734 Y148.137 E8.1914
G1 X143.638 Y149.095 E8.26403
G1 X142.362 Y150.165 E8.34711
G1 X141.99 Y150.466 E8.37098
G1 X140.835 Y151.342 E8.4433
G1 X139.505 Y152.308 E8.52531
G1 X139.052 Y152.624 E8.55287
G1 X137.911 Y153.37 E8.62088
G1 X136.439 Y154.29 E8.70748
G1 X136.054 Y154.521 E8.72988
G1 X134.778 Y155.232 E8.80276
G1 X133.311 Y156.012 E8.88565
G1 X132.883 Y156.231 E8.90963
G1 X131.54 Y156.862 E8.98366
G1 X130.038 Y157.53 E9.06568
G1 X129.594 Y157.718 E9.08973
G1 X128.244 Y158.24 E9.16194
G1 X126.679 Y158.809 E9.24502
G1 X126.192 Y158.977 E9.27072
G1 X124.87 Y159.384 E9.33973
G1 X123.205 Y159.861 E9.42614
G1 X122.761 Y159.981 E9.44909
G1 X121.351 Y160.308 E9.5213
G1 X119.773 Y160.645 E9.6018
G1 X119.217 Y160.754 E9.63007
G1 X117.833 Y160.977 E9.70001
G1 X116.176 Y161.209 E9.78348
G1 X115.654 Y161.273 E9.80972
G1 X114.271 Y161.398 E9.879
G1 X112.574 Y161.516 E9.96387
G1 X112.087 Y161.541 E9.9882
G1 X110.652 Y161.571 E10.0598
G1 X108.975 Y161.571 E10.14347
G1 X108.489 Y161.562 E10.16772
G1 X107.053 Y161.491 E10.23945
G1 X105.353 Y161.371 E10.32447
G1 X104.889 Y161.33 E10.34771
G1 X103.495 Y161.163 E10.41776
G1 X101.769 Y160.921 E10.50471
G1 X101.342 Y160.852 E10.52629
G1 X99.896 Y160.575 E10.59974
G1 X98.31 Y160.237 E10.68065
G1 X97.764 Y160.112 E10.70859
G1 X96.449 Y159.762 E10.77648
G1 X94.768 Y159.281 E10.86371
G1 X94.326 Y159.145 E10.88678
G1 X92.994 Y158.69 E10.95701
G1 X91.421 Y158.118 E11.04051
G1 X90.949 Y157.937 E11.06573
G1 X89.584 Y157.362 E11.13963
G1 X88.091 Y156.696 E11.22119
G1 X87.648 Y156.489 E11.24558
G1 X86.362 Y155.838 E11.31749
G1 X84.889 Y155.055 E11.40072
G1 X84.443 Y154.808 E11.42616
G1 X83.248 Y154.094 E11.49561
G1 X81.759 Y153.164 E11.58319
G1 X81.396 Y152.927 E11.60482
G1 X80.226 Y152.114 E11.6759
G1 X78.861 Y151.121 E11.76011
G1 X78.477 Y150.83 E11.78415
G1 X77.332 Y149.908 E11.85749
G1 X76.046 Y148.828 E11.94128
G1 X75.698 Y148.525 E11.9643
G1 X74.655 Y147.557 E12.03529
G1 X73.418 Y146.362 E12.1211
G1 X73.098 Y146.043 E12.14364
G1 X72.113 Y144.992 E12.2155
G1 X70.975 Y143.727 E12.30039
G1 X70.68 Y143.389 E12.32278
G1 X69.758 Y142.256 E12.39565
G1 X68.73 Y140.939 E12.479
G1 X68.422 Y140.53 E12.50455
G1 X67.635 Y139.415 E12.57264
G1 X66.65 Y137.956 E12.66046
G1 X66.416 Y137.594 E12.68197
G1 X65.661 Y136.346 E12.75474
G1 X64.815 Y134.878 E12.83927
G1 X64.587 Y134.465 E12.8628
G1 X63.943 Y133.211 E12.93313
G1 X63.184 Y131.655 E13.01951
G1 X62.99 Y131.238 E13.04245
G1 X62.438 Y129.946 E13.11255
G1 X61.785 Y128.328 E13.1996
G1 X61.631 Y127.927 E13.22103
G1 X61.151 Y126.542 E13.29416
G1 X60.645 Y124.984 E13.37588
G1 X60.491 Y124.481 E13.40213
G1 X60.122 Y123.12 E13.47248
G1 X59.701 Y121.425 E13.55961
G1 X59.609 Y121.026 E13.58004
G1 X59.326 Y119.593 E13.65291
G1 X59.037 Y117.956 E13.73585
G1 X58.96 Y117.468 E13.76049
G1 X58.779 Y116.022 E13.8332
G1 X58.607 Y114.384 E13.91537
G1 X58.564 Y113.887 E13.94026
G1 X58.483 Y112.431 E14.01301
G1 X58.425 Y110.75 E14.09692
G1 X58.417 Y110.297 E14.11953
G1 X58.438 Y108.848 E14.19183
G1 X58.498 Y107.168 E14.27569
G1 X58.522 Y106.69 E14.29957
G1 X58.643 Y105.267 E14.37082
G1 X58.822 Y103.56 E14.45645
G1 X58.878 Y103.12 E14.47858
G1 X59.101 Y101.682 E14.55118
G1 X59.388 Y100.059 E14.63341
G1 X59.488 Y99.541 E14.65973
G1 X59.8 Y98.169 E14.72993
G1 X60.21 Y96.528 E14.81431
G1 X60.337 Y96.055 E14.83875
G1 X60.752 Y94.683 E14.91026
G1 X61.259 Y93.126 E14.99195
G1 X61.439 Y92.605 E15.01945
G1 X61.934 Y91.302 E15.08899
G1 X62.557 Y89.762 E15.17187
G1 X62.765 Y89.271 E15.19847
G1 X63.361 Y87.984 E15.26923
G1 X64.106 Y86.456 E15.35404
G1 X64.321 Y86.035 E15.37763
G1 X65.008 Y84.789 E15.44861
G1 X65.857 Y83.319 E15.53331
G1 X66.101 Y82.911 E15.55702
G1 X66.837 Y81.769 E15.62481
G1 X67.814 Y80.322 E15.71191
G1 X68.1 Y79.912 E15.73685
G1 X68.969 Y78.754 E15.80908
G1 X69.986 Y77.451 E15.89155
G1 X70.291 Y77.074 E15.91574
G1 X71.256 Y75.957 E15.98938
G1 X72.366 Y74.727 E16.07204
G1 X72.692 Y74.377 E16.0959
G1 X73.712 Y73.352 E16.16805
G1 F2400 E9.66805
;MESH:Pressdeckel.stl
G0 F3600 X74.741 Y75.884
G0 X75.633 Y76.807
G0 X111.647 Y157.371
;TYPE:WALL-INNER
G1 F2400 E16.16805
G1 F1200 X108.353 Y157.371 E16.33239
G1 X105.037 Y157.139 E16.49823
G1 X101.769 Y156.679 E16.66287
G1 X98.547 Y155.994 E16.82721
G1 X95.35 Y155.078 E16.99313
G1 X92.235 Y153.946 E17.15848
G1 X89.231 Y152.608 E17.32255
G1 X86.297 Y151.048 E17.48833
G1 X83.506 Y149.303 E17.65255
G1 X80.798 Y147.336 E17.81953
G1 X78.298 Y145.237 E17.98239
G1 X75.903 Y142.922 E18.14857
G1 X73.678 Y140.455 E18.31431
G1 X71.668 Y137.879 E18.47732
G1 X69.784 Y135.088 E18.64532
G1 X68.154 Y132.263 E18.80804
G1 X66.699 Y129.282 E18.97353
G1 X65.456 Y126.203 E19.13919
G1 X64.437 Y123.072 E19.30346
G1 X63.638 Y119.861 E19.46854
G1 X63.063 Y116.602 E19.63365
G1 X62.718 Y113.308 E19.79888
G1 X62.6 Y110.007 E19.96368
G1 X62.718 Y106.686 E20.12947
G1 X63.064 Y103.393 E20.29466
G1 X63.639 Y100.134 E20.45976
G1 X64.437 Y96.928 E20.62459
G1 X65.457 Y93.794 E20.78902
G1 X66.7 Y90.716 E20.95463
G1 X68.156 Y87.732 E21.12028
G1 X69.784 Y84.912 E21.28273
G1 X71.67 Y82.117 E21.45095
G1 X73.678 Y79.545 E21.61374
G1 X75.905 Y77.075 E21.77966
G1 X78.304 Y74.757 E21.94609
G1 X80.798 Y72.664 E22.10853
G1 X83.506 Y70.697 E22.27551
G1 X86.297 Y68.952 E22.43973
G1 X89.233 Y67.391 E22.60562
G1 X92.235 Y66.054 E22.76958
G1 X95.35 Y64.922 E22.93493
G1 X98.547 Y64.006 E23.10085
G1 X101.769 Y63.321 E23.26518
G1 X105.037 Y62.861 E23.42983
G1 X108.353 Y62.629 E23.59567
G1 X111.647 Y62.629 E23.76001
G1 X114.963 Y62.861 E23.92585
G1 X118.231 Y63.321 E24.0905
G1 X121.453 Y64.006 E24.25484
G1 X124.65 Y64.922 E24.42076
G1 X127.765 Y66.054 E24.58611
G1 X130.767 Y67.391 E24.75006
G1 X133.703 Y68.952 E24.91595
G1 X136.494 Y70.697 E25.08017
G1 X139.202 Y72.664 E25.24716
G1 X141.696 Y74.757 E25.40959
G1 X144.095 Y77.075 E25.57602
G1 X146.322 Y79.545 E25.74194
G1 X148.33 Y82.117 E25.90473
G1 X150.216 Y84.912 E26.07295
G1 X151.844 Y87.732 E26.23541
G1 X153.3 Y90.716 E26.40105
G1 X154.543 Y93.794 E26.56667
G1 X155.563 Y96.928 E26.73109
G1 X156.361 Y100.134 E26.89592
G1 X156.936 Y103.393 E27.06103
G1 X157.282 Y106.686 E27.22622
G1 X157.4 Y109.993 E27.39131
G1 X157.282 Y113.308 E27.5568
G1 X156.937 Y116.602 E27.72204
G1 X156.362 Y119.861 E27.88714
G1 X155.563 Y123.072 E28.05222
G1 X154.544 Y126.203 E28.2165
G1 X153.301 Y129.282 E28.38215
G1 X151.846 Y132.263 E28.54764
G1 X150.216 Y135.088 E28.71036
G1 X148.332 Y137.879 E28.87836
G1 X146.322 Y140.455 E29.04137
G1 X144.097 Y142.922 E29.20712
G1 X141.702 Y145.237 E29.3733
G1 X139.202 Y147.336 E29.53616
G1 X136.494 Y149.303 E29.70314
G1 X133.703 Y151.048 E29.86736
G1 X130.769 Y152.608 E30.03314
G1 X127.765 Y153.946 E30.1972
G1 X124.65 Y155.078 E30.36255
G1 X121.453 Y155.994 E30.52847
G1 X118.231 Y156.679 E30.69281
G1 X114.963 Y157.139 E30.85746
G1 X111.647 Y157.371 E31.0233
G0 F3600 X111.661 Y157.771
G1 F1200 X108.339 Y157.771 E31.18903
G1 X104.996 Y157.537 E31.35623
G1 X101.703 Y157.074 E31.52213
G1 X98.44 Y156.38 E31.68856
G1 X95.229 Y155.46 E31.85521
G1 X92.091 Y154.319 E32.02179
G1 X89.053 Y152.966 E32.18771
G1 X86.098 Y151.395 E32.35467
G1 X83.277 Y149.631 E32.52066
G1 X80.559 Y147.657 E32.68825
G1 X78.023 Y145.528 E32.85345
G1 X75.617 Y143.203 E33.02037
G1 X73.375 Y140.716 E33.18742
G1 X71.337 Y138.105 E33.35267
G1 X69.452 Y135.312 E33.52078
G1 X67.803 Y132.454 E33.6854
G1 X66.329 Y129.434 E33.85306
G1 X65.082 Y126.346 E34.0192
G1 X64.052 Y123.179 E34.18535
G1 X63.246 Y119.943 E34.35173
G1 X62.666 Y116.655 E34.5183
G1 X62.318 Y113.335 E34.68484
G1 X62.2 Y110.007 E34.85098
G1 X62.318 Y106.658 E35.01817
G1 X62.667 Y103.34 E35.18462
G1 X63.247 Y100.052 E35.35119
G1 X64.052 Y96.821 E35.51731
G1 X65.083 Y93.651 E35.68362
G1 X66.329 Y90.566 E35.84961
G1 X67.805 Y87.541 E36.01753
G1 X69.452 Y84.688 E36.18189
G1 X71.338 Y81.893 E36.35011
G1 X73.375 Y79.284 E36.51524
G1 X75.619 Y76.794 E36.68247
G1 X78.026 Y74.469 E36.84943
G1 X80.559 Y72.343 E37.01442
G1 X83.277 Y70.369 E37.18201
G1 X86.098 Y68.605 E37.348
G1 X89.055 Y67.033 E37.51508
G1 X92.091 Y65.681 E37.68088
G1 X95.229 Y64.54 E37.84747
G1 X98.44 Y63.62 E38.01411
G1 X101.703 Y62.926 E38.18054
G1 X104.996 Y62.463 E38.34645
G1 X108.339 Y62.229 E38.51364
G1 X111.661 Y62.229 E38.67937
G1 X115.004 Y62.463 E38.84656
G1 X118.297 Y62.926 E39.01247
G1 X121.56 Y63.62 E39.1789
G1 X124.771 Y64.54 E39.34554
G1 X127.909 Y65.681 E39.51213
G1 X130.945 Y67.033 E39.67793
G1 X133.902 Y68.605 E39.84501
G1 X136.723 Y70.369 E40.011
G1 X139.441 Y72.343 E40.17859
G1 X141.974 Y74.469 E40.34358
G1 X144.381 Y76.794 E40.51054
G1 X146.625 Y79.284 E40.67777
G1 X148.662 Y81.893 E40.8429
G1 X150.548 Y84.688 E41.01112
G1 X152.195 Y87.541 E41.17548
G1 X153.671 Y90.566 E41.3434
G1 X154.917 Y93.651 E41.50939
G1 X155.948 Y96.821 E41.6757
G1 X156.753 Y100.052 E41.84182
G1 X157.333 Y103.34 E42.00839
G1 X157.682 Y106.658 E42.17484
G1 X157.8 Y109.993 E42.34133
G1 X157.682 Y113.335 E42.50817
G1 X157.334 Y116.655 E42.67471
G1 X156.754 Y119.943 E42.84128
G1 X155.948 Y123.179 E43.00766
G1 X154.918 Y126.346 E43.17381
G1 X153.671 Y129.434 E43.33995
G1 X152.197 Y132.454 E43.50761
G1 X150.548 Y135.312 E43.67223
G1 X148.663 Y138.105 E43.84034
G1 X146.625 Y140.716 E44.00559
G1 X144.383 Y143.203 E44.17264
G1 X141.977 Y145.528 E44.33956
G1 X139.441 Y147.657 E44.50476
G1 X136.723 Y149.631 E44.67235
G1 X133.902 Y151.395 E44.83834
G1 X130.947 Y152.966 E45.0053
G1 X127.909 Y154.319 E45.17122
G1 X124.771 Y155.46 E45.3378
G1 X121.56 Y156.38 E45.50445
G1 X118.297 Y157.074 E45.67088
G1 X115.004 Y157.537 E45.83678
G1 X111.661 Y157.771 E46.00398
G0 F3600 X111.675 Y158.171
;TYPE:WALL-OUTER
G1 F1200 X108.325 Y158.171 E46.17111
G1 X104.955 Y157.935 E46.33965
G1 X101.637 Y157.469 E46.50681
G1 X98.333 Y156.766 E46.67534
G1 X95.108 Y155.842 E46.84271
G1 X91.947 Y154.692 E47.01052
G1 X88.875 Y153.324 E47.17829
G1 X85.899 Y151.742 E47.34644
G1 X83.048 Y149.959 E47.5142
G1 X80.32 Y147.978 E47.6824
G1 X77.748 Y145.819 E47.84994
G1 X75.331 Y143.484 E48.0176
G1 X73.072 Y140.977 E48.18596
G1 X71.006 Y138.331 E48.35345
G1 X69.12 Y135.536 E48.52167
G1 X67.445 Y132.634 E48.68883
G1 X65.964 Y129.598 E48.85736
G1 X64.708 Y126.489 E49.02465
G1 X63.667 Y123.286 E49.19268
G1 X62.854 Y120.025 E49.36035
G1 X62.269 Y116.708 E49.52839
G1 X61.918 Y113.362 E49.69624
G1 X61.8 Y110.007 E49.86372
G1 X61.918 Y106.631 E50.03225
G1 X62.27 Y103.285 E50.20011
G1 X62.855 Y99.972 E50.36795
G1 X63.667 Y96.714 E50.53546
G1 X64.709 Y93.508 E50.70365
G1 X65.964 Y90.402 E50.87078
G1 X67.445 Y87.366 E51.03931
G1 X69.12 Y84.464 E51.20647
G1 X71.006 Y81.669 E51.37469
G1 X73.072 Y79.023 E51.54218
G1 X75.333 Y76.513 E51.71072
G1 X77.748 Y74.181 E51.8782
G1 X80.32 Y72.022 E52.04574
G1 X83.048 Y70.041 E52.21394
G1 X85.899 Y68.258 E52.3817
G1 X88.877 Y66.675 E52.54996
G1 X91.947 Y65.308 E52.71762
G1 X95.108 Y64.158 E52.88544
G1 X98.333 Y63.234 E53.0528
G1 X101.637 Y62.531 E53.22133
G1 X104.955 Y62.065 E53.38849
G1 X108.325 Y61.829 E53.55703
G1 X111.675 Y61.829 E53.72417
G1 X115.045 Y62.065 E53.89271
G1 X118.363 Y62.531 E54.05987
G1 X121.667 Y63.234 E54.2284
G1 X124.892 Y64.158 E54.39576
G1 X128.053 Y65.308 E54.56358
G1 X131.123 Y66.675 E54.73124
G1 X134.101 Y68.258 E54.8995
G1 X136.952 Y70.041 E55.06726
G1 X139.68 Y72.022 E55.23546
G1 X142.252 Y74.181 E55.403
G1 X144.667 Y76.513 E55.57048
G1 X146.928 Y79.023 E55.73902
G1 X148.994 Y81.669 E55.90651
G1 X150.88 Y84.464 E56.07473
G1 X152.555 Y87.366 E56.24189
G1 X154.036 Y90.402 E56.41042
G1 X155.291 Y93.508 E56.57755
G1 X156.333 Y96.714 E56.74574
G1 X157.145 Y99.972 E56.91325
G1 X157.73 Y103.285 E57.08109
G1 X158.082 Y106.631 E57.24895
G1 X158.2 Y109.993 E57.41678
G1 X158.082 Y113.362 E57.58496
