;FLAVOR:Marlin
;TIME:21079
;Filament used: 41.3824m
;Layer height: 0.3
;MINX:16.8
;MINY:84.719
;MINZ:0.3
;MAXX:203.2
;MAXY:138.2
;MAXZ:48.9
;Generated with Cura_SteamEngine master
M140 S60
M105
M190 S60
M104 S200
M105
M109 S200
M82 ;absolute extrusion mode
G28 ;Home
G1 Z15.0 F6000 ;Move the platform down 15mm
;Prime the extruder
G92 E0
G1 F200 E3
G92 E0
G92 E0
G92 E0
G1 F2400 E-6.5
;LAYER_COUNT:163
;LAYER:0
M107 P1
G0 F3600 X19.582 Y91.838 Z0.3
;TYPE:SKIRT
G1 F2400 E0
G1 F1200 X20.24 Y91.801 E0.03288
G1 X199.339 Y91.8 E8.96817
G1 X200.037 Y91.81 E9.00299
G1 X200.54 Y91.857 E9.0282
G1 X201.03 Y91.983 E9.05344
G1 X201.494 Y92.185 E9.07869
G1 X201.92 Y92.457 E9.1039
G1 X202.298 Y92.792 E9.1291
G1 X202.618 Y93.183 E9.15431
G1 X202.873 Y93.62 E9.17955
G1 X203.056 Y94.091 E9.20476
G1 X203.163 Y94.585 E9.22998
G1 X203.199 Y95.24 E9.2627
G1 X203.2 Y134.304 E11.21161
G1 X203.191 Y135.031 E11.24789
G1 X203.145 Y135.534 E11.27309
G1 X203.02 Y136.024 E11.29832
G1 X202.819 Y136.488 E11.32354
G1 X202.548 Y136.915 E11.34878
G1 X202.213 Y137.294 E11.37401
G1 X201.823 Y137.615 E11.39921
G1 X201.387 Y137.871 E11.42444
G1 X200.916 Y138.054 E11.44965
G1 X200.422 Y138.162 E11.47487
G1 X199.76 Y138.199 E11.50795
G1 X20.666 Y138.2 E20.44299
G1 X19.968 Y138.191 E20.47781
G1 X19.464 Y138.144 E20.50307
G1 X18.974 Y138.019 E20.5283
G1 X18.51 Y137.818 E20.55353
G1 X18.084 Y137.547 E20.57871
G1 X17.705 Y137.212 E20.60395
G1 X17.384 Y136.821 E20.62919
G1 X17.129 Y136.385 E20.65439
G1 X16.945 Y135.914 E20.67962
G1 X16.838 Y135.42 E20.70483
G1 X16.801 Y134.744 E20.73861
G1 X16.8 Y95.631 E22.68997
G1 X16.809 Y94.966 E22.72315
G1 X16.856 Y94.462 E22.7484
G1 X16.982 Y93.973 E22.77359
G1 X17.183 Y93.509 E22.79882
G1 X17.454 Y93.082 E22.82405
G1 X17.789 Y92.704 E22.84925
G1 X18.18 Y92.383 E22.87449
G1 X18.617 Y92.128 E22.89973
G1 X19.088 Y91.944 E22.92496
G1 X19.582 Y91.838 E22.95017
G1 F2400 E16.45017
;MESH:GardenaWallHolder.stl
G0 F3600 X20.614 Y94.335
G0 X20.614 Y95.614
G0 X40.344 Y108.445
;TYPE:WALL-INNER
G1 F2400 E22.95017
G1 F1200 X41.219 Y108.499 E22.9939
G1 X42.084 Y108.337 E23.03781
G1 X42.881 Y107.96 E23.08179
G1 X43.559 Y107.397 E23.12576
G1 X44.077 Y106.684 E23.16973
G1 X44.398 Y105.867 E23.21352
G1 X44.506 Y104.994 E23.25741
G1 X44.394 Y104.122 E23.30127
G1 X44.071 Y103.305 E23.3451
G1 X43.556 Y102.6 E23.38866
G1 X42.88 Y102.04 E23.43245
G1 X42.085 Y101.663 E23.47635
G1 X41.219 Y101.501 E23.5203
G1 X40.344 Y101.555 E23.56404
G1 X39.507 Y101.827 E23.60795
G1 X38.764 Y102.298 E23.65184
G1 X38.159 Y102.945 E23.69603
G1 X37.739 Y103.715 E23.73979
G1 X37.521 Y104.566 E23.78362
G1 X37.522 Y105.445 E23.82747
G1 X37.742 Y106.296 E23.87132
G1 X38.166 Y107.064 E23.91509
G1 X38.764 Y107.702 E23.95872
G1 X39.507 Y108.173 E24.0026
G1 X40.344 Y108.445 E24.04651
G0 F3600 X37.882 Y124.612
G0 X38.08 Y126.161
G0 X38.893 Y127.311
G0 X40.344 Y128.445
G1 F1200 X41.219 Y128.499 E24.09025
G1 X42.084 Y128.337 E24.13415
G1 X42.881 Y127.96 E24.17814
G1 X43.559 Y127.397 E24.22211
G1 X44.077 Y126.684 E24.26608
G1 X44.398 Y125.867 E24.30987
G1 X44.506 Y124.994 E24.35376
G1 X44.394 Y124.122 E24.39762
G1 X44.071 Y123.305 E24.44145
G1 X43.556 Y122.6 E24.48501
G1 X42.88 Y122.04 E24.5288
G1 X42.085 Y121.663 E24.5727
G1 X41.219 Y121.501 E24.61665
G1 X40.344 Y121.555 E24.66039
G1 X39.507 Y121.827 E24.7043
G1 X38.764 Y122.298 E24.74819
G1 X38.159 Y122.945 E24.79238
G1 X37.739 Y123.715 E24.83614
G1 X37.521 Y124.566 E24.87996
G1 X37.522 Y125.445 E24.92382
G1 X37.742 Y126.296 E24.96767
G1 X38.166 Y127.064 E25.01144
G1 X38.764 Y127.702 E25.05506
G1 X39.507 Y128.173 E25.09895
G1 X40.344 Y128.445 E25.14286
G0 F3600 X176.344 Y128.445
G1 F1200 X177.219 Y128.499 E25.1866
G1 X178.084 Y128.337 E25.2305
G1 X178.881 Y127.96 E25.27449
G1 X179.559 Y127.397 E25.31846
G1 X180.077 Y126.684 E25.36242
G1 X180.398 Y125.867 E25.40622
G1 X180.506 Y124.994 E25.4501
G1 X180.394 Y124.122 E25.49397
G1 X180.071 Y123.305 E25.5378
G1 X179.556 Y122.6 E25.58135
G1 X178.88 Y122.04 E25.62515
G1 X178.085 Y121.663 E25.66904
G1 X177.219 Y121.501 E25.713
G1 X176.344 Y121.555 E25.75674
G1 X175.507 Y121.827 E25.80064
G1 X174.764 Y122.298 E25.84453
G1 X174.159 Y122.945 E25.88872
G1 X173.739 Y123.715 E25.93248
G1 X173.521 Y124.566 E25.97631
G1 X173.522 Y125.445 E26.02016
G1 X173.742 Y126.296 E26.06402
G1 X174.166 Y127.064 E26.10778
G1 X174.764 Y127.702 E26.15141
G1 X175.507 Y128.173 E26.1953
G1 X176.344 Y128.445 E26.23921
G0 F3600 X174.996 Y127.421
G0 X174.08 Y126.161
G0 X173.883 Y124.762
G0 X176.344 Y108.445
G1 F1200 X177.219 Y108.499 E26.28294
G1 X178.084 Y108.337 E26.32685
G1 X178.881 Y107.96 E26.37084
G1 X179.559 Y107.397 E26.4148
G1 X180.077 Y106.684 E26.45877
G1 X180.398 Y105.867 E26.50256
G1 X180.506 Y104.994 E26.54645
G1 X180.394 Y104.122 E26.59031
G1 X180.071 Y103.305 E26.63414
G1 X179.556 Y102.6 E26.6777
G1 X178.88 Y102.04 E26.72149
G1 X178.085 Y101.663 E26.76539
G1 X177.219 Y101.501 E26.80935
G1 X176.344 Y101.555 E26.85308
G1 X175.507 Y101.827 E26.89699
G1 X174.764 Y102.298 E26.94088
G1 X174.159 Y102.945 E26.98507
G1 X173.739 Y103.715 E27.02883
G1 X173.521 Y104.566 E27.07266
G1 X173.522 Y105.445 E27.11651
G1 X173.742 Y106.296 E27.16036
G1 X174.166 Y107.064 E27.20413
G1 X174.764 Y107.702 E27.24776
G1 X175.507 Y108.173 E27.29165
G1 X176.344 Y108.445 E27.33555
G0 F3600 X199 Y134
G1 F1200 X21 Y134 E36.21601
G1 X21 Y96 E38.11184
G1 X199 Y96 E46.99229
G1 X199 Y134 E48.88812
G0 F3600 X199.4 Y134.4
G1 F1200 X20.6 Y134.4 E57.80849
G1 X20.6 Y95.6 E59.74423
G1 X199.4 Y95.6 E68.6646
G1 X199.4 Y134.4 E70.60034
G0 F3600 X199.33 Y134.33
G0 X176.401 Y128.147
G0 X176.419 Y128.049
G1 F1200 X177.194 Y128.097 E70.63908
G1 X177.96 Y127.953 E70.67796
G1 X178.664 Y127.62 E70.71682
G1 X179.265 Y127.121 E70.75579
G1 X179.723 Y126.49 E70.79469
G1 X180.007 Y125.768 E70.83339
G1 X180.103 Y124.995 E70.87225
G1 X180.004 Y124.223 E70.91109
G1 X179.718 Y123.5 E70.94988
G1 X179.262 Y122.876 E70.98843
G1 X178.663 Y122.38 E71.02723
G1 X177.96 Y122.047 E71.06604
G1 X177.194 Y121.903 E71.10493
G1 X176.419 Y121.951 E71.14367
G1 X175.679 Y122.192 E71.18249
G1 X175.021 Y122.609 E71.22136
G1 X174.486 Y123.181 E71.26043
G1 X174.114 Y123.863 E71.29919
G1 X173.921 Y124.616 E71.33797
G1 X173.922 Y125.394 E71.37679
G1 X174.117 Y126.147 E71.41559
G1 X174.492 Y126.827 E71.45434
G1 X175.021 Y127.391 E71.49291
G1 X175.679 Y127.808 E71.53178
G1 X176.419 Y128.049 E71.57061
G0 F3600 X176.401 Y128.147
G0 X174.996 Y127.421
G0 X174.08 Y126.161
G0 X173.883 Y124.762
G0 X176.401 Y108.147
G0 X176.419 Y108.049
G1 F1200 X177.194 Y108.097 E71.60934
G1 X177.96 Y107.953 E71.64823
G1 X178.664 Y107.62 E71.68708
G1 X179.265 Y107.121 E71.72606
G1 X179.723 Y106.49 E71.76495
G1 X180.007 Y105.768 E71.80366
G1 X180.103 Y104.995 E71.84252
G1 X180.004 Y104.223 E71.88135
G1 X179.718 Y103.5 E71.92014
G1 X179.262 Y102.876 E71.9587
G1 X178.663 Y102.38 E71.9975
G1 X177.96 Y102.047 E72.03631
G1 X177.194 Y101.903 E72.0752
G1 X176.419 Y101.951 E72.11394
G1 X175.679 Y102.192 E72.15276
G1 X175.021 Y102.609 E72.19163
G1 X174.486 Y103.181 E72.2307
G1 X174.114 Y103.863 E72.26946
G1 X173.921 Y104.616 E72.30824
G1 X173.922 Y105.394 E72.34706
G1 X174.117 Y106.147 E72.38586
G1 X174.492 Y106.827 E72.4246
G1 X175.021 Y107.391 E72.46318
G1 X175.679 Y107.808 E72.50205
G1 X176.419 Y108.049 E72.54087
G0 F3600 X176.401 Y108.147
G0 X40.401 Y108.147
G0 X40.419 Y108.049
G1 F1200 X41.194 Y108.097 E72.57961
G1 X41.96 Y107.953 E72.6185
G1 X42.664 Y107.62 E72.65735
G1 X43.265 Y107.121 E72.69632
G1 X43.723 Y106.49 E72.73522
G1 X44.007 Y105.768 E72.77393
G1 X44.103 Y104.995 E72.81279
G1 X44.004 Y104.223 E72.85162
G1 X43.718 Y103.5 E72.89041
G1 X43.262 Y102.876 E72.92897
G1 X42.663 Y102.38 E72.96777
G1 X41.96 Y102.047 E73.00658
G1 X41.194 Y101.903 E73.04546
G1 X40.419 Y101.951 E73.0842
G1 X39.679 Y102.192 E73.12303
G1 X39.021 Y102.609 E73.1619
G1 X38.486 Y103.181 E73.20097
G1 X38.114 Y103.863 E73.23973
G1 X37.921 Y104.616 E73.27851
G1 X37.922 Y105.394 E73.31732
G1 X38.117 Y106.147 E73.35613
G1 X38.492 Y106.827 E73.39487
G1 X39.021 Y107.391 E73.43345
G1 X39.679 Y107.808 E73.47232
G1 X40.419 Y108.049 E73.51114
G0 F3600 X40.401 Y108.147
G0 X37.882 Y124.612
G0 X38.08 Y126.161
G0 X38.996 Y127.421
G0 X40.401 Y128.147
G0 X40.419 Y128.049
G1 F1200 X41.194 Y128.097 E73.54988
G1 X41.96 Y127.953 E73.58877
G1 X42.664 Y127.62 E73.62762
G1 X43.265 Y127.121 E73.66659
G1 X43.723 Y126.49 E73.70549
G1 X44.007 Y125.768 E73.7442
G1 X44.103 Y124.995 E73.78306
G1 X44.004 Y124.223 E73.82189
G1 X43.718 Y123.5 E73.86068
G1 X43.262 Y122.876 E73.89924
G1 X42.663 Y122.38 E73.93804
G1 X41.96 Y122.047 E73.97685
G1 X41.194 Y121.903 E74.01573
G1 X40.419 Y121.951 E74.05447
G1 X39.679 Y122.192 E74.0933
G1 X39.021 Y122.609 E74.13216
G1 X38.486 Y123.181 E74.17124
G1 X38.114 Y123.863 E74.21
G1 X37.921 Y124.616 E74.24878
G1 X37.922 Y125.394 E74.28759
G1 X38.117 Y126.147 E74.3264
G1 X38.492 Y126.827 E74.36514
G1 X39.021 Y127.391 E74.40372
G1 X39.679 Y127.808 E74.44258
G1 X40.419 Y128.049 E74.48141
G0 F3600 X40.495 Y127.653
;TYPE:WALL-OUTER
G1 F1200 X41.169 Y127.695 E74.5151
G1 X41.835 Y127.569 E74.54892
G1 X42.447 Y127.28 E74.58268
G1 X42.971 Y126.845 E74.61666
G1 X43.369 Y126.296 E74.65049
G1 X43.616 Y125.668 E74.68416
G1 X43.7 Y124.996 E74.71795
G1 X43.614 Y124.324 E74.75175
G1 X43.365 Y123.695 E74.7855
G1 X42.968 Y123.152 E74.81905
G1 X42.447 Y122.72 E74.85282
G1 X41.835 Y122.431 E74.88659
G1 X41.169 Y122.305 E74.9204
G1 X40.495 Y122.347 E74.95409
G1 X39.851 Y122.557 E74.98789
G1 X39.278 Y122.92 E75.02173
G1 X38.813 Y123.417 E75.05569
G1 X38.489 Y124.011 E75.08944
G1 X38.321 Y124.666 E75.12318
G1 X38.322 Y125.343 E75.15695
G1 X38.492 Y125.998 E75.19071
G1 X38.818 Y126.59 E75.22443
G1 X39.278 Y127.08 E75.25796
G1 X39.851 Y127.443 E75.2918
G1 X40.495 Y127.653 E75.3256
G0 F3600 X40.694 Y127.665
G0 X40.663 Y128.163
G0 X39.662 Y127.844
G0 X38.46 Y126.85
G0 X37.883 Y125.399
G0 X40.341 Y108.128
G0 X40.495 Y107.653
G1 F1200 X41.169 Y107.695 E75.35929
G1 X41.835 Y107.569 E75.3931
G1 X42.447 Y107.28 E75.42687
G1 X42.971 Y106.845 E75.46085
G1 X43.369 Y106.296 E75.49468
G1 X43.616 Y105.668 E75.52834
G1 X43.7 Y104.996 E75.56213
G1 X43.614 Y104.324 E75.59593
G1 X43.365 Y103.695 E75.62968
G1 X42.968 Y103.152 E75.66324
G1 X42.447 Y102.72 E75.69701
G1 X41.835 Y102.431 E75.73077
G1 X41.169 Y102.305 E75.76459
G1 X40.495 Y102.347 E75.79828
G1 X39.851 Y102.557 E75.83207
G1 X39.278 Y102.92 E75.86591
G1 X38.813 Y103.417 E75.89987
G1 X38.489 Y104.011 E75.93363
G1 X38.321 Y104.666 E75.96736
G1 X38.322 Y105.343 E76.00114
G1 X38.492 Y105.998 E76.0349
G1 X38.818 Y106.59 E76.06862
G1 X39.278 Y107.08 E76.10215
G1 X39.851 Y107.443 E76.13599
G1 X40.495 Y107.653 E76.16978
G0 F3600 X40.694 Y107.665
G0 X40.663 Y108.163
G0 X176.341 Y108.128
G0 X176.495 Y107.653
G1 F1200 X177.169 Y107.695 E76.20347
G1 X177.835 Y107.569 E76.23729
G1 X178.447 Y107.28 E76.27106
G1 X178.971 Y106.845 E76.30503
G1 X179.369 Y106.296 E76.33886
G1 X179.616 Y105.668 E76.37253
G1 X179.7 Y104.996 E76.40632
G1 X179.614 Y104.324 E76.44012
G1 X179.365 Y103.695 E76.47387
G1 X178.968 Y103.152 E76.50743
G1 X178.447 Y102.72 E76.54119
G1 X177.835 Y102.431 E76.57496
G1 X177.169 Y102.305 E76.60877
G1 X176.495 Y102.347 E76.64246
G1 X175.851 Y102.557 E76.67626
G1 X175.278 Y102.92 E76.7101
G1 X174.813 Y103.417 E76.74406
G1 X174.489 Y104.011 E76.77781
G1 X174.321 Y104.666 E76.81155
G1 X174.322 Y105.343 E76.84532
G1 X174.492 Y105.998 E76.87908
G1 X174.818 Y106.59 E76.9128
G1 X175.278 Y107.08 E76.94633
G1 X175.851 Y107.443 E76.98017
G1 X176.495 Y107.653 E77.01397
G0 F3600 X176.694 Y107.665
G0 X176.663 Y108.163
G0 X173.882 Y124.612
G0 X174.08 Y126.161
G0 X174.996 Y127.421
G0 X176.341 Y128.128
G0 X176.495 Y127.653
G1 F1200 X177.169 Y127.695 E77.04766
G1 X177.835 Y127.569 E77.08147
G1 X178.447 Y127.28 E77.11524
G1 X178.971 Y126.845 E77.14922
G1 X179.369 Y126.296 E77.18305
G1 X179.616 Y125.668 E77.21671
G1 X179.7 Y124.996 E77.2505
G1 X179.614 Y124.324 E77.2843
G1 X179.365 Y123.695 E77.31805
G1 X178.968 Y123.152 E77.35161
G1 X178.447 Y122.72 E77.38538
G1 X177.835 Y122.431 E77.41914
G1 X177.169 Y122.305 E77.45296
G1 X176.495 Y122.347 E77.48665
G1 X175.851 Y122.557 E77.52044
G1 X175.278 Y122.92 E77.55429
G1 X174.813 Y123.417 E77.58824
G1 X174.489 Y124.011 E77.622
G1 X174.321 Y124.666 E77.65573
G1 X174.322 Y125.343 E77.68951
G1 X174.492 Y125.998 E77.72327
G1 X174.818 Y126.59 E77.75699
G1 X175.278 Y127.08 E77.79052
G1 X175.851 Y127.443 E77.82436
G1 X176.495 Y127.653 E77.85815
G0 F3600 X176.694 Y127.665
G0 X176.663 Y128.163
G0 X199.33 Y134.33
G0 X199.8 Y134.8
G1 F1200 X20.2 Y134.8 E86.81843
G1 X20.2 Y95.2 E88.79409
G1 X199.8 Y95.2 E97.75437
G1 X199.8 Y134.8 E99.73002
G0 F3600 X199.6 Y134.8
G0 X199.33 Y134.33
G0 X198.61 Y133.61
;TYPE:SKIN
G1 F1200 X21.39 Y133.61 E108.57156
G1 X21.39 Y96.39 E110.42847
G1 X198.61 Y96.39 E119.27001
G1 X198.61 Y133.61 E121.12693
G0 F3600 X180.422 Y126.873
G1 F1200 X180.779 Y125.964 E121.17565
G1 X180.9 Y124.994 E121.22442
G1 X180.774 Y124.024 E121.27322
G1 X180.416 Y123.116 E121.32191
G1 X179.842 Y122.331 E121.37043
G1 X179.091 Y121.709 E121.41908
G1 X178.206 Y121.289 E121.46795
G1 X177.243 Y121.109 E121.51683
G1 X176.27 Y121.169 E121.56546
G1 X175.339 Y121.472 E121.61431
G1 X174.513 Y121.996 E121.66311
G1 X173.841 Y122.715 E121.71221
G1 X173.373 Y123.571 E121.76088
G1 X173.131 Y124.517 E121.8096
G1 X173.132 Y125.495 E121.85839
G1 X173.377 Y126.442 E121.90719
G1 X173.848 Y127.296 E121.95585
G1 X174.513 Y128.005 E122.00435
G1 X175.339 Y128.528 E122.05312
G1 X176.27 Y128.831 E122.10197
G1 X177.243 Y128.891 E122.1506
G1 X178.205 Y128.711 E122.19943
G1 X179.092 Y128.291 E122.24839
G1 X179.846 Y127.666 E122.29725
G1 X180.422 Y126.873 E122.34615
G0 F3600 X179.092 Y108.291
G1 F1200 X179.846 Y107.666 E122.39501
G1 X180.422 Y106.873 E122.44391
G1 X180.779 Y105.964 E122.49263
G1 X180.9 Y104.994 E122.5414
G1 X180.774 Y104.024 E122.5902
G1 X180.416 Y103.116 E122.63889
G1 X179.842 Y102.331 E122.68741
G1 X179.091 Y101.709 E122.73606
G1 X178.206 Y101.289 E122.78493
G1 X177.243 Y101.109 E122.83381
G1 X176.27 Y101.169 E122.88245
G1 X175.339 Y101.472 E122.93129
G1 X174.513 Y101.996 E122.98009
G1 X173.841 Y102.715 E123.02919
G1 X173.373 Y103.571 E123.07786
G1 X173.131 Y104.517 E123.12658
G1 X173.132 Y105.495 E123.17537
G1 X173.377 Y106.442 E123.22417
G1 X173.848 Y107.296 E123.27283
G1 X174.513 Y108.005 E123.32133
G1 X175.339 Y108.528 E123.3701
G1 X176.27 Y108.831 E123.41895
G1 X177.243 Y108.891 E123.46758
G1 X178.205 Y108.711 E123.51641
G1 X179.092 Y108.291 E123.56537
G0 F3600 X44.779 Y105.964
G1 F1200 X44.9 Y104.994 E123.61414
G1 X44.774 Y104.024 E123.66294
G1 X44.416 Y103.116 E123.71164
G1 X43.842 Y102.331 E123.76015
G1 X43.091 Y101.709 E123.8088
G1 X42.206 Y101.289 E123.85768
G1 X41.243 Y101.109 E123.90655
G1 X40.27 Y101.169 E123.95519
G1 X39.339 Y101.472 E124.00403
G1 X38.513 Y101.996 E124.05284
G1 X37.841 Y102.715 E124.10193
G1 X37.373 Y103.571 E124.15061
G1 X37.131 Y104.517 E124.19932
G1 X37.132 Y105.495 E124.24812
G1 X37.377 Y106.442 E124.29692
G1 X37.848 Y107.296 E124.34557
G1 X38.513 Y108.005 E124.39407
G1 X39.339 Y108.528 E124.44284
G1 X40.27 Y108.831 E124.49169
G1 X41.243 Y108.891 E124.54033
G1 X42.205 Y108.711 E124.58915
G1 X43.092 Y108.291 E124.63812
G1 X43.846 Y107.666 E124.68698
G1 X44.422 Y106.873 E124.73587
G1 X44.779 Y105.964 E124.7846
G0 F3600 X44.9 Y124.994
G1 F1200 X44.774 Y124.024 E124.8334
G1 X44.416 Y123.116 E124.88209
G1 X43.842 Y122.331 E124.93061
G1 X43.091 Y121.709 E124.97926
G1 X42.206 Y121.289 E125.02813
G1 X41.243 Y121.109 E125.07701
G1 X40.27 Y121.169 E125.12564
G1 X39.339 Y121.472 E125.17449
G1 X38.513 Y121.996 E125.22329
G1 X37.841 Y122.715 E125.27239
G1 X37.373 Y123.571 E125.32106
G1 X37.131 Y124.517 E125.36978
G1 X37.132 Y125.495 E125.41857
G1 X37.377 Y126.442 E125.46737
G1 X37.848 Y127.296 E125.51603
G1 X38.513 Y128.005 E125.56452
G1 X39.339 Y128.528 E125.6133
G1 X40.27 Y128.831 E125.66215
G1 X41.243 Y128.891 E125.71078
G1 X42.205 Y128.711 E125.75961
G1 X43.092 Y128.291 E125.80857
G1 X43.846 Y127.666 E125.85743
G1 X44.422 Y126.873 E125.90633
