;FLAVOR:Marlin
;TIME:31424
;Filament used: 47.1554m
;Layer height: 0.3
;MINX:16.8
;MINY:56.8
;MINZ:0.3
;MAXX:203.2
;MAXY:163.2
;MAXZ:57
;Generated with Cura_SteamEngine master
M140 S60
M105
M190 S60
M104 S200
M105
M109 S200
M82 ;absolute extrusion mode
G28 ;Home
G1 Z15.0 F6000 ;Move the platform down 15mm
;Prime the extruder
G92 E0
G1 F200 E3
G92 E0
G92 E0
G92 E0
G1 F2400 E-6.5
;LAYER_COUNT:190
;LAYER:0
M107 P1
G0 F3600 X19.088 Y56.944 Z0.3
;TYPE:SKIRT
G1 F2400 E0
G1 F1200 X19.582 Y56.838 E0.02521
G1 X20.24 Y56.801 E0.05809
G1 X199.339 Y56.8 E8.99337
G1 X200.037 Y56.81 E9.0282
G1 X200.54 Y56.857 E9.0534
G1 X201.03 Y56.983 E9.07864
G1 X201.494 Y57.185 E9.10389
G1 X201.92 Y57.457 E9.12911
G1 X202.298 Y57.792 E9.15431
G1 X202.618 Y58.183 E9.17951
G1 X202.873 Y58.62 E9.20476
G1 X203.056 Y59.091 E9.22997
G1 X203.163 Y59.585 E9.25518
G1 X203.199 Y60.24 E9.28791
G1 X203.2 Y159.304 E14.23023
G1 X203.191 Y160.031 E14.26651
G1 X203.145 Y160.534 E14.29171
G1 X203.02 Y161.024 E14.31694
G1 X202.819 Y161.488 E14.34216
G1 X202.548 Y161.915 E14.36739
G1 X202.213 Y162.294 E14.39263
G1 X201.823 Y162.615 E14.41783
G1 X201.387 Y162.871 E14.44305
G1 X200.916 Y163.054 E14.46826
G1 X200.422 Y163.162 E14.49349
G1 X199.76 Y163.199 E14.52657
G1 X20.666 Y163.2 E23.46161
G1 X19.968 Y163.191 E23.49643
G1 X19.464 Y163.144 E23.52169
G1 X18.974 Y163.019 E23.54692
G1 X18.51 Y162.818 E23.57214
G1 X18.084 Y162.547 E23.59733
G1 X17.705 Y162.212 E23.62257
G1 X17.384 Y161.821 E23.64781
G1 X17.129 Y161.385 E23.67301
G1 X16.945 Y160.914 E23.69824
G1 X16.838 Y160.42 E23.72345
G1 X16.801 Y159.744 E23.75723
G1 X16.8 Y60.631 E28.702
G1 X16.809 Y59.966 E28.73518
G1 X16.856 Y59.462 E28.76043
G1 X16.982 Y58.973 E28.78562
G1 X17.183 Y58.509 E28.81085
G1 X17.454 Y58.082 E28.83608
G1 X17.789 Y57.704 E28.86128
G1 X18.18 Y57.383 E28.88652
G1 X18.617 Y57.128 E28.91176
G1 X19.088 Y56.944 E28.93699
G1 F2400 E22.43699
;MESH:GardenaWallHolder.stl
G0 F3600 X20.614 Y59.335
G0 X20.614 Y60.614
G0 X38.08 Y131.161
G0 X38.893 Y132.311
G0 X40.344 Y133.445
;TYPE:WALL-INNER
G1 F2400 E28.93699
G1 F1200 X41.219 Y133.499 E28.98073
G1 X42.084 Y133.337 E29.02463
G1 X42.881 Y132.96 E29.06862
G1 X43.559 Y132.397 E29.11259
G1 X44.077 Y131.684 E29.15655
G1 X44.398 Y130.867 E29.20035
G1 X44.506 Y129.994 E29.24423
G1 X44.394 Y129.122 E29.2881
G1 X44.071 Y128.305 E29.33193
G1 X43.556 Y127.6 E29.37548
G1 X42.88 Y127.04 E29.41928
G1 X42.085 Y126.663 E29.46317
G1 X41.219 Y126.501 E29.50713
G1 X40.344 Y126.555 E29.55087
G1 X39.507 Y126.827 E29.59477
G1 X38.764 Y127.298 E29.63866
G1 X38.159 Y127.945 E29.68286
G1 X37.739 Y128.715 E29.72661
G1 X37.521 Y129.566 E29.77044
G1 X37.522 Y130.445 E29.81429
G1 X37.742 Y131.296 E29.85815
G1 X38.166 Y132.064 E29.90191
G1 X38.764 Y132.702 E29.94554
G1 X39.507 Y133.173 E29.98943
G1 X40.344 Y133.445 E30.03334
G0 F3600 X37.882 Y149.612
G0 X38.08 Y151.161
G0 X38.893 Y152.311
G0 X40.344 Y153.445
G1 F1200 X41.219 Y153.499 E30.07707
G1 X42.084 Y153.337 E30.12098
G1 X42.881 Y152.96 E30.16497
G1 X43.559 Y152.397 E30.20893
G1 X44.077 Y151.684 E30.2529
G1 X44.398 Y150.867 E30.29669
G1 X44.506 Y149.994 E30.34058
G1 X44.394 Y149.122 E30.38444
G1 X44.071 Y148.305 E30.42827
G1 X43.556 Y147.6 E30.47183
G1 X42.88 Y147.04 E30.51563
G1 X42.085 Y146.663 E30.55952
G1 X41.219 Y146.501 E30.60348
G1 X40.344 Y146.555 E30.64721
G1 X39.507 Y146.827 E30.69112
G1 X38.764 Y147.298 E30.73501
G1 X38.159 Y147.945 E30.7792
G1 X37.739 Y148.715 E30.82296
G1 X37.521 Y149.566 E30.86679
G1 X37.522 Y150.445 E30.91064
G1 X37.742 Y151.296 E30.95449
G1 X38.166 Y152.064 E30.99826
G1 X38.764 Y152.702 E31.04189
G1 X39.507 Y153.173 E31.08578
G1 X40.344 Y153.445 E31.12968
G0 F3600 X176.344 Y153.445
G1 F1200 X177.219 Y153.499 E31.17342
G1 X178.084 Y153.337 E31.21733
G1 X178.881 Y152.96 E31.26131
G1 X179.559 Y152.397 E31.30528
G1 X180.077 Y151.684 E31.34925
G1 X180.398 Y150.867 E31.39304
G1 X180.506 Y149.994 E31.43693
G1 X180.394 Y149.122 E31.48079
G1 X180.071 Y148.305 E31.52462
G1 X179.556 Y147.6 E31.56818
G1 X178.88 Y147.04 E31.61197
G1 X178.085 Y146.663 E31.65587
G1 X177.219 Y146.501 E31.69982
G1 X176.344 Y146.555 E31.74356
G1 X175.507 Y146.827 E31.78747
G1 X174.764 Y147.298 E31.83136
G1 X174.159 Y147.945 E31.87555
G1 X173.739 Y148.715 E31.91931
G1 X173.521 Y149.566 E31.96314
G1 X173.522 Y150.445 E32.00699
G1 X173.742 Y151.296 E32.05084
G1 X174.166 Y152.064 E32.09461
G1 X174.764 Y152.702 E32.13823
G1 X175.507 Y153.173 E32.18212
G1 X176.344 Y153.445 E32.22603
G0 F3600 X174.996 Y152.421
G0 X174.08 Y151.161
G0 X173.883 Y149.762
G0 X176.344 Y133.445
G1 F1200 X177.219 Y133.499 E32.26977
G1 X178.084 Y133.337 E32.31367
G1 X178.881 Y132.96 E32.35766
G1 X179.559 Y132.397 E32.40163
G1 X180.077 Y131.684 E32.4456
G1 X180.398 Y130.867 E32.48939
G1 X180.506 Y129.994 E32.53328
G1 X180.394 Y129.122 E32.57714
G1 X180.071 Y128.305 E32.62097
G1 X179.556 Y127.6 E32.66452
G1 X178.88 Y127.04 E32.70832
G1 X178.085 Y126.663 E32.75222
G1 X177.219 Y126.501 E32.79617
G1 X176.344 Y126.555 E32.83991
G1 X175.507 Y126.827 E32.88381
G1 X174.764 Y127.298 E32.9277
G1 X174.159 Y127.945 E32.9719
G1 X173.739 Y128.715 E33.01565
G1 X173.521 Y129.566 E33.05948
G1 X173.522 Y130.445 E33.10334
G1 X173.742 Y131.296 E33.14719
G1 X174.166 Y132.064 E33.19096
G1 X174.764 Y132.702 E33.23458
G1 X175.507 Y133.173 E33.27847
G1 X176.344 Y133.445 E33.32238
G0 F3600 X199 Y159
G1 F1200 X21 Y159 E42.20283
G1 X21 Y61 E47.09207
G1 X199 Y61 E55.97253
G1 X199 Y159 E60.86177
G0 F3600 X199.4 Y159.4
G1 F1200 X20.6 Y159.4 E69.78214
G1 X20.6 Y60.6 E74.71129
G1 X199.4 Y60.6 E83.63166
G1 X199.4 Y159.4 E88.56081
G0 F3600 X199.33 Y159.33
G0 X176.401 Y153.147
G0 X176.419 Y153.049
G1 F1200 X177.194 Y153.097 E88.59955
G1 X177.96 Y152.953 E88.63843
G1 X178.664 Y152.62 E88.67729
G1 X179.265 Y152.121 E88.71626
G1 X179.723 Y151.49 E88.75516
G1 X180.007 Y150.768 E88.79387
G1 X180.103 Y149.995 E88.83273
G1 X180.004 Y149.223 E88.87156
G1 X179.718 Y148.5 E88.91035
G1 X179.262 Y147.876 E88.94891
G1 X178.663 Y147.38 E88.98771
G1 X177.96 Y147.047 E89.02652
G1 X177.194 Y146.903 E89.0654
G1 X176.419 Y146.951 E89.10414
G1 X175.679 Y147.192 E89.14297
G1 X175.021 Y147.609 E89.18183
G1 X174.486 Y148.181 E89.22091
G1 X174.114 Y148.863 E89.25966
G1 X173.921 Y149.616 E89.29845
G1 X173.922 Y150.394 E89.33726
G1 X174.117 Y151.147 E89.37607
G1 X174.492 Y151.827 E89.41481
G1 X175.021 Y152.391 E89.45339
G1 X175.679 Y152.808 E89.49225
G1 X176.419 Y153.049 E89.53108
G0 F3600 X176.401 Y153.147
G0 X174.996 Y152.421
G0 X174.08 Y151.161
G0 X173.883 Y149.762
G0 X176.401 Y133.147
G0 X176.419 Y133.049
G1 F1200 X177.194 Y133.097 E89.56982
G1 X177.96 Y132.953 E89.6087
G1 X178.664 Y132.62 E89.64756
G1 X179.265 Y132.121 E89.68653
G1 X179.723 Y131.49 E89.72543
G1 X180.007 Y130.768 E89.76414
G1 X180.103 Y129.995 E89.803
G1 X180.004 Y129.223 E89.84183
G1 X179.718 Y128.5 E89.88062
G1 X179.262 Y127.876 E89.91918
G1 X178.663 Y127.38 E89.95798
G1 X177.96 Y127.047 E89.99678
G1 X177.194 Y126.903 E90.03567
G1 X176.419 Y126.951 E90.07441
G1 X175.679 Y127.192 E90.11324
G1 X175.021 Y127.609 E90.1521
G1 X174.486 Y128.181 E90.19117
G1 X174.114 Y128.863 E90.22993
G1 X173.921 Y129.616 E90.26871
G1 X173.922 Y130.394 E90.30753
G1 X174.117 Y131.147 E90.34633
G1 X174.492 Y131.827 E90.38508
G1 X175.021 Y132.391 E90.42366
G1 X175.679 Y132.808 E90.46252
G1 X176.419 Y133.049 E90.50135
G0 F3600 X176.401 Y133.147
G0 X40.401 Y133.147
G0 X40.419 Y133.049
G1 F1200 X41.194 Y133.097 E90.54009
G1 X41.96 Y132.953 E90.57897
G1 X42.664 Y132.62 E90.61783
G1 X43.265 Y132.121 E90.6568
G1 X43.723 Y131.49 E90.6957
G1 X44.007 Y130.768 E90.7344
G1 X44.103 Y129.995 E90.77327
G1 X44.004 Y129.223 E90.8121
G1 X43.718 Y128.5 E90.85089
G1 X43.262 Y127.876 E90.88944
G1 X42.663 Y127.38 E90.92824
G1 X41.96 Y127.047 E90.96705
G1 X41.194 Y126.903 E91.00594
G1 X40.419 Y126.951 E91.04468
G1 X39.679 Y127.192 E91.0835
G1 X39.021 Y127.609 E91.12237
G1 X38.486 Y128.181 E91.16144
G1 X38.114 Y128.863 E91.2002
G1 X37.921 Y129.616 E91.23898
G1 X37.922 Y130.394 E91.2778
G1 X38.117 Y131.147 E91.3166
G1 X38.492 Y131.827 E91.35535
G1 X39.021 Y132.391 E91.39392
G1 X39.679 Y132.808 E91.43279
G1 X40.419 Y133.049 E91.47162
G0 F3600 X40.401 Y133.147
G0 X37.882 Y149.612
G0 X38.08 Y151.161
G0 X38.996 Y152.421
G0 X40.401 Y153.147
G0 X40.419 Y153.049
G1 F1200 X41.194 Y153.097 E91.51035
G1 X41.96 Y152.953 E91.54924
G1 X42.664 Y152.62 E91.58809
G1 X43.265 Y152.121 E91.62707
G1 X43.723 Y151.49 E91.66597
G1 X44.007 Y150.768 E91.70467
G1 X44.103 Y149.995 E91.74353
G1 X44.004 Y149.223 E91.78236
G1 X43.718 Y148.5 E91.82115
G1 X43.262 Y147.876 E91.85971
G1 X42.663 Y147.38 E91.89851
G1 X41.96 Y147.047 E91.93732
G1 X41.194 Y146.903 E91.97621
G1 X40.419 Y146.951 E92.01495
G1 X39.679 Y147.192 E92.05377
G1 X39.021 Y147.609 E92.09264
G1 X38.486 Y148.181 E92.13171
G1 X38.114 Y148.863 E92.17047
G1 X37.921 Y149.616 E92.20925
G1 X37.922 Y150.394 E92.24807
G1 X38.117 Y151.147 E92.28687
G1 X38.492 Y151.827 E92.32561
G1 X39.021 Y152.391 E92.36419
G1 X39.679 Y152.808 E92.40306
G1 X40.419 Y153.049 E92.44188
G0 F3600 X40.495 Y152.653
;TYPE:WALL-OUTER
G1 F1200 X41.169 Y152.695 E92.47558
G1 X41.835 Y152.569 E92.50939
G1 X42.447 Y152.28 E92.54316
G1 X42.971 Y151.845 E92.57713
G1 X43.369 Y151.296 E92.61096
G1 X43.616 Y150.668 E92.64463
G1 X43.7 Y149.996 E92.67842
G1 X43.614 Y149.324 E92.71222
G1 X43.365 Y148.695 E92.74597
G1 X42.968 Y148.152 E92.77953
G1 X42.447 Y147.72 E92.81329
G1 X41.835 Y147.431 E92.84706
G1 X41.169 Y147.305 E92.88088
G1 X40.495 Y147.347 E92.91457
G1 X39.851 Y147.557 E92.94836
G1 X39.278 Y147.92 E92.9822
G1 X38.813 Y148.417 E93.01616
G1 X38.489 Y149.011 E93.04991
G1 X38.321 Y149.666 E93.08365
G1 X38.322 Y150.343 E93.11743
G1 X38.492 Y150.998 E93.15119
G1 X38.818 Y151.59 E93.1849
G1 X39.278 Y152.08 E93.21843
G1 X39.851 Y152.443 E93.25228
G1 X40.495 Y152.653 E93.28607
G0 F3600 X40.694 Y152.665
G0 X40.663 Y153.163
G0 X39.662 Y152.844
G0 X38.46 Y151.85
G0 X37.883 Y150.399
G0 X40.341 Y133.128
G0 X40.495 Y132.653
G1 F1200 X41.169 Y132.695 E93.31976
G1 X41.835 Y132.569 E93.35358
G1 X42.447 Y132.28 E93.38734
G1 X42.971 Y131.845 E93.42132
G1 X43.369 Y131.296 E93.45515
G1 X43.616 Y130.668 E93.48882
G1 X43.7 Y129.996 E93.5226
G1 X43.614 Y129.324 E93.5564
G1 X43.365 Y128.695 E93.59015
G1 X42.968 Y128.152 E93.62371
G1 X42.447 Y127.72 E93.65748
G1 X41.835 Y127.431 E93.69124
G1 X41.169 Y127.305 E93.72506
G1 X40.495 Y127.347 E93.75875
G1 X39.851 Y127.557 E93.79255
G1 X39.278 Y127.92 E93.82639
G1 X38.813 Y128.417 E93.86034
G1 X38.489 Y129.011 E93.8941
G1 X38.321 Y129.666 E93.92784
G1 X38.322 Y130.343 E93.96161
G1 X38.492 Y130.998 E93.99537
G1 X38.818 Y131.59 E94.02909
G1 X39.278 Y132.08 E94.06262
G1 X39.851 Y132.443 E94.09646
G1 X40.495 Y132.653 E94.13026
G0 F3600 X40.694 Y132.665
G0 X40.663 Y133.163
G0 X176.341 Y133.128
G0 X176.495 Y132.653
G1 F1200 X177.169 Y132.695 E94.16395
G1 X177.835 Y132.569 E94.19776
G1 X178.447 Y132.28 E94.23153
G1 X178.971 Y131.845 E94.26551
G1 X179.369 Y131.296 E94.29934
G1 X179.616 Y130.668 E94.333
G1 X179.7 Y129.996 E94.36679
G1 X179.614 Y129.324 E94.40059
G1 X179.365 Y128.695 E94.43434
G1 X178.968 Y128.152 E94.4679
G1 X178.447 Y127.72 E94.50166
G1 X177.835 Y127.431 E94.53543
G1 X177.169 Y127.305 E94.56925
G1 X176.495 Y127.347 E94.60294
G1 X175.851 Y127.557 E94.63673
G1 X175.278 Y127.92 E94.67057
G1 X174.813 Y128.417 E94.70453
G1 X174.489 Y129.011 E94.73829
G1 X174.321 Y129.666 E94.77202
G1 X174.322 Y130.343 E94.8058
G1 X174.492 Y130.998 E94.83956
G1 X174.818 Y131.59 E94.87327
G1 X175.278 Y132.08 E94.90681
G1 X175.851 Y132.443 E94.94065
G1 X176.495 Y132.653 E94.97444
G0 F3600 X176.694 Y132.665
G0 X176.663 Y133.163
G0 X173.882 Y149.612
G0 X174.08 Y151.161
G0 X174.996 Y152.421
G0 X176.341 Y153.128
G0 X176.495 Y152.653
G1 F1200 X177.169 Y152.695 E95.00813
G1 X177.835 Y152.569 E95.04195
G1 X178.447 Y152.28 E95.07571
G1 X178.971 Y151.845 E95.10969
G1 X179.369 Y151.296 E95.14352
G1 X179.616 Y150.668 E95.17719
G1 X179.7 Y149.996 E95.21097
G1 X179.614 Y149.324 E95.24477
G1 X179.365 Y148.695 E95.27852
G1 X178.968 Y148.152 E95.31208
G1 X178.447 Y147.72 E95.34585
G1 X177.835 Y147.431 E95.37962
G1 X177.169 Y147.305 E95.41343
G1 X176.495 Y147.347 E95.44712
G1 X175.851 Y147.557 E95.48092
G1 X175.278 Y147.92 E95.51476
G1 X174.813 Y148.417 E95.54871
G1 X174.489 Y149.011 E95.58247
G1 X174.321 Y149.666 E95.61621
G1 X174.322 Y150.343 E95.64998
G1 X174.492 Y150.998 E95.68374
G1 X174.818 Y151.59 E95.71746
G1 X175.278 Y152.08 E95.75099
G1 X175.851 Y152.443 E95.78483
G1 X176.495 Y152.653 E95.81863
G0 F3600 X176.694 Y152.665
G0 X176.663 Y153.163
G0 X199.33 Y159.33
G0 X199.8 Y159.8
G1 F1200 X20.2 Y159.8 E104.77891
G1 X20.2 Y60.2 E109.74797
G1 X199.8 Y60.2 E118.70825
G1 X199.8 Y159.8 E123.67731
G0 F3600 X199.6 Y159.8
G0 X199.33 Y159.33
G0 X198.61 Y158.61
;TYPE:SKIN
G1 F1200 X21.39 Y158.61 E132.51886
G1 X21.39 Y61.39 E137.36918
G1 X198.61 Y61.39 E146.21072
G1 X198.61 Y158.61 E151.06105
G0 F3600 X180.422 Y151.873
G1 F1200 X180.779 Y150.964 E151.10977
G1 X180.9 Y149.994 E151.15854
G1 X180.774 Y149.024 E151.20734
G1 X180.416 Y148.116 E151.25603
G1 X179.842 Y147.331 E151.30455
G1 X179.091 Y146.709 E151.3532
G1 X178.206 Y146.289 E151.40207
G1 X177.243 Y146.109 E151.45095
G1 X176.27 Y146.169 E151.49959
G1 X175.339 Y146.472 E151.54843
G1 X174.513 Y146.996 E151.59723
G1 X173.841 Y147.715 E151.64633
G1 X173.373 Y148.571 E151.695
G1 X173.131 Y149.517 E151.74372
G1 X173.132 Y150.495 E151.79251
G1 X173.377 Y151.442 E151.84131
G1 X173.848 Y152.296 E151.88997
G1 X174.513 Y153.005 E151.93847
G1 X175.339 Y153.528 E151.98724
G1 X176.27 Y153.831 E152.03609
G1 X177.243 Y153.891 E152.08472
G1 X178.205 Y153.711 E152.13355
G1 X179.092 Y153.291 E152.18251
G1 X179.846 Y152.666 E152.23137
G1 X180.422 Y151.873 E152.28027
G0 F3600 X179.092 Y133.291
G1 F1200 X179.846 Y132.666 E152.32913
G1 X180.422 Y131.873 E152.37803
G1 X180.779 Y130.964 E152.42675
G1 X180.9 Y129.994 E152.47552
G1 X180.774 Y129.024 E152.52432
G1 X180.416 Y128.116 E152.57302
G1 X179.842 Y127.331 E152.62153
G1 X179.091 Y126.709 E152.67018
G1 X178.206 Y126.289 E152.71905
G1 X177.243 Y126.109 E152.76793
G1 X176.27 Y126.169 E152.81657
G1 X175.339 Y126.472 E152.86541
G1 X174.513 Y126.996 E152.91421
G1 X173.841 Y127.715 E152.96331
G1 X173.373 Y128.571 E153.01199
G1 X173.131 Y129.517 E153.0607
G1 X173.132 Y130.495 E153.10949
G1 X173.377 Y131.442 E153.1583
G1 X173.848 Y132.296 E153.20695
G1 X174.513 Y133.005 E153.25545
G1 X175.339 Y133.528 E153.30422
G1 X176.27 Y133.831 E153.35307
G1 X177.243 Y133.891 E153.40171
G1 X178.205 Y133.711 E153.45053
G1 X179.092 Y133.291 E153.4995
G0 F3600 X44.779 Y130.964
G1 F1200 X44.9 Y129.994 E153.54826
G1 X44.774 Y129.024 E153.59706
G1 X44.416 Y128.116 E153.64576
G1 X43.842 Y127.331 E153.69427
G1 X43.091 Y126.709 E153.74292
G1 X42.206 Y126.289 E153.7918
G1 X41.243 Y126.109 E153.84067
G1 X40.27 Y126.169 E153.88931
G1 X39.339 Y126.472 E153.93815
G1 X38.513 Y126.996 E153.98696
G1 X37.841 Y127.715 E154.03606
G1 X37.373 Y128.571 E154.08473
G1 X37.131 Y129.517 E154.13344
G1 X37.132 Y130.495 E154.18224
G1 X37.377 Y131.442 E154.23104
G1 X37.848 Y132.296 E154.27969
G1 X38.513 Y133.005 E154.32819
G1 X39.339 Y133.528 E154.37697
G1 X40.27 Y133.831 E154.42581
G1 X41.243 Y133.891 E154.47445
G1 X42.205 Y133.711 E154.52327
G1 X43.092 Y133.291 E154.57224
G1 X43.846 Y132.666 E154.6211
G1 X44.422 Y131.873 E154.67
G1 X44.779 Y130.964 E154.71872
G0 F3600 X44.9 Y149.994
G1 F1200 X44.774 Y149.024 E154.76752
G1 X44.416 Y148.116 E154.81621
G1 X43.842 Y147.331 E154.86473
G1 X43.091 Y146.709 E154.91338
G1 X42.206 Y146.289 E154.96225
G1 X41.243 Y146.109 E155.01113
G1 X40.27 Y146.169 E155.05976
G1 X39.339 Y146.472 E155.10861
G1 X38.513 Y146.996 E155.15741
G1 X37.841 Y147.715 E155.20651
G1 X37.373 Y148.571 E155.25518
G1 X37.131 Y149.517 E155.3039
G1 X37.132 Y150.495 E155.35269
G1 X37.377 Y151.442 E155.40149
G1 X37.848 Y152.296 E155.45015
G1 X38.513 Y153.005 E155.49865
G1 X39.339 Y153.528 E155.54742
G1 X40.27 Y153.831 E155.59627
G1 X41.243 Y153.891 E155.6449
G1 X42.205 Y153.711 E155.69373
G1 X43.092 Y153.291 E155.74269
G1 X43.846 Y152.666 E155.79155
