;FLAVOR:Marlin
;TIME:26464
;Filament used: 19.2288m
;Layer height: 0.15
;MINX:16.8
;MINY:82.04
;MINZ:0.3
;MAXX:203.2
;MAXY:140.7
;MAXZ:34.05
;Generated with Cura_SteamEngine 5.4.0
M140 S60
M105
M190 S60
M104 S195
M105
M109 S195
M82 ;absolute extrusion mode
G28 ;Home
G1 Z15.0 F2000 ;Move the platform
G92 E0
G92 E0
G1 F2700 E-6.5
;LAYER_COUNT:226
;LAYER:0
M107
M204 S1000
G0 F7500 X19.088 Y84.444 Z0.3
;TYPE:SKIRT
G1 F2700 E0
G1 F1500 X19.582 Y84.338 E0.02521
G1 X19.919 Y84.31 E0.04208
G1 X20.24 Y84.301 E0.0581
G1 X199.339 Y84.3 E8.99338
G1 X200.037 Y84.31 E9.02821
G1 X200.54 Y84.357 E9.05342
G1 X201.03 Y84.483 E9.07866
G1 X201.494 Y84.685 E9.1039
G1 X201.92 Y84.957 E9.12912
G1 X202.298 Y85.292 E9.15432
G1 X202.618 Y85.683 E9.17953
G1 X202.873 Y86.12 E9.20477
G1 X203.056 Y86.591 E9.22998
G1 X203.163 Y87.085 E9.2552
G1 X203.19 Y87.42 E9.27196
G1 X203.199 Y87.74 E9.28793
G1 X203.2 Y136.804 E11.73575
G1 X203.191 Y137.531 E11.77202
G1 X203.145 Y138.034 E11.79722
G1 X203.02 Y138.524 E11.82245
G1 X202.819 Y138.988 E11.84768
G1 X202.548 Y139.415 E11.87291
G1 X202.213 Y139.794 E11.89814
G1 X201.823 Y140.115 E11.92334
G1 X201.387 Y140.371 E11.94857
G1 X200.916 Y140.554 E11.97378
G1 X200.422 Y140.662 E11.99901
G1 X200.081 Y140.69 E12.01608
G1 X199.76 Y140.699 E12.0321
G1 X20.666 Y140.7 E20.96713
G1 X19.968 Y140.691 E21.00196
G1 X19.464 Y140.644 E21.02721
G1 X18.974 Y140.519 E21.05244
G1 X18.51 Y140.318 E21.07767
G1 X18.084 Y140.047 E21.10286
G1 X17.705 Y139.712 E21.12809
G1 X17.384 Y139.321 E21.15333
G1 X17.129 Y138.885 E21.17853
G1 X16.945 Y138.414 E21.20376
G1 X16.838 Y137.92 E21.22898
G1 X16.81 Y137.577 E21.24615
G1 X16.801 Y137.244 E21.26277
G1 X16.8 Y88.131 E23.71302
G1 X16.809 Y87.466 E23.7462
G1 X16.856 Y86.962 E23.77146
G1 X16.982 Y86.473 E23.79665
G1 X17.183 Y86.009 E23.82188
G1 X17.454 Y85.582 E23.84711
G1 X17.789 Y85.204 E23.87231
G1 X18.18 Y84.883 E23.89755
G1 X18.617 Y84.628 E23.92279
G1 X19.088 Y84.444 E23.94802
G1 F2700 E17.44802
;MESH:GardenaWallHolder.stl
G0 F7500 X38.147 Y98.381
G0 X42.631 Y102.638
;TYPE:WALL-INNER
G1 F2700 E23.94802
G1 F1500 X42.285 Y102.821 E23.96755
G1 X41.994 Y102.936 E23.98316
G1 X41.576 Y103.046 E24.00472
G1 X41.2 Y103.094 E24.02363
G1 X40.761 Y103.091 E24.04553
G1 X40.424 Y103.046 E24.0625
G1 X40.006 Y102.936 E24.08406
G1 X39.649 Y102.79 E24.1033
G1 X39.3 Y102.594 E24.12327
G1 X39.02 Y102.387 E24.14064
G1 X38.738 Y102.122 E24.15995
G1 X38.518 Y101.857 E24.17713
G1 X38.285 Y101.499 E24.19844
G1 X38.108 Y101.113 E24.21963
G1 X37.989 Y100.734 E24.23945
G1 X37.922 Y100.357 E24.25855
G1 X37.9 Y100.003 E24.27625
G1 X37.93 Y99.579 E24.29745
G1 X37.997 Y99.23 E24.31518
G1 X38.131 Y98.828 E24.33632
G1 X38.264 Y98.544 E24.35197
G1 X38.514 Y98.147 E24.37538
G1 X38.709 Y97.91 E24.39069
G1 X38.993 Y97.637 E24.41034
G1 X39.369 Y97.362 E24.43358
G1 X39.715 Y97.179 E24.45311
G1 X40.006 Y97.064 E24.46872
G1 X40.46 Y96.948 E24.4921
G1 X40.761 Y96.909 E24.50724
G1 X41.239 Y96.909 E24.53109
G1 X41.61 Y96.962 E24.54978
G1 X41.994 Y97.064 E24.56961
G1 X42.351 Y97.21 E24.58885
G1 X42.7 Y97.406 E24.60882
G1 X43.007 Y97.637 E24.62799
G1 X43.288 Y97.907 E24.64743
G1 X43.523 Y98.2 E24.66617
G1 X43.733 Y98.537 E24.68598
G1 X43.893 Y98.89 E24.70531
G1 X44.003 Y99.231 E24.72319
G1 X44.075 Y99.608 E24.74234
G1 X44.1 Y99.997 E24.76179
G1 X44.076 Y100.385 E24.78118
G1 X44.008 Y100.752 E24.7998
G1 X43.888 Y101.128 E24.81949
G1 X43.716 Y101.495 E24.83971
G1 X43.522 Y101.805 E24.85796
G1 X43.28 Y102.103 E24.87711
G1 X42.981 Y102.386 E24.89765
G1 X42.631 Y102.638 E24.91917
G1 F2700 E18.41917
G0 F7500 X42.062 Y103.104
G0 X42.015 Y121.881
G0 X42.631 Y127.638
G1 F2700 E24.91917
G1 F1500 X42.285 Y127.821 E24.93869
G1 X41.994 Y127.936 E24.9543
G1 X41.54 Y128.052 E24.97768
G1 X41.239 Y128.091 E24.99282
G1 X40.761 Y128.091 E25.01667
G1 X40.39 Y128.038 E25.03537
G1 X40.006 Y127.936 E25.05519
G1 X39.649 Y127.79 E25.07443
G1 X39.3 Y127.594 E25.0944
G1 X38.993 Y127.363 E25.11357
G1 X38.712 Y127.093 E25.13301
G1 X38.477 Y126.8 E25.15175
G1 X38.267 Y126.463 E25.17156
G1 X38.108 Y126.113 E25.19074
G1 X37.989 Y125.734 E25.21056
G1 X37.922 Y125.357 E25.22966
G1 X37.9 Y125.003 E25.24736
G1 X37.93 Y124.579 E25.26856
G1 X37.995 Y124.236 E25.28598
G1 X38.116 Y123.862 E25.30559
G1 X38.281 Y123.511 E25.32494
G1 X38.491 Y123.177 E25.34463
G1 X38.735 Y122.881 E25.36376
G1 X39.02 Y122.613 E25.38328
G1 X39.369 Y122.362 E25.40473
G1 X39.715 Y122.179 E25.42426
G1 X40.006 Y122.064 E25.43987
G1 X40.424 Y121.954 E25.46143
G1 X40.8 Y121.906 E25.48034
G1 X41.239 Y121.909 E25.50224
G1 X41.576 Y121.954 E25.51921
G1 X41.994 Y122.064 E25.54077
G1 X42.351 Y122.21 E25.56001
G1 X42.7 Y122.406 E25.57998
G1 X42.981 Y122.614 E25.59742
G1 X43.251 Y122.866 E25.61585
G1 X43.518 Y123.191 E25.63684
G1 X43.725 Y123.519 E25.65619
G1 X43.874 Y123.84 E25.67384
G1 X43.999 Y124.215 E25.69356
G1 X44.069 Y124.571 E25.71166
G1 X44.1 Y124.993 E25.73277
G1 X44.076 Y125.383 E25.75227
G1 X44.005 Y125.762 E25.7715
G1 X43.869 Y126.172 E25.79306
G1 X43.736 Y126.456 E25.8087
G1 X43.486 Y126.853 E25.83211
G1 X43.291 Y127.09 E25.84742
G1 X43.007 Y127.363 E25.86707
G1 X42.631 Y127.638 E25.89031
G1 F2700 E19.39031
G0 F7500 X42.677 Y127.727
G0 X43.684 Y126.887
G0 X174.379 Y126.973
G0 X175.3 Y127.594
G1 F2700 E25.89031
G1 F1500 X174.993 Y127.363 E25.90948
G1 X174.712 Y127.093 E25.92892
G1 X174.477 Y126.8 E25.94766
G1 X174.267 Y126.463 E25.96747
G1 X174.108 Y126.113 E25.98665
G1 X173.997 Y125.77 E26.00464
G1 X173.925 Y125.392 E26.02383
G1 X173.9 Y125.002 E26.04333
G1 X173.924 Y124.614 E26.06273
G1 X173.992 Y124.248 E26.0813
G1 X174.112 Y123.872 E26.10099
G1 X174.289 Y123.496 E26.12172
G1 X174.478 Y123.195 E26.13945
G1 X174.72 Y122.897 E26.15861
G1 X175.019 Y122.614 E26.17915
G1 X175.369 Y122.362 E26.20066
G1 X175.715 Y122.179 E26.22019
G1 X176.006 Y122.064 E26.2358
G1 X176.424 Y121.954 E26.25737
G1 X176.8 Y121.906 E26.27628
G1 X177.239 Y121.909 E26.29818
G1 X177.576 Y121.954 E26.31514
G1 X177.994 Y122.064 E26.3367
G1 X178.351 Y122.21 E26.35595
G1 X178.7 Y122.406 E26.37592
G1 X178.961 Y122.598 E26.39208
G1 X179.262 Y122.878 E26.41259
G1 X179.503 Y123.171 E26.43152
G1 X179.715 Y123.5 E26.45105
G1 X179.892 Y123.887 E26.47228
G1 X180.003 Y124.228 E26.49017
G1 X180.075 Y124.607 E26.50941
G1 X180.1 Y124.996 E26.52886
G1 X180.07 Y125.419 E26.55002
G1 X180.005 Y125.762 E26.56744
G1 X179.869 Y126.172 E26.58899
G1 X179.736 Y126.456 E26.60463
G1 X179.486 Y126.853 E26.62804
G1 X179.291 Y127.09 E26.64335
G1 X179.007 Y127.363 E26.663
G1 X178.631 Y127.638 E26.68624
G1 X178.285 Y127.821 E26.70577
G1 X177.994 Y127.936 E26.72138
G1 X177.54 Y128.052 E26.74476
G1 X177.239 Y128.091 E26.7599
G1 X176.761 Y128.091 E26.78375
G1 X176.39 Y128.038 E26.80245
G1 X176.006 Y127.936 E26.82227
G1 X175.649 Y127.79 E26.84151
G1 X175.3 Y127.594 E26.86148
G1 F2700 E20.36148
G0 F7500 X175.234 Y127.67
G0 X174.425 Y126.42
G0 X174.154 Y125.736
G0 X174.059 Y125.005
G0 X174.152 Y124.274
G0 X174.42 Y123.589
G0 X174.854 Y122.991
G0 X176.39 Y121.777
G0 X176.39 Y103.223
G0 X175.3 Y102.594
G1 F2700 E26.86148
G1 F1500 X175.019 Y102.386 E26.87892
G1 X174.749 Y102.134 E26.89735
G1 X174.482 Y101.808 E26.91837
G1 X174.275 Y101.481 E26.93768
G1 X174.126 Y101.16 E26.95534
G1 X174.001 Y100.785 E26.97506
G1 X173.931 Y100.429 E26.99316
G1 X173.9 Y100.006 E27.01432
G1 X173.924 Y99.616 E27.03381
G1 X173.995 Y99.237 E27.05305
G1 X174.131 Y98.828 E27.07455
G1 X174.264 Y98.544 E27.0902
G1 X174.514 Y98.147 E27.11361
G1 X174.709 Y97.91 E27.12892
G1 X174.993 Y97.637 E27.14857
G1 X175.369 Y97.362 E27.17181
G1 X175.715 Y97.179 E27.19134
G1 X176.006 Y97.064 E27.20695
G1 X176.46 Y96.948 E27.23033
G1 X176.761 Y96.909 E27.24547
G1 X177.239 Y96.909 E27.26932
G1 X177.61 Y96.962 E27.28802
G1 X177.994 Y97.064 E27.30784
G1 X178.351 Y97.21 E27.32708
G1 X178.7 Y97.406 E27.34705
G1 X179.007 Y97.637 E27.36622
G1 X179.288 Y97.907 E27.38566
G1 X179.523 Y98.2 E27.4044
G1 X179.733 Y98.537 E27.42421
G1 X179.892 Y98.887 E27.44339
G1 X180.003 Y99.23 E27.46137
G1 X180.078 Y99.643 E27.48231
G1 X180.1 Y99.996 E27.49996
G1 X180.076 Y100.384 E27.51935
G1 X180.005 Y100.763 E27.53859
G1 X179.884 Y101.138 E27.55825
G1 X179.719 Y101.489 E27.5776
G1 X179.509 Y101.823 E27.59728
G1 X179.265 Y102.119 E27.61642
G1 X178.952 Y102.409 E27.63771
G1 X178.631 Y102.638 E27.65738
G1 X178.285 Y102.821 E27.67691
G1 X177.994 Y102.936 E27.69252
G1 X177.576 Y103.046 E27.71408
G1 X177.2 Y103.094 E27.733
G1 X176.761 Y103.091 E27.7549
G1 X176.424 Y103.046 E27.77186
G1 X176.006 Y102.936 E27.79342
G1 X175.649 Y102.79 E27.81267
G1 X175.3 Y102.594 E27.83264
G1 F2700 E21.33264
G0 F7500 X175.242 Y102.674
G0 X177.212 Y103.275
G0 X199.2 Y103.275
G0 X199.4 Y136.9
G1 F2700 E27.83264
G1 F1500 X199.4 Y88.1 E30.26728
G1 X20.6 Y88.1 E39.18765
G1 X20.6 Y136.9 E41.62229
G1 X199.4 Y136.9 E50.54266
G0 F7500 X199.8 Y137.3
;TYPE:WALL-OUTER
G1 F1500 X199.8 Y87.7 E53.01721
G1 X20.2 Y87.7 E61.97749
G1 X20.2 Y137.3 E64.45204
G1 X199.8 Y137.3 E73.41233
G0 F7500 X199.8 Y137.1
G1 F2700 E66.91233
G0 F7500 X199.53 Y137.03
G0 X175.234 Y136.7
G0 X176.345 Y128.213
G0 X175.537 Y127.272
G1 F2700 E73.41233
G1 F1500 X175.285 Y127.087 E73.42792
G1 X175.021 Y126.839 E73.44599
G1 X174.813 Y126.584 E73.46241
G1 X174.629 Y126.294 E73.47954
G1 X174.488 Y125.989 E73.49631
G1 X174.382 Y125.659 E73.5136
G1 X174.322 Y125.342 E73.5297
G1 X174.3 Y124.99 E73.54729
G1 X174.321 Y124.664 E73.56359
G1 X174.386 Y124.323 E73.58091
G1 X174.493 Y123.998 E73.59798
G1 X174.638 Y123.692 E73.61487
G1 X174.823 Y123.401 E73.63208
G1 X175.03 Y123.151 E73.64827
G1 X175.285 Y122.913 E73.66567
G1 X175.548 Y122.721 E73.68192
G1 X175.862 Y122.551 E73.69973
G1 X176.165 Y122.432 E73.71597
G1 X176.512 Y122.345 E73.73382
G1 X176.826 Y122.305 E73.74961
G1 X177.187 Y122.306 E73.76762
G1 X177.5 Y122.347 E73.78337
G1 X177.847 Y122.436 E73.80124
G1 X178.149 Y122.556 E73.81746
G1 X178.463 Y122.728 E73.83532
G1 X178.726 Y122.922 E73.85162
G1 X178.979 Y123.161 E73.86899
G1 X179.187 Y123.416 E73.8854
G1 X179.365 Y123.694 E73.90187
G1 X179.512 Y124.011 E73.91931
G1 X179.612 Y124.316 E73.93532
G1 X179.678 Y124.658 E73.9527
G1 X179.7 Y125.009 E73.97024
G1 X179.677 Y125.346 E73.9871
G1 X179.614 Y125.677 E74.00391
G1 X179.507 Y126.002 E74.02098
G1 X179.362 Y126.308 E74.03787
G1 X179.177 Y126.599 E74.05507
G1 X178.982 Y126.836 E74.07038
G1 X178.715 Y127.087 E74.08867
G1 X178.463 Y127.272 E74.10426
G1 X178.138 Y127.449 E74.12273
G1 X177.847 Y127.564 E74.13834
G1 X177.488 Y127.655 E74.15681
G1 X177.187 Y127.694 E74.17196
G1 X176.813 Y127.694 E74.19062
G1 X176.512 Y127.655 E74.20576
G1 X176.153 Y127.564 E74.22424
G1 X175.862 Y127.449 E74.23985
G1 X175.537 Y127.272 E74.25831
G0 F7500 X175.376 Y127.154
G1 F2700 E67.75831
G0 F7500 X175.227 Y127.665
G0 X174.425 Y126.42
G0 X174.154 Y125.736
G0 X174.059 Y125.005
G0 X174.152 Y124.274
G0 X174.42 Y123.589
G0 X174.854 Y122.991
G0 X176.39 Y121.777
G0 X176.39 Y103.223
G0 X175.537 Y102.272
G1 F2700 E74.25831
G1 F1500 X175.263 Y102.067 E74.27538
G1 X175.021 Y101.839 E74.29197
G1 X174.813 Y101.584 E74.30839
G1 X174.629 Y101.294 E74.32552
G1 X174.488 Y100.989 E74.34229
G1 X174.382 Y100.659 E74.35958
G1 X174.322 Y100.342 E74.37567
G1 X174.3 Y99.99 E74.39327
G1 X174.321 Y99.665 E74.40952
G1 X174.386 Y99.323 E74.42689
G1 X174.493 Y98.998 E74.44396
G1 X174.638 Y98.692 E74.46085
G1 X174.823 Y98.401 E74.47805
G1 X175.018 Y98.164 E74.49336
G1 X175.285 Y97.913 E74.51165
G1 X175.537 Y97.728 E74.52724
G1 X175.862 Y97.551 E74.54571
G1 X176.153 Y97.436 E74.56132
G1 X176.512 Y97.345 E74.57979
G1 X176.813 Y97.306 E74.59494
G1 X177.187 Y97.306 E74.6136
G1 X177.488 Y97.345 E74.62874
G1 X177.847 Y97.436 E74.64722
G1 X178.138 Y97.551 E74.66283
G1 X178.463 Y97.728 E74.68129
G1 X178.715 Y97.913 E74.69689
G1 X178.979 Y98.161 E74.71496
G1 X179.187 Y98.416 E74.73137
G1 X179.371 Y98.706 E74.74851
G1 X179.512 Y99.011 E74.76527
G1 X179.618 Y99.341 E74.78256
G1 X179.679 Y99.67 E74.79926
G1 X179.7 Y99.996 E74.81556
G1 X179.677 Y100.346 E74.83306
G1 X179.614 Y100.677 E74.84987
G1 X179.512 Y100.991 E74.86634
G1 X179.362 Y101.308 E74.88383
G1 X179.185 Y101.589 E74.9004
G1 X178.982 Y101.836 E74.91635
G1 X178.726 Y102.078 E74.93393
G1 X178.452 Y102.279 E74.95088
G1 X178.138 Y102.449 E74.9687
G1 X177.835 Y102.568 E74.98494
G1 X177.488 Y102.655 E75.00278
G1 X177.174 Y102.695 E75.01858
G1 X176.813 Y102.694 E75.03659
G1 X176.5 Y102.653 E75.05234
G1 X176.153 Y102.564 E75.07021
G1 X175.851 Y102.444 E75.08642
G1 X175.537 Y102.272 E75.10428
G0 F7500 X175.377 Y102.153
G1 F2700 E68.60428
G0 F7500 X175.083 Y102.558
G0 X174.621 Y102.262
G0 X43.4 Y102.24
G0 X42.452 Y102.279
G1 F2700 E75.10428
G1 F1500 X42.138 Y102.449 E75.1221
G1 X41.835 Y102.568 E75.13834
G1 X41.488 Y102.655 E75.15619
G1 X41.174 Y102.695 E75.17198
G1 X40.813 Y102.694 E75.18999
G1 X40.5 Y102.653 E75.20574
G1 X40.153 Y102.564 E75.22361
G1 X39.851 Y102.444 E75.23982
G1 X39.537 Y102.272 E75.25768
G1 X39.285 Y102.087 E75.27328
G1 X39.021 Y101.839 E75.29135
G1 X38.813 Y101.584 E75.30777
G1 X38.635 Y101.306 E75.32424
G1 X38.488 Y100.989 E75.34167
G1 X38.382 Y100.659 E75.35896
G1 X38.321 Y100.33 E75.37566
G1 X38.3 Y99.99 E75.39265
G1 X38.323 Y99.653 E75.4095
G1 X38.383 Y99.333 E75.42575
G1 X38.493 Y98.998 E75.44334
G1 X38.638 Y98.692 E75.46023
G1 X38.823 Y98.401 E75.47743
G1 X39.018 Y98.164 E75.49275
G1 X39.285 Y97.913 E75.51103
G1 X39.537 Y97.728 E75.52663
G1 X39.862 Y97.551 E75.54509
G1 X40.153 Y97.436 E75.5607
G1 X40.512 Y97.345 E75.57918
G1 X40.813 Y97.306 E75.59432
G1 X41.187 Y97.306 E75.61298
G1 X41.488 Y97.345 E75.62812
G1 X41.847 Y97.436 E75.6466
G1 X42.138 Y97.551 E75.66221
G1 X42.463 Y97.728 E75.68067
G1 X42.715 Y97.913 E75.69627
G1 X42.979 Y98.161 E75.71434
G1 X43.187 Y98.416 E75.73076
G1 X43.371 Y98.706 E75.74789
G1 X43.513 Y99.014 E75.76481
G1 X43.618 Y99.342 E75.78199
G1 X43.678 Y99.658 E75.79804
G1 X43.7 Y100.009 E75.81559
G1 X43.679 Y100.335 E75.83188
G1 X43.614 Y100.677 E75.84925
G1 X43.507 Y101.002 E75.86632
G1 X43.362 Y101.308 E75.88322
G1 X43.177 Y101.599 E75.90042
G1 X42.97 Y101.849 E75.91661
G1 X42.715 Y102.087 E75.93401
G1 X42.452 Y102.279 E75.95026
G0 F7500 X42.277 Y102.374
G1 F2700 E69.45026
G0 F7500 X42.42 Y102.637
G0 X42.062 Y103.104
G0 X42.015 Y121.881
G0 X42.463 Y127.272
G1 F2700 E75.95026
G1 F1500 X42.138 Y127.449 E75.96872
G1 X41.847 Y127.564 E75.98433
G1 X41.488 Y127.655 E76.00281
G1 X41.187 Y127.694 E76.01795
G1 X40.813 Y127.694 E76.03661
G1 X40.512 Y127.655 E76.05175
G1 X40.153 Y127.564 E76.07023
G1 X39.862 Y127.449 E76.08584
G1 X39.537 Y127.272 E76.10431
G1 X39.285 Y127.087 E76.1199
G1 X39.021 Y126.839 E76.13797
G1 X38.813 Y126.584 E76.15439
G1 X38.629 Y126.294 E76.17153
G1 X38.488 Y125.989 E76.18829
G1 X38.385 Y125.673 E76.20487
G1 X38.321 Y125.33 E76.22228
G1 X38.3 Y124.99 E76.23927
G1 X38.323 Y124.653 E76.25613
G1 X38.386 Y124.323 E76.27289
G1 X38.488 Y124.009 E76.28936
G1 X38.638 Y123.692 E76.30685
G1 X38.815 Y123.411 E76.32342
G1 X39.018 Y123.164 E76.33937
G1 X39.285 Y122.913 E76.35766
G1 X39.551 Y122.719 E76.37408
G1 X39.862 Y122.551 E76.39172
G1 X40.165 Y122.432 E76.40796
G1 X40.512 Y122.345 E76.4258
G1 X40.826 Y122.305 E76.4416
G1 X41.187 Y122.306 E76.45961
G1 X41.5 Y122.347 E76.47536
G1 X41.847 Y122.436 E76.49323
G1 X42.149 Y122.556 E76.50944
G1 X42.463 Y122.728 E76.5273
G1 X42.737 Y122.933 E76.54438
G1 X42.979 Y123.161 E76.56096
G1 X43.187 Y123.416 E76.57738
G1 X43.371 Y123.706 E76.59452
G1 X43.512 Y124.011 E76.61128
G1 X43.618 Y124.341 E76.62857
G1 X43.678 Y124.658 E76.64467
G1 X43.7 Y125.009 E76.66221
G1 X43.679 Y125.334 E76.67846
G1 X43.614 Y125.677 E76.69588
G1 X43.507 Y126.002 E76.71295
G1 X43.362 Y126.308 E76.72984
G1 X43.177 Y126.599 E76.74705
G1 X42.982 Y126.836 E76.76236
G1 X42.715 Y127.087 E76.78064
G1 X42.463 Y127.272 E76.79624
G0 F7500 X42.288 Y127.367
G1 F2700 E70.29624
G0 F7500 X42.649 Y127.742
G0 X43.684 Y126.887
G0 X43.684 Y136.7
G0 X199.04 Y136.54
;TYPE:SKIN
G1 F2700 E76.79624
G1 F1500 X20.96 Y136.54 E85.68068
G1 X20.96 Y88.46 E88.07941
G1 X199.04 Y88.46 E96.96385
G1 X199.04 Y136.54 E99.36257
G1 F2700 E92.86257
G0 F7500 X199.3 Y136.54
G0 X175.238 Y136.7
