;FLAVOR:Marlin
;TIME:21740
;Filament used: 45.3479m
;Layer height: 0.3
;MINX:16.8
;MINY:78.3
;MINZ:0.3
;MAXX:203.2
;MAXY:141.7
;MAXZ:50.1
;Generated with Cura_SteamEngine master
M140 S60
M105
M190 S60
M104 S200
M105
M109 S200
M82 ;absolute extrusion mode
G28 ;Home
G1 Z15.0 F6000 ;Move the platform down 15mm
;Prime the extruder
G92 E0
G1 F200 E3
G92 E0
G92 E0
G92 E0
G1 F2400 E-6.5
;LAYER_COUNT:167
;LAYER:0
M107 P1
G0 F3600 X19.088 Y78.444 Z0.3
;TYPE:SKIRT
G1 F2400 E0
G1 F1200 X19.582 Y78.338 E0.02521
G1 X20.24 Y78.301 E0.05809
G1 X199.339 Y78.3 E8.99337
G1 X200.037 Y78.31 E9.0282
G1 X200.54 Y78.357 E9.0534
G1 X201.03 Y78.483 E9.07864
G1 X201.494 Y78.685 E9.10389
G1 X201.92 Y78.957 E9.12911
G1 X202.298 Y79.292 E9.15431
G1 X202.618 Y79.683 E9.17951
G1 X202.873 Y80.12 E9.20476
G1 X203.056 Y80.591 E9.22997
G1 X203.163 Y81.085 E9.25518
G1 X203.199 Y81.74 E9.28791
G1 X203.2 Y137.804 E12.08495
G1 X203.191 Y138.531 E12.12123
G1 X203.145 Y139.034 E12.14643
G1 X203.02 Y139.524 E12.17166
G1 X202.819 Y139.988 E12.19688
G1 X202.548 Y140.415 E12.22212
G1 X202.213 Y140.794 E12.24735
G1 X201.823 Y141.115 E12.27255
G1 X201.387 Y141.371 E12.29778
G1 X200.916 Y141.554 E12.32299
G1 X200.422 Y141.662 E12.34821
G1 X199.76 Y141.699 E12.38129
G1 X190.661 Y141.7 E12.83524
G1 X189.964 Y141.69 E12.87002
G1 X189.704 Y141.675 E12.88301
G1 X189 Y141.607 E12.9183
G1 X187.62 Y141.448 E12.9876
G1 X184.921 Y141.218 E13.12275
G1 X182.171 Y141.06 E13.26017
G1 X179.418 Y140.98 E13.39758
G1 X176.7 Y140.978 E13.53318
G1 X173.948 Y141.054 E13.67053
G1 X171.233 Y141.206 E13.80619
G1 X168.47 Y141.439 E13.94453
G1 X166.934 Y141.603 E14.02159
G1 X166.349 Y141.67 E14.05097
G1 X165.762 Y141.699 E14.08029
G1 X156.661 Y141.7 E14.53434
G1 X155.964 Y141.69 E14.56912
G1 X155.704 Y141.675 E14.58211
G1 X155 Y141.607 E14.6174
G1 X153.62 Y141.448 E14.6867
G1 X150.921 Y141.218 E14.82184
G1 X148.171 Y141.06 E14.95927
G1 X145.418 Y140.98 E15.09667
G1 X142.7 Y140.978 E15.23228
G1 X139.948 Y141.054 E15.36963
G1 X137.233 Y141.206 E15.50529
G1 X134.47 Y141.439 E15.64363
G1 X132.934 Y141.603 E15.72069
G1 X132.349 Y141.67 E15.75007
G1 X131.762 Y141.699 E15.77939
G1 X122.661 Y141.7 E16.23344
G1 X121.964 Y141.69 E16.26822
G1 X121.704 Y141.675 E16.28121
G1 X121 Y141.607 E16.3165
G1 X119.62 Y141.448 E16.3858
G1 X116.921 Y141.218 E16.52094
G1 X114.171 Y141.06 E16.65837
G1 X111.418 Y140.98 E16.79577
G1 X108.7 Y140.978 E16.93138
G1 X105.948 Y141.054 E17.06873
G1 X103.233 Y141.206 E17.20439
G1 X100.47 Y141.439 E17.34273
G1 X98.934 Y141.603 E17.41979
G1 X98.349 Y141.67 E17.44917
G1 X97.762 Y141.699 E17.47849
G1 X88.661 Y141.7 E17.93254
G1 X87.964 Y141.69 E17.96732
G1 X87.704 Y141.675 E17.98031
G1 X87 Y141.607 E18.0156
G1 X85.62 Y141.448 E18.0849
G1 X82.921 Y141.218 E18.22004
G1 X80.171 Y141.06 E18.35747
G1 X77.418 Y140.98 E18.49487
G1 X74.7 Y140.978 E18.63047
G1 X71.948 Y141.054 E18.76782
G1 X69.233 Y141.206 E18.90349
G1 X66.47 Y141.439 E19.04182
G1 X64.934 Y141.603 E19.11889
G1 X64.349 Y141.67 E19.14827
G1 X63.762 Y141.699 E19.17759
G1 X54.661 Y141.7 E19.63164
G1 X53.964 Y141.69 E19.66642
G1 X53.704 Y141.675 E19.67941
G1 X53 Y141.607 E19.7147
G1 X51.62 Y141.448 E19.784
G1 X48.921 Y141.218 E19.91914
G1 X46.171 Y141.06 E20.05657
G1 X43.418 Y140.98 E20.19397
G1 X40.7 Y140.978 E20.32957
G1 X37.948 Y141.054 E20.46692
G1 X35.233 Y141.206 E20.60259
G1 X32.47 Y141.439 E20.74092
G1 X30.934 Y141.603 E20.81799
G1 X30.349 Y141.67 E20.84737
G1 X29.762 Y141.699 E20.87669
G1 X20.666 Y141.7 E21.33049
G1 X19.968 Y141.691 E21.36532
G1 X19.464 Y141.644 E21.39057
G1 X18.974 Y141.519 E21.4158
G1 X18.51 Y141.318 E21.44103
G1 X18.084 Y141.047 E21.46622
G1 X17.705 Y140.712 E21.49145
G1 X17.384 Y140.321 E21.51669
G1 X17.129 Y139.885 E21.54189
G1 X16.945 Y139.414 E21.56712
G1 X16.838 Y138.92 E21.59233
G1 X16.801 Y138.244 E21.62611
G1 X16.8 Y82.131 E24.4256
G1 X16.809 Y81.466 E24.45878
G1 X16.856 Y80.962 E24.48403
G1 X16.982 Y80.473 E24.50923
G1 X17.183 Y80.009 E24.53445
G1 X17.454 Y79.582 E24.55969
G1 X17.789 Y79.204 E24.58488
G1 X18.18 Y78.883 E24.61012
G1 X18.617 Y78.628 E24.63537
G1 X19.088 Y78.444 E24.66059
G1 F2400 E18.16059
;MESH:GardenaWallHolder.stl
G0 F3600 X20.614 Y80.835
G0 X20.614 Y82.114
G0 X29 Y90.5
;TYPE:WALL-INNER
G1 F2400 E24.66059
G1 F1200 X29 Y137.5 E27.00543
G1 X21 Y137.5 E27.40455
G1 X21 Y82.5 E30.14852
G1 X199 Y82.5 E39.02897
G1 X199 Y137.5 E41.77293
G1 X191 Y137.5 E42.17205
G1 X191 Y90.5 E44.51689
G1 X165 Y90.5 E45.81404
G1 X165 Y137.5 E48.15888
G1 X157 Y137.5 E48.558
G1 X157 Y90.5 E50.90284
G1 X131 Y90.5 E52.19999
G1 X131 Y137.5 E54.54482
G1 X123 Y137.5 E54.94395
G1 X123 Y90.5 E57.28879
G1 X97 Y90.5 E58.58593
G1 X97 Y137.5 E60.93077
G1 X89 Y137.5 E61.32989
G1 X89 Y90.5 E63.67473
G1 X63 Y90.5 E64.97188
G1 X63 Y137.5 E67.31672
G1 X55 Y137.5 E67.71584
G1 X55 Y90.5 E70.06068
G1 X29 Y90.5 E71.35782
G0 F3600 X29.4 Y90.9
G1 F1200 X29.4 Y137.9 E73.70266
G1 X20.6 Y137.9 E74.1417
G1 X20.6 Y82.1 E76.92557
G1 X199.4 Y82.1 E85.84594
G1 X199.4 Y137.9 E88.62981
G1 X190.6 Y137.9 E89.06885
G1 X190.6 Y90.9 E91.41368
G1 X165.4 Y90.9 E92.67092
G1 X165.4 Y137.9 E95.01576
G1 X156.6 Y137.9 E95.45479
G1 X156.6 Y90.9 E97.79963
G1 X131.4 Y90.9 E99.05686
G1 X131.4 Y137.9 E101.4017
G1 X122.6 Y137.9 E101.84074
G1 X122.6 Y90.9 E104.18558
G1 X97.4 Y90.9 E105.44281
G1 X97.4 Y137.9 E107.78765
G1 X88.6 Y137.9 E108.22668
G1 X88.6 Y90.9 E110.57152
G1 X63.4 Y90.9 E111.82876
G1 X63.4 Y137.9 E114.17359
G1 X54.6 Y137.9 E114.61263
G1 X54.6 Y90.9 E116.95747
G1 X29.4 Y90.9 E118.2147
G0 F3600 X29.8 Y91.3
;TYPE:WALL-OUTER
G1 F1200 X29.8 Y138.3 E120.55954
G1 X20.2 Y138.3 E121.03849
G1 X20.2 Y81.7 E123.86227
G1 X199.8 Y81.7 E132.82255
G1 X199.8 Y138.3 E135.64634
G1 X190.2 Y138.3 E136.12528
G1 X190.2 Y91.3 E138.47012
G1 X165.8 Y91.3 E139.68744
G1 X165.8 Y138.3 E142.03228
G1 X156.2 Y138.3 E142.51123
G1 X156.2 Y91.3 E144.85607
G1 X131.8 Y91.3 E146.07339
G1 X131.8 Y138.3 E148.41823
G1 X122.2 Y138.3 E148.89718
G1 X122.2 Y91.3 E151.24202
G1 X97.8 Y91.3 E152.45934
G1 X97.8 Y138.3 E154.80418
G1 X88.2 Y138.3 E155.28312
G1 X88.2 Y91.3 E157.62796
G1 X63.8 Y91.3 E158.84528
G1 X63.8 Y138.3 E161.19012
G1 X54.2 Y138.3 E161.66907
G1 X54.2 Y91.3 E164.01391
G1 X29.8 Y91.3 E165.23123
G0 F3600 X29.8 Y91.5
G0 X29.3 Y91.5
G0 X28.61 Y90.11
;TYPE:SKIN
G1 F1200 X28.61 Y137.11 E167.57607
G1 X21.39 Y137.11 E167.93628
G1 X21.39 Y82.89 E170.64132
G1 X198.61 Y82.89 E179.48286
G1 X198.61 Y137.11 E182.18791
G1 X191.39 Y137.11 E182.54812
G1 X191.39 Y90.11 E184.89296
G1 X164.61 Y90.11 E186.22902
G1 X164.61 Y137.11 E188.57386
G1 X157.39 Y137.11 E188.93406
G1 X157.39 Y90.11 E191.2789
G1 X130.61 Y90.11 E192.61496
G1 X130.61 Y137.11 E194.9598
G1 X123.39 Y137.11 E195.32001
G1 X123.39 Y90.11 E197.66485
G1 X96.61 Y90.11 E199.00091
G1 X96.61 Y137.11 E201.34575
G1 X89.39 Y137.11 E201.70596
G1 X89.39 Y90.11 E204.05079
G1 X62.61 Y90.11 E205.38685
G1 X62.61 Y137.11 E207.73169
G1 X55.39 Y137.11 E208.0919
G1 X55.39 Y90.11 E210.43674
G1 X28.61 Y90.11 E211.7728
G0 F3600 X22.094 Y136.929
G1 F1200 X21.569 Y136.403 E211.80988
G0 F3600 X21.569 Y135.838
G1 F1200 X22.66 Y136.929 E211.88685
G0 F3600 X23.226 Y136.929
G1 F1200 X21.569 Y135.272 E212.00376
G0 F3600 X21.569 Y134.706
G1 F1200 X23.792 Y136.929 E212.16061
G0 F3600 X24.357 Y136.929
G1 F1200 X21.569 Y134.14 E212.35735
G0 F3600 X21.569 Y133.575
G1 F1200 X24.923 Y136.929 E212.59399
G0 F3600 X25.489 Y136.929
G1 F1200 X21.569 Y133.009 E212.87057
G0 F3600 X21.569 Y132.443
G1 F1200 X26.054 Y136.929 E213.18705
G0 F3600 X26.62 Y136.929
G1 F1200 X21.569 Y131.878 E213.54342
G0 F3600 X21.569 Y131.312
G1 F1200 X27.186 Y136.929 E213.93973
G0 F3600 X27.751 Y136.929
G1 F1200 X21.569 Y130.746 E214.37594
G0 F3600 X21.569 Y130.181
G1 F1200 X28.317 Y136.929 E214.85205
G0 F3600 X28.429 Y136.475
G1 F1200 X21.569 Y129.615 E215.33606
G0 F3600 X21.569 Y129.049
G1 F1200 X28.429 Y135.91 E215.82011
G0 F3600 X28.429 Y135.344
G1 F1200 X21.569 Y128.484 E216.30412
G0 F3600 X21.569 Y127.918
G1 F1200 X28.429 Y134.778 E216.78813
G0 F3600 X28.429 Y134.213
G1 F1200 X21.569 Y127.352 E217.27217
G0 F3600 X21.569 Y126.787
G1 F1200 X28.429 Y133.647 E217.75618
G0 F3600 X28.429 Y133.081
G1 F1200 X21.569 Y126.221 E218.24019
G0 F3600 X21.569 Y125.655
G1 F1200 X28.429 Y132.516 E218.72424
G0 F3600 X28.429 Y131.95
G1 F1200 X21.569 Y125.09 E219.20825
G0 F3600 X21.569 Y124.524
G1 F1200 X28.429 Y131.384 E219.69226
G0 F3600 X28.429 Y130.818
G1 F1200 X21.569 Y123.958 E220.17627
G0 F3600 X21.569 Y123.392
G1 F1200 X28.429 Y130.253 E220.66031
G0 F3600 X28.429 Y129.687
G1 F1200 X21.569 Y122.827 E221.14432
G0 F3600 X21.569 Y122.261
G1 F1200 X28.429 Y129.121 E221.62833
G0 F3600 X28.429 Y128.556
G1 F1200 X21.569 Y121.695 E222.11238
G0 F3600 X21.569 Y121.13
G1 F1200 X28.429 Y127.99 E222.59639
G0 F3600 X28.429 Y127.424
G1 F1200 X21.569 Y120.564 E223.0804
G0 F3600 X21.569 Y119.998
G1 F1200 X28.429 Y126.859 E223.56444
G0 F3600 X28.429 Y126.293
G1 F1200 X21.569 Y119.433 E224.04845
G0 F3600 X21.569 Y118.867
G1 F1200 X28.429 Y125.727 E224.53246
G0 F3600 X28.429 Y125.162
G1 F1200 X21.569 Y118.301 E225.01651
G0 F3600 X21.569 Y117.736
G1 F1200 X28.429 Y124.596 E225.50052
G0 F3600 X28.429 Y124.03
G1 F1200 X21.569 Y117.17 E225.98453
G0 F3600 X21.569 Y116.604
G1 F1200 X28.429 Y123.465 E226.46857
G0 F3600 X28.429 Y122.899
G1 F1200 X21.569 Y116.039 E226.95258
G0 F3600 X21.569 Y115.473
G1 F1200 X28.429 Y122.333 E227.43659
G0 F3600 X28.429 Y121.768
G1 F1200 X21.569 Y114.907 E227.92064
G0 F3600 X21.569 Y114.341
G1 F1200 X28.429 Y121.202 E228.40468
G0 F3600 X28.429 Y120.636
G1 F1200 X21.569 Y113.776 E228.88869
G0 F3600 X21.569 Y113.21
G1 F1200 X28.429 Y120.07 E229.3727
G0 F3600 X28.429 Y119.505
G1 F1200 X21.569 Y112.644 E229.85675
G0 F3600 X21.569 Y112.079
G1 F1200 X28.429 Y118.939 E230.34076
G0 F3600 X28.429 Y118.373
G1 F1200 X21.569 Y111.513 E230.82477
G0 F3600 X21.569 Y110.947
G1 F1200 X28.429 Y117.808 E231.30881
G0 F3600 X28.429 Y117.242
G1 F1200 X21.569 Y110.382 E231.79283
G0 F3600 X21.569 Y109.816
G1 F1200 X28.429 Y116.676 E232.27684
G0 F3600 X28.429 Y116.111
G1 F1200 X21.569 Y109.25 E232.76088
G0 F3600 X21.569 Y108.685
G1 F1200 X28.429 Y115.545 E233.24489
G0 F3600 X28.429 Y114.979
G1 F1200 X21.569 Y108.119 E233.7289
G0 F3600 X21.569 Y107.553
G1 F1200 X28.429 Y114.414 E234.21295
G0 F3600 X28.429 Y113.848
G1 F1200 X21.569 Y106.988 E234.69696
G0 F3600 X21.569 Y106.422
G1 F1200 X28.429 Y113.282 E235.18097
G0 F3600 X28.429 Y112.717
G1 F1200 X21.569 Y105.856 E235.66501
G0 F3600 X21.569 Y105.291
G1 F1200 X28.429 Y112.151 E236.14902
G0 F3600 X28.429 Y111.585
G1 F1200 X21.569 Y104.725 E236.63303
G0 F3600 X21.569 Y104.159
G1 F1200 X28.429 Y111.02 E237.11708
G0 F3600 X28.429 Y110.454
G1 F1200 X21.569 Y103.593 E237.60112
G0 F3600 X21.569 Y103.028
G1 F1200 X28.429 Y109.888 E238.08513
G0 F3600 X28.429 Y109.322
G1 F1200 X21.569 Y102.462 E238.56914
G0 F3600 X21.569 Y101.896
G1 F1200 X28.429 Y108.757 E239.05319
G0 F3600 X28.429 Y108.191
G1 F1200 X21.569 Y101.331 E239.5372
G0 F3600 X21.569 Y100.765
G1 F1200 X28.429 Y107.625 E240.02121
G0 F3600 X28.429 Y107.06
G1 F1200 X21.569 Y100.199 E240.50525
G0 F3600 X21.569 Y99.634
G1 F1200 X28.429 Y106.494 E240.98926
G0 F3600 X28.429 Y105.928
G1 F1200 X21.569 Y99.068 E241.47327
G0 F3600 X21.569 Y98.502
G1 F1200 X28.429 Y105.363 E241.95732
G0 F3600 X28.429 Y104.797
G1 F1200 X21.569 Y97.937 E242.44133
G0 F3600 X21.569 Y97.371
G1 F1200 X28.429 Y104.231 E242.92534
G0 F3600 X28.429 Y103.666
G1 F1200 X21.569 Y96.805 E243.40938
G0 F3600 X21.569 Y96.24
G1 F1200 X28.429 Y103.1 E243.89339
G0 F3600 X28.429 Y102.534
G1 F1200 X21.569 Y95.674 E244.3774
G0 F3600 X21.569 Y95.108
G1 F1200 X28.429 Y101.969 E244.86145
G0 F3600 X28.429 Y101.403
G1 F1200 X21.569 Y94.543 E245.34546
G0 F3600 X21.569 Y93.977
G1 F1200 X28.429 Y100.837 E245.82947
G0 F3600 X28.429 Y100.271
G1 F1200 X21.569 Y93.411 E246.31348
G0 F3600 X21.569 Y92.845
G1 F1200 X28.429 Y99.706 E246.79752
G0 F3600 X28.429 Y99.14
G1 F1200 X21.569 Y92.28 E247.28153
G0 F3600 X21.569 Y91.714
G1 F1200 X28.429 Y98.574 E247.76554
G0 F3600 X28.429 Y98.009
G1 F1200 X21.569 Y91.148 E248.24959
G0 F3600 X21.569 Y90.583
G1 F1200 X28.429 Y97.443 E248.7336
G0 F3600 X28.429 Y96.877
G1 F1200 X21.569 Y90.017 E249.21761
G0 F3600 X21.569 Y89.451
G1 F1200 X28.429 Y96.312 E249.70166
G0 F3600 X28.429 Y95.746
G1 F1200 X21.569 Y88.886 E250.18567
G0 F3600 X21.569 Y88.32
G1 F1200 X28.429 Y95.18 E250.66968
G0 F3600 X28.429 Y94.615
G1 F1200 X21.569 Y87.754 E251.15372
G0 F3600 X21.569 Y87.189
G1 F1200 X28.429 Y94.049 E251.63773
G0 F3600 X28.429 Y93.483
G1 F1200 X21.569 Y86.623 E252.12174
G0 F3600 X21.569 Y86.057
G1 F1200 X28.429 Y92.918 E252.60579
G0 F3600 X28.429 Y92.352
G1 F1200 X21.569 Y85.492 E253.0898
G0 F3600 X21.569 Y84.926
G1 F1200 X28.429 Y91.786 E253.57381
G0 F3600 X28.429 Y91.221
G1 F1200 X21.569 Y84.36 E254.05785
G0 F3600 X21.569 Y83.794
G1 F1200 X28.429 Y90.655 E254.5419
G0 F3600 X28.429 Y90.089
G1 F1200 X21.569 Y83.229 E255.02591
G0 F3600 X21.976 Y83.07
G1 F1200 X28.835 Y89.929 E255.50985
G0 F3600 X29.401 Y89.929
G1 F1200 X22.541 Y83.07 E255.99382
G0 F3600 X23.107 Y83.07
G1 F1200 X29.967 Y89.929 E256.4778
G0 F3600 X30.532 Y89.929
G1 F1200 X23.673 Y83.07 E256.96174
G0 F3600 X24.238 Y83.07
G1 F1200 X31.098 Y89.929 E257.44571
G0 F3600 X31.664 Y89.929
G1 F1200 X24.804 Y83.07 E257.92969
G0 F3600 X25.37 Y83.07
G1 F1200 X32.229 Y89.929 E258.41362
G0 F3600 X32.795 Y89.929
G1 F1200 X25.935 Y83.07 E258.8976
G0 F3600 X26.501 Y83.07
G1 F1200 X33.361 Y89.929 E259.38157
G0 F3600 X33.926 Y89.929
G1 F1200 X27.067 Y83.07 E259.86551
G0 F3600 X27.633 Y83.07
G1 F1200 X34.492 Y89.929 E260.34945
G0 F3600 X35.058 Y89.929
G1 F1200 X28.198 Y83.07 E260.83343
G0 F3600 X28.764 Y83.07
G1 F1200 X35.624 Y89.929 E261.3174
G0 F3600 X36.189 Y89.929
G1 F1200 X29.33 Y83.07 E261.80134
G0 F3600 X29.895 Y83.07
G1 F1200 X36.755 Y89.929 E262.28532
G0 F3600 X37.321 Y89.929
G1 F1200 X30.461 Y83.07 E262.76929
G0 F3600 X31.027 Y83.07
G1 F1200 X37.886 Y89.929 E263.25323
G0 F3600 X38.452 Y89.929
G1 F1200 X31.592 Y83.07 E263.73721
G0 F3600 X32.158 Y83.07
G1 F1200 X39.018 Y89.929 E264.22118
G0 F3600 X39.583 Y89.929
G1 F1200 X32.724 Y83.07 E264.70512
G0 F3600 X33.289 Y83.07
G1 F1200 X40.149 Y89.929 E265.1891
G0 F3600 X40.715 Y89.929
G1 F1200 X33.855 Y83.07 E265.67307
G0 F3600 X34.421 Y83.07
G1 F1200 X41.28 Y89.929 E266.15701
G0 F3600 X41.846 Y89.929
G1 F1200 X34.986 Y83.07 E266.64098
G0 F3600 X35.552 Y83.07
G1 F1200 X42.412 Y89.929 E267.12496
G0 F3600 X42.977 Y89.929
G1 F1200 X36.118 Y83.07 E267.6089
G0 F3600 X36.683 Y83.07
G1 F1200 X43.543 Y89.929 E268.09287
G0 F3600 X44.109 Y89.929
G1 F1200 X37.249 Y83.07 E268.57685
G0 F3600 X37.815 Y83.07
G1 F1200 X44.675 Y89.929 E269.06082
G0 F3600 X45.24 Y89.929
G1 F1200 X38.381 Y83.07 E269.54476
G0 F3600 X38.946 Y83.07
G1 F1200 X45.806 Y89.929 E270.02874
G0 F3600 X46.372 Y89.929
G1 F1200 X39.512 Y83.07 E270.51271
G0 F3600 X40.078 Y83.07
G1 F1200 X46.937 Y89.929 E270.99665
G0 F3600 X47.503 Y89.929
G1 F1200 X40.643 Y83.07 E271.48063
G0 F3600 X41.209 Y83.07
G1 F1200 X48.069 Y89.929 E271.9646
G0 F3600 X48.634 Y89.929
G1 F1200 X41.775 Y83.07 E272.44854
G0 F3600 X42.34 Y83.07
G1 F1200 X49.2 Y89.929 E272.93252
G0 F3600 X49.766 Y89.929
G1 F1200 X42.906 Y83.07 E273.41649
G0 F3600 X43.472 Y83.07
G1 F1200 X50.331 Y89.929 E273.90043
G0 F3600 X50.897 Y89.929
G1 F1200 X44.037 Y83.07 E274.3844
G0 F3600 X44.603 Y83.07
G1 F1200 X51.463 Y89.929 E274.86838
G0 F3600 X52.028 Y89.929
G1 F1200 X45.169 Y83.07 E275.35232
G0 F3600 X45.734 Y83.07
G1 F1200 X52.594 Y89.929 E275.83629
G0 F3600 X53.16 Y89.929
G1 F1200 X46.3 Y83.07 E276.32027
G0 F3600 X46.866 Y83.07
G1 F1200 X53.725 Y89.929 E276.80421
G0 F3600 X54.291 Y89.929
G1 F1200 X47.432 Y83.07 E277.28815
G0 F3600 X47.997 Y83.07
G1 F1200 X54.857 Y89.929 E277.77212
G0 F3600 X55.423 Y89.929
G1 F1200 X48.563 Y83.07 E278.2561
G0 F3600 X49.129 Y83.07
G1 F1200 X62.429 Y96.37 E279.19448
G0 F3600 X62.429 Y95.805
G1 F1200 X49.694 Y83.07 E280.09301
G0 F3600 X50.26 Y83.07
G1 F1200 X62.429 Y95.239 E280.9516
G0 F3600 X62.429 Y94.673
G1 F1200 X50.826 Y83.07 E281.77025
G0 F3600 X51.391 Y83.07
G1 F1200 X62.429 Y94.108 E282.54904
