; HEADER_BLOCK_START
; generated by OrcaSlicer 2.3.2 on 2026-04-07 at 16:52:07
; total layer number: 25
; filament_density: 1.24
; filament_diameter: 1.75
; max_z_height: 5.00
; filament: 1
; HEADER_BLOCK_END

; THUMBNAIL_BLOCK_START

;
; THUMBNAIL_BLOCK_END

; THUMBNAIL_BLOCK_START

;
; THUMBNAIL_BLOCK_END

; external perimeters extrusion width = 0.42mm
; perimeters extrusion width = 0.45mm
; infill extrusion width = 0.45mm
; solid infill extrusion width = 0.45mm
; top infill extrusion width = 0.42mm
; first layer extrusion width = 0.50mm

; EXECUTABLE_BLOCK_START
EXCLUDE_OBJECT_DEFINE NAME=Halteblech.stl_id_0_copy_0 CENTER=110,110 POLYGON=[[30,100],[85,85],[135,85],[190,100],[190,120],[135,135],[85,135],[30,120],[30,100]]
M73 P0 R32
;TYPE:Custom
SET_GCODE_VARIABLE MACRO=PRINTER_PARAM VARIABLE=fan0_min VALUE=30 ;compensate for fan speed
SET_VELOCITY_LIMIT ACCEL_TO_DECEL=2500 ;revert accel_to_decel back to 2500
M220 S100 ;Reset Feedrate
M221 S100 ;Reset Flowrate

M140 S55 ;Set bed temp
G28 X Y ;Home XY axes
M190 S55 ;Wait for bed temp to stabilize
G28 Z ;Home Z axis & load bed mesh
BED_MESH_CALIBRATE PROBE_COUNT=5,5 ;Auto bed level

M104 S220 ;Set nozzle temp
G92 E0 ;Reset Extruder
G1 X-2.0 Y20 Z0.3 F5000.0 ;Move to start position
M109 S220 ;Wait for nozzle temp to stabilize
G1 Z0.2 ;Lower nozzle to printing height
G1 Y145.0 F1500.0 E15 ;Draw the first line
G1 X-1.7 F5000.0 ;Move to side a little
G1 Y30 F1500.0 E15 ;Draw the second line
G92 E0 ;Reset Extruder
G90
G21
M83 ; use relative distances for extrusion
; filament start gcode
M106 S0
;LAYER_CHANGE
;Z:0.2
;HEIGHT:0.2
;BEFORE_LAYER_CHANGE
;0.2
G92 E0

G1 E-.5 F1800
;_SET_FAN_SPEED_CHANGING_LAYER
SET_VELOCITY_LIMIT ACCEL=1000
SET_VELOCITY_LIMIT SQUARE_CORNER_VELOCITY=7
; printing object Halteblech.stl id:0 copy 0
EXCLUDE_OBJECT_START NAME=Halteblech.stl_id_0_copy_0
G1 Z.4 F24000
G1 X189.221 Y119.405
G1 Z.4
G1 Z.2
G1 E.5 F1800
;TYPE:Inner wall
;WIDTH:0.499999
G1 F3000
G1 X134.896 Y134.221 E2.09733
G1 X85.104 Y134.221 E1.85454
G1 X30.779 Y119.405 E2.09733
G1 X30.779 Y100.595 E.70063
G1 X85.104 Y85.779 E2.09733
G1 X134.896 Y85.779 E1.85454
G1 X189.221 Y100.595 E2.09733
G1 X189.221 Y119.365 E.69914
G1 X189.7 Y119.771 F24000
;TYPE:Outer wall
G1 F3000
G1 X134.96 Y134.7 E2.11333
G1 X85.04 Y134.7 E1.85931
M73 P1 R32
G1 X30.3 Y119.771 E2.11333
G1 X30.3 Y100.229 E.72785
G1 X85.04 Y85.3 E2.11333
G1 X134.96 Y85.3 E1.85931
M73 P1 R31
G1 X189.7 Y100.229 E2.11333
G1 X189.7 Y119.731 E.72636
G1 E-.5 F1800
;WIPE_START
G1 F12000
G1 X187.771 Y120.258
;WIPE_END
G1 Z.4 F24000
G1 X180.383 Y106.735 Z.4
G1 Z.2
G1 E.5 F1800
;TYPE:Inner wall
G1 F3000
G1 X180.577 Y106.75 E.00723
G1 X181.201 Y106.925 E.02414
G1 X181.778 Y107.219 E.0241
G1 X182.286 Y107.619 E.0241
G1 X182.707 Y108.111 E.0241
G1 X183.023 Y108.675 E.0241
G1 X183.224 Y109.29 E.0241
G1 X183.3 Y109.933 E.0241
G1 X183.25 Y110.578 E.0241
G1 X183.075 Y111.201 E.0241
G1 X182.781 Y111.778 E.0241
G1 X182.381 Y112.286 E.0241
G1 X182.001 Y112.616 E.01875
G1 X181.778 Y112.781 E.01035
G1 X181.325 Y113.023 E.01912
G1 X180.71 Y113.224 E.0241
G1 X180.067 Y113.3 E.0241
G1 X179.422 Y113.25 E.0241
G1 X178.799 Y113.075 E.0241
G1 X178.222 Y112.781 E.0241
G1 X177.714 Y112.381 E.0241
G1 X177.293 Y111.889 E.0241
G1 X176.977 Y111.325 E.0241
G1 X176.776 Y110.71 E.0241
G1 X176.7 Y110.067 E.0241
G1 X176.75 Y109.422 E.0241
G1 X176.925 Y108.799 E.0241
G1 X177.219 Y108.222 E.0241
G1 X177.619 Y107.714 E.0241
G1 X178.111 Y107.293 E.0241
G1 X178.675 Y106.977 E.0241
G1 X179.29 Y106.776 E.0241
G1 X179.927 Y106.7 E.0239
G1 X180.344 Y106.732 E.01555
G1 X180.348 Y107.21 F24000
;TYPE:Outer wall
G1 F3000
G1 X180.531 Y107.226 E.00684
G1 X181.062 Y107.383 E.02063
G1 X181.552 Y107.641 E.02062
G1 X181.983 Y107.989 E.02062
G1 X182.337 Y108.414 E.02062
G1 X182.601 Y108.9 E.02062
G1 X182.766 Y109.429 E.02062
G1 X182.824 Y109.98 E.02062
G1 X182.774 Y110.531 E.02062
G1 X182.617 Y111.062 E.02062
G1 X182.359 Y111.552 E.02062
G1 X182.011 Y111.983 E.02062
G1 X181.586 Y112.337 E.02062
G1 X181.1 Y112.601 E.02062
G1 X180.571 Y112.766 E.02062
G1 X180.02 Y112.824 E.02062
G1 X179.469 Y112.774 E.02062
G1 X178.938 Y112.617 E.02062
G1 X178.448 Y112.359 E.02062
G1 X178.017 Y112.011 E.02062
G1 X177.663 Y111.586 E.02062
G1 X177.399 Y111.1 E.02062
G1 X177.234 Y110.571 E.02062
G1 X177.176 Y110.02 E.02062
G1 X177.226 Y109.469 E.02062
G1 X177.383 Y108.938 E.02062
G1 X177.641 Y108.448 E.02062
G1 X177.989 Y108.017 E.02062
G1 X178.414 Y107.663 E.02062
G1 X178.9 Y107.399 E.02062
G1 X179.429 Y107.234 E.02062
G1 X179.975 Y107.176 E.02043
G1 X180.308 Y107.206 E.01247
G1 E-.5 F1800
;WIPE_START
G1 F12000
G1 X180.531 Y107.226
G1 X181.062 Y107.383
G1 X181.552 Y107.641
G1 X181.983 Y107.989
G1 X182.056 Y108.077
;WIPE_END
G1 Z.4 F24000
G1 X132.883 Y91.735 Z.4
G1 Z.2
G1 E.5 F1800
;TYPE:Inner wall
G1 F3000
G1 X133.077 Y91.75 E.00725
G1 X133.572 Y91.886 E.01912
G1 X133.825 Y91.977 E.01002
G1 X134.278 Y92.219 E.01912
G1 X134.786 Y92.619 E.0241
G1 X135.207 Y93.111 E.0241
G1 X135.523 Y93.675 E.0241
G1 X135.724 Y94.29 E.0241
G1 X135.8 Y94.933 E.0241
G1 X135.75 Y95.578 E.0241
G1 X135.575 Y96.201 E.0241
G1 X135.281 Y96.778 E.0241
G1 X134.881 Y97.286 E.0241
G1 X134.389 Y97.707 E.0241
G1 X133.825 Y98.023 E.0241
G1 X133.21 Y98.224 E.0241
G1 X132.567 Y98.3 E.02411
G1 X131.922 Y98.25 E.0241
G1 X131.299 Y98.075 E.0241
G1 X130.722 Y97.782 E.0241
G1 X130.214 Y97.381 E.0241
G1 X129.793 Y96.89 E.0241
G1 X129.477 Y96.325 E.02411
G1 X129.276 Y95.71 E.0241
G1 X129.2 Y95.067 E.0241
G1 X129.25 Y94.422 E.0241
G1 X129.425 Y93.799 E.0241
G1 X129.719 Y93.222 E.0241
G1 X130.119 Y92.714 E.0241
G1 X130.611 Y92.293 E.0241
G1 X131.175 Y91.977 E.0241
G1 X131.79 Y91.776 E.0241
G1 X132.427 Y91.7 E.0239
G1 X132.843 Y91.732 E.01553
G1 X132.847 Y92.21 F24000
;TYPE:Outer wall
G1 F3000
G1 X133.031 Y92.226 E.00686
G1 X133.562 Y92.383 E.02063
G1 X134.052 Y92.641 E.02062
G1 X134.483 Y92.989 E.02062
G1 X134.837 Y93.414 E.02062
G1 X135.101 Y93.9 E.02062
G1 X135.266 Y94.429 E.02062
G1 X135.324 Y94.98 E.02062
G1 X135.274 Y95.531 E.02062
G1 X135.117 Y96.062 E.02062
G1 X134.859 Y96.552 E.02062
G1 X134.511 Y96.983 E.02062
G1 X134.086 Y97.337 E.02062
G1 X133.6 Y97.601 E.02062
G1 X133.071 Y97.766 E.02062
G1 X132.52 Y97.824 E.02062
G1 X131.969 Y97.774 E.02062
G1 X131.438 Y97.617 E.02062
G1 X130.948 Y97.359 E.02062
G1 X130.517 Y97.011 E.02062
G1 X130.163 Y96.586 E.02062
G1 X129.899 Y96.1 E.02062
G1 X129.734 Y95.571 E.02062
G1 X129.676 Y95.02 E.02062
G1 X129.726 Y94.469 E.02062
G1 X129.883 Y93.938 E.02062
G1 X130.141 Y93.448 E.02062
G1 X130.489 Y93.017 E.02062
G1 X130.914 Y92.663 E.02062
G1 X131.4 Y92.399 E.02062
G1 X131.929 Y92.234 E.02062
G1 X132.475 Y92.176 E.02043
G1 X132.807 Y92.206 E.01245
G1 E-.5 F1800
;WIPE_START
G1 F12000
G1 X133.031 Y92.226
G1 X133.562 Y92.383
G1 X134.052 Y92.641
G1 X134.483 Y92.989
G1 X134.556 Y93.077
;WIPE_END
G1 Z.4 F24000
G1 X131.543 Y121.857 Z.4
G1 Z.2
G1 E.5 F1800
;TYPE:Inner wall
G1 F3000
G1 X131.79 Y121.776 E.0097
G1 X132.427 Y121.7 E.0239
G1 X133.077 Y121.75 E.02426
G1 X133.701 Y121.925 E.02414
G1 X134.278 Y122.219 E.02411
G1 X134.786 Y122.619 E.0241
G1 X135.207 Y123.111 E.0241
G1 X135.523 Y123.675 E.0241
G1 X135.724 Y124.29 E.0241
G1 X135.8 Y124.933 E.0241
G1 X135.75 Y125.578 E.0241
G1 X135.575 Y126.201 E.0241
G1 X135.282 Y126.778 E.0241
G1 X134.881 Y127.286 E.0241
G1 X134.389 Y127.707 E.0241
G1 X133.825 Y128.023 E.0241
G1 X133.21 Y128.224 E.0241
G1 X132.567 Y128.3 E.0241
G1 X131.922 Y128.25 E.0241
G1 X131.299 Y128.075 E.0241
G1 X130.722 Y127.781 E.0241
G1 X130.214 Y127.381 E.0241
G1 X129.793 Y126.889 E.0241
G1 X129.477 Y126.325 E.0241
G1 X129.276 Y125.71 E.0241
G1 X129.2 Y125.067 E.0241
G1 X129.25 Y124.422 E.0241
G1 X129.425 Y123.799 E.0241
G1 X129.719 Y123.222 E.0241
G1 X130.119 Y122.714 E.0241
G1 X130.611 Y122.293 E.02411
G1 X131.175 Y121.977 E.0241
G1 X131.505 Y121.869 E.01291
G1 X131.691 Y122.308 F24000
;TYPE:Outer wall
G1 F3000
G1 X131.929 Y122.234 E.00931
G1 X132.475 Y122.176 E.02043
G1 X133.031 Y122.226 E.0208
G1 X133.562 Y122.383 E.02063
G1 X134.052 Y122.641 E.02062
G1 X134.483 Y122.989 E.02062
G1 X134.837 Y123.414 E.02062
G1 X135.101 Y123.9 E.02062
G1 X135.266 Y124.429 E.02062
G1 X135.324 Y124.98 E.02062
G1 X135.274 Y125.531 E.02062
G1 X135.117 Y126.062 E.02062
G1 X134.859 Y126.552 E.02062
G1 X134.511 Y126.983 E.02062
G1 X134.086 Y127.337 E.02062
G1 X133.6 Y127.601 E.02062
G1 X133.071 Y127.766 E.02062
G1 X132.52 Y127.824 E.02062
G1 X131.969 Y127.774 E.02062
G1 X131.438 Y127.617 E.02062
G1 X130.948 Y127.359 E.02062
G1 X130.517 Y127.011 E.02062
G1 X130.163 Y126.586 E.02062
G1 X129.899 Y126.1 E.02062
G1 X129.734 Y125.571 E.02062
G1 X129.676 Y125.02 E.02062
G1 X129.726 Y124.469 E.02062
G1 X129.883 Y123.938 E.02062
G1 X130.141 Y123.448 E.02062
G1 X130.489 Y123.017 E.02062
G1 X130.914 Y122.663 E.02062
G1 X131.4 Y122.399 E.02062
G1 X131.652 Y122.32 E.00982
G1 E-.5 F1800
;WIPE_START
G1 F12000
G1 X131.929 Y122.234
G1 X132.475 Y122.176
G1 X133.031 Y122.226
G1 X133.562 Y122.383
G1 X133.606 Y122.406
;WIPE_END
G1 Z.4 F24000
G1 X86.543 Y121.857 Z.4
G1 Z.2
G1 E.5 F1800
;TYPE:Inner wall
G1 F3000
G1 X86.79 Y121.776 E.0097
G1 X87.427 Y121.7 E.02391
G1 X88.077 Y121.75 E.02426
G1 X88.701 Y121.925 E.02414
G1 X89.278 Y122.219 E.0241
G1 X89.786 Y122.619 E.0241
G1 X90.207 Y123.11 E.0241
G1 X90.523 Y123.675 E.02411
G1 X90.724 Y124.29 E.0241
G1 X90.8 Y124.933 E.0241
G1 X90.75 Y125.578 E.0241
G1 X90.575 Y126.201 E.0241
G1 X90.281 Y126.778 E.0241
G1 X89.881 Y127.286 E.0241
G1 X89.389 Y127.707 E.0241
G1 X88.825 Y128.023 E.0241
G1 X88.21 Y128.224 E.0241
G1 X87.567 Y128.3 E.0241
G1 X86.922 Y128.25 E.0241
G1 X86.428 Y128.114 E.01908
G1 X86.175 Y128.023 E.01002
G1 X85.722 Y127.781 E.01912
G1 X85.214 Y127.381 E.0241
G1 X84.793 Y126.889 E.0241
G1 X84.477 Y126.325 E.0241
G1 X84.276 Y125.71 E.0241
G1 X84.2 Y125.067 E.0241
G1 X84.25 Y124.422 E.0241
G1 X84.425 Y123.799 E.0241
G1 X84.719 Y123.222 E.0241
G1 X85.119 Y122.714 E.0241
G1 X85.611 Y122.293 E.0241
G1 X86.175 Y121.977 E.0241
G1 X86.505 Y121.869 E.01291
G1 X86.691 Y122.308 F24000
;TYPE:Outer wall
G1 F3000
G1 X86.929 Y122.234 E.0093
G1 X87.475 Y122.176 E.02043
G1 X88.031 Y122.226 E.0208
G1 X88.562 Y122.383 E.02063
G1 X89.052 Y122.641 E.02062
G1 X89.483 Y122.989 E.02062
G1 X89.837 Y123.414 E.02062
G1 X90.101 Y123.9 E.02063
G1 X90.266 Y124.429 E.02062
G1 X90.324 Y124.98 E.02062
G1 X90.274 Y125.531 E.02062
G1 X90.117 Y126.062 E.02062
G1 X89.859 Y126.552 E.02062
G1 X89.511 Y126.983 E.02062
G1 X89.086 Y127.337 E.02062
G1 X88.6 Y127.601 E.02062
G1 X88.071 Y127.766 E.02062
G1 X87.52 Y127.824 E.02062
G1 X86.969 Y127.774 E.02062
G1 X86.438 Y127.617 E.02062
G1 X85.948 Y127.359 E.02062
G1 X85.517 Y127.011 E.02062
G1 X85.163 Y126.586 E.02062
G1 X84.899 Y126.1 E.02062
G1 X84.734 Y125.571 E.02062
G1 X84.676 Y125.02 E.02062
G1 X84.726 Y124.469 E.02062
G1 X84.883 Y123.938 E.02062
G1 X85.141 Y123.448 E.02062
G1 X85.489 Y123.017 E.02062
G1 X85.914 Y122.663 E.02062
G1 X86.4 Y122.399 E.02062
G1 X86.652 Y122.32 E.00982
G1 E-.5 F1800
;WIPE_START
G1 F12000
G1 X86.929 Y122.234
G1 X87.475 Y122.176
G1 X88.031 Y122.226
G1 X88.562 Y122.383
G1 X88.606 Y122.406
;WIPE_END
G1 Z.4 F24000
G1 X87.882 Y91.735 Z.4
G1 Z.2
G1 E.5 F1800
;TYPE:Inner wall
G1 F3000
G1 X88.077 Y91.75 E.00727
G1 X88.701 Y91.925 E.02414
G1 X89.278 Y92.219 E.0241
G1 X89.786 Y92.619 E.0241
G1 X90.207 Y93.111 E.0241
G1 X90.523 Y93.675 E.0241
G1 X90.724 Y94.29 E.0241
G1 X90.8 Y94.933 E.0241
G1 X90.75 Y95.578 E.0241
G1 X90.575 Y96.201 E.0241
G1 X90.281 Y96.778 E.0241
G1 X89.881 Y97.286 E.0241
G1 X89.389 Y97.707 E.02411
G1 X88.825 Y98.023 E.0241
G1 X88.21 Y98.224 E.0241
G1 X87.567 Y98.3 E.0241
G1 X86.922 Y98.25 E.0241
G1 X86.299 Y98.075 E.0241
G1 X85.722 Y97.781 E.02411
G1 X85.214 Y97.381 E.0241
G1 X84.793 Y96.889 E.0241
G1 X84.477 Y96.325 E.0241
G1 X84.276 Y95.71 E.0241
G1 X84.2 Y95.067 E.0241
G1 X84.25 Y94.422 E.0241
G1 X84.425 Y93.799 E.0241
G1 X84.719 Y93.222 E.0241
G1 X85.119 Y92.714 E.0241
G1 X85.611 Y92.293 E.0241
G1 X86.175 Y91.977 E.0241
G1 X86.79 Y91.776 E.0241
G1 X87.427 Y91.7 E.0239
G1 X87.842 Y91.732 E.0155
G1 X87.847 Y92.21 F24000
;TYPE:Outer wall
G1 F3000
G1 X88.031 Y92.226 E.00689
G1 X88.562 Y92.383 E.02063
G1 X89.052 Y92.641 E.02062
G1 X89.483 Y92.989 E.02062
G1 X89.837 Y93.414 E.02062
G1 X90.101 Y93.9 E.02062
G1 X90.266 Y94.429 E.02062
G1 X90.324 Y94.98 E.02062
G1 X90.274 Y95.531 E.02062
G1 X90.117 Y96.062 E.02062
G1 X89.859 Y96.552 E.02062
G1 X89.511 Y96.983 E.02062
G1 X89.086 Y97.337 E.02062
G1 X88.6 Y97.601 E.02062
G1 X88.071 Y97.766 E.02062
G1 X87.52 Y97.824 E.02062
G1 X86.969 Y97.774 E.02062
G1 X86.438 Y97.617 E.02062
G1 X85.948 Y97.359 E.02062
G1 X85.517 Y97.011 E.02062
G1 X85.163 Y96.586 E.02062
G1 X84.899 Y96.1 E.02062
G1 X84.734 Y95.571 E.02062
G1 X84.676 Y95.02 E.02062
G1 X84.726 Y94.469 E.02062
G1 X84.883 Y93.938 E.02062
G1 X85.141 Y93.448 E.02062
G1 X85.489 Y93.017 E.02062
G1 X85.914 Y92.663 E.02062
G1 X86.4 Y92.399 E.02062
G1 X86.929 Y92.234 E.02062
G1 X87.475 Y92.176 E.02043
G1 X87.807 Y92.206 E.01242
G1 E-.5 F1800
;WIPE_START
G1 F12000
G1 X88.031 Y92.226
G1 X88.562 Y92.383
G1 X89.052 Y92.641
G1 X89.483 Y92.989
G1 X89.556 Y93.076
;WIPE_END
G1 Z.4 F24000
G1 X39.829 Y106.712 Z.4
G1 Z.2
G1 E.5 F1800
;TYPE:Inner wall
G1 F3000
G1 X39.927 Y106.7 E.00368
G1 X40.577 Y106.75 E.02426
G1 X41.201 Y106.925 E.02414
G1 X41.778 Y107.219 E.0241
G1 X42.286 Y107.619 E.0241
G1 X42.707 Y108.111 E.0241
G1 X43.023 Y108.675 E.0241
G1 X43.224 Y109.29 E.0241
G1 X43.3 Y109.933 E.0241
G1 X43.25 Y110.578 E.0241
G1 X43.075 Y111.201 E.0241
G1 X42.781 Y111.778 E.0241
G1 X42.381 Y112.286 E.0241
G1 X41.889 Y112.707 E.0241
G1 X41.325 Y113.023 E.0241
G1 X40.71 Y113.224 E.0241
G1 X40.067 Y113.3 E.0241
G1 X39.422 Y113.25 E.0241
G1 X38.799 Y113.075 E.0241
G1 X38.222 Y112.781 E.0241
G1 X37.714 Y112.381 E.0241
G1 X37.293 Y111.889 E.0241
G1 X36.977 Y111.325 E.0241
G1 X36.776 Y110.71 E.0241
G1 X36.7 Y110.067 E.0241
G1 X36.75 Y109.422 E.0241
G1 X36.925 Y108.799 E.0241
G1 X37.219 Y108.222 E.0241
G1 X37.619 Y107.714 E.0241
G1 X37.999 Y107.384 E.01875
G1 X38.222 Y107.219 E.01035
G1 X38.675 Y106.977 E.01912
G1 X39.29 Y106.776 E.0241
G1 X39.79 Y106.716 E.01873
G1 X39.887 Y107.185 F24000
;TYPE:Outer wall
G1 F3000
G1 X39.975 Y107.176 E.00328
G1 X40.531 Y107.226 E.0208
G1 X41.062 Y107.383 E.02063
G1 X41.552 Y107.641 E.02062
G1 X41.983 Y107.989 E.02062
G1 X42.337 Y108.414 E.02062
G1 X42.601 Y108.9 E.02062
G1 X42.766 Y109.429 E.02062
G1 X42.824 Y109.98 E.02062
G1 X42.774 Y110.531 E.02062
G1 X42.617 Y111.062 E.02062
G1 X42.359 Y111.552 E.02062
G1 X42.011 Y111.983 E.02062
G1 X41.586 Y112.337 E.02062
G1 X41.1 Y112.601 E.02062
G1 X40.571 Y112.766 E.02062
G1 X40.02 Y112.824 E.02062
G1 X39.469 Y112.774 E.02062
G1 X38.938 Y112.617 E.02062
G1 X38.448 Y112.359 E.02062
G1 X38.017 Y112.011 E.02062
G1 X37.663 Y111.586 E.02062
G1 X37.399 Y111.1 E.02062
G1 X37.234 Y110.571 E.02062
G1 X37.176 Y110.02 E.02062
G1 X37.226 Y109.469 E.02062
G1 X37.383 Y108.938 E.02062
G1 X37.641 Y108.448 E.02062
G1 X37.989 Y108.017 E.02062
G1 X38.414 Y107.663 E.02062
G1 X38.9 Y107.399 E.02062
G1 X39.429 Y107.234 E.02062
G1 X39.847 Y107.19 E.01566
G1 E-.5 F1800
;WIPE_START
G1 F12000
G1 X39.975 Y107.176
G1 X40.531 Y107.226
G1 X41.062 Y107.383
G1 X41.552 Y107.641
G1 X41.712 Y107.77
;WIPE_END
G1 Z.4 F24000
G1 X189.084 Y101.631 Z.4
G1 Z.2
G1 E.5 F1800
;TYPE:Bottom surface
;WIDTH:0.500986
G1 F6300
G1 X188.097 Y100.643 E.05213
G1 X187.206 Y100.4 E.03446
G1 X188.879 Y102.073 E.0883
G1 X188.879 Y102.721 E.02418
G1 X186.315 Y100.157 E.13532
G1 X185.425 Y99.914 E.03446
G1 X188.879 Y103.369 E.18234
G1 X188.879 Y104.016 E.02418
G1 X184.534 Y99.672 E.22935
G1 X183.643 Y99.429 E.03446
G1 X188.879 Y104.664 E.27637
G1 X188.879 Y105.312 E.02418
G1 X182.752 Y99.186 E.32339
G1 X181.862 Y98.943 E.03446
G1 X188.879 Y105.96 E.37041
G1 X188.879 Y106.608 E.02418
G1 X180.971 Y98.7 E.41743
G1 X180.08 Y98.457 E.03446
G1 X188.879 Y107.255 E.46445
G1 X188.879 Y107.903 E.02418
G1 X179.189 Y98.214 E.51147
G1 X178.299 Y97.971 E.03446
G1 X188.879 Y108.551 E.55849
G1 X188.879 Y109.199 E.02418
G1 X177.408 Y97.728 E.60551
