;FLAVOR:Marlin
;TIME:22354
;Filament used: 8.71976m
;Layer height: 0.1
;MINX:76.8
;MINY:66.922
;MINZ:0.3
;MAXX:143.2
;MAXY:153.078
;MAXZ:40
;Generated with Cura_SteamEngine 4.13.1
M140 S60
M105
M190 S60
M104 S195
M105
M109 S195
M82 ;absolute extrusion mode
G28 ;Home
G1 Z15.0 F2000 ;Move the platform
G92 E0
G92 E0
G1 F2700 E-6.5
;LAYER_COUNT:398
;LAYER:0
M107
M204 S1000
G0 F7500 X78.513 Y68.861 Z0.3
;TYPE:SKIRT
G1 F2700 E0
G1 F1500 X78.705 Y68.656 E0.01401
G1 X79.033 Y68.371 E0.03569
G1 X79.482 Y68.03 E0.06382
G1 X79.614 Y67.934 E0.07196
G1 X80.09 Y67.657 E0.09944
G1 X80.659 Y67.389 E0.13082
G1 X81.307 Y67.165 E0.16502
G1 X81.917 Y67.025 E0.19625
G1 X82.566 Y66.945 E0.22887
G1 X83.678 Y66.922 E0.28436
G1 X134.652 Y66.922 E2.82746
G1 X135.297 Y66.931 E2.85965
G1 X135.858 Y66.989 E2.88778
G1 X136.475 Y67.108 E2.91913
G1 X137.108 Y67.3 E2.95214
G1 X137.682 Y67.541 E2.98319
G1 X138.282 Y67.872 E3.01738
G1 X138.799 Y68.235 E3.0489
G1 X139.292 Y68.663 E3.08147
G1 X139.681 Y69.077 E3.10981
G1 X139.795 Y69.204 E3.11832
G1 X140.12 Y69.65 E3.14586
G1 X140.433 Y70.167 E3.17601
G1 X140.718 Y70.772 E3.20937
G1 X140.936 Y71.398 E3.24244
G1 X141.09 Y72.058 E3.27626
G1 X141.155 Y72.585 E3.30275
G1 X141.174 Y72.798 E3.31342
G1 X141.192 Y73.119 E3.32946
G1 X141.197 Y73.269 E3.33694
G1 X141.2 Y73.598 E3.35336
G1 X141.2 Y94.502 E4.39626
G1 X141.24 Y97.299 E4.53582
G1 X141.355 Y100.016 E4.67149
G1 X141.548 Y102.742 E4.80783
G1 X141.818 Y105.468 E4.9445
G1 X142.166 Y108.191 E5.08146
G1 X142.595 Y110.921 E5.21933
G1 X142.882 Y112.516 E5.30018
G1 X142.989 Y113.082 E5.32892
G1 X143.021 Y113.283 E5.33907
G1 X143.142 Y114.261 E5.38824
G1 X143.177 Y114.641 E5.40728
G1 X143.196 Y115.06 E5.4282
G1 X143.2 Y115.347 E5.44252
G1 X143.2 Y144.245 E6.88425
G1 X143.19 Y144.942 E6.91903
G1 X143.182 Y145.126 E6.92821
G1 X143.158 Y145.442 E6.94403
G1 X143.137 Y145.658 E6.95485
G1 X143.067 Y146.256 E6.98489
G1 X142.951 Y146.815 E7.01337
G1 X142.719 Y147.578 E7.05316
G1 X142.609 Y147.905 E7.07037
G1 X142.382 Y148.421 E7.0985
G1 X142.008 Y149.1 E7.13717
G1 X141.811 Y149.433 E7.15647
G1 X141.484 Y149.885 E7.18431
G1 X140.918 Y150.538 E7.22742
G1 X140.729 Y150.743 E7.24133
G1 X140.305 Y151.128 E7.2699
G1 X139.684 Y151.597 E7.30873
G1 X139.377 Y151.815 E7.32751
G1 X138.893 Y152.095 E7.35541
G1 X138.097 Y152.466 E7.39922
G1 X137.863 Y152.567 E7.41194
G1 X137.32 Y152.746 E7.44046
G1 X136.445 Y152.948 E7.48527
G1 X136.205 Y152.996 E7.49748
G1 X135.639 Y153.057 E7.52588
G1 X134.552 Y153.078 E7.58012
G1 X85.135 Y153.077 E10.04554
G1 X84.487 Y153.068 E10.07788
G1 X83.928 Y153.011 E10.10591
G1 X83.177 Y152.867 E10.14406
G1 X82.787 Y152.779 E10.164
G1 X82.263 Y152.609 E10.19149
G1 X81.484 Y152.279 E10.2337
G1 X81.213 Y152.155 E10.24856
G1 X80.707 Y151.866 E10.27764
G1 X80.102 Y151.442 E10.31449
G1 X79.787 Y151.207 E10.3341
G1 X79.374 Y150.837 E10.36177
G1 X78.838 Y150.266 E10.40084
G1 X78.583 Y149.976 E10.4201
G1 X78.259 Y149.533 E10.44749
G1 X77.859 Y148.872 E10.48603
G1 X77.677 Y148.55 E10.50448
G1 X77.447 Y148.037 E10.53253
G1 X77.161 Y147.208 E10.57628
G1 X77.08 Y146.949 E10.58982
G1 X76.958 Y146.387 E10.61851
G1 X76.864 Y145.627 E10.65672
G1 X76.822 Y145.183 E10.67897
G1 X76.804 Y144.808 E10.6977
G1 X76.8 Y144.485 E10.71382
G1 X76.8 Y115.568 E12.15649
G1 X76.81 Y114.862 E12.19172
G1 X76.86 Y113.655 E12.25199
G1 X76.901 Y112.927 E12.28836
G1 X76.978 Y110.179 E12.42551
G1 X76.976 Y107.46 E12.56117
G1 X76.896 Y104.667 E12.70057
G1 X76.819 Y103.221 E12.77281
G1 X76.803 Y102.742 E12.79672
G1 X76.8 Y102.413 E12.81314
G1 X76.8 Y73.766 E14.24234
G1 X76.81 Y73.065 E14.27732
G1 X76.833 Y72.673 E14.29691
G1 X76.847 Y72.529 E14.30413
G1 X76.89 Y72.162 E14.32256
G1 X77.008 Y71.599 E14.35126
G1 X77.184 Y71.023 E14.38131
G1 X77.443 Y70.411 E14.41446
G1 X77.756 Y69.844 E14.44677
G1 X78.133 Y69.302 E14.47971
G1 X78.513 Y68.861 E14.50875
G1 F2700 E8.00875
;MESH:SchachtelDeckel.stl
G0 F7500 X79.336 Y102.941
G0 X79.412 Y103.667
G0 X79.649 Y104.397
G0 X80.033 Y105.062
G0 X84.301 Y109.291
G0 X84.527 Y110.353
G0 X135.447 Y110.705
G0 X136.305 Y110.887
G0 X137.112 Y111.247
G0 X137.829 Y111.771
G0 X138.421 Y112.428
G0 X138.86 Y113.186
G0 X139.132 Y114.025
G0 X139.229 Y114.966
G0 X139.229 Y144.862
G0 X139.132 Y145.786
G0 X138.86 Y146.625
G0 X138.422 Y147.383
G0 X137.821 Y148.048
G0 X137.246 Y148.465
G0 X135.459 Y149.278
;TYPE:WALL-INNER
G1 F2700 E14.50875
G1 F1500 X84.537 Y149.277 E17.04926
G1 X83.638 Y149.086 E17.09512
G1 X82.802 Y148.713 E17.14079
G1 X82.057 Y148.171 E17.18675
G1 X81.443 Y147.489 E17.23253
G1 X80.982 Y146.69 E17.27856
G1 X80.7 Y145.823 E17.32404
G1 X80.6 Y144.872 E17.37175
G1 X80.6 Y114.94 E18.86506
G1 X80.7 Y113.988 E18.91282
G1 X80.983 Y113.117 E18.95851
G1 X81.44 Y112.326 E19.00408
G1 X82.062 Y111.636 E19.05043
G1 X82.803 Y111.098 E19.09612
G1 X83.647 Y110.723 E19.14219
G1 X84.541 Y110.533 E19.18779
G1 X135.463 Y110.534 E21.7283
G1 X136.362 Y110.725 E21.77415
G1 X137.198 Y111.098 E21.81982
G1 X137.944 Y111.642 E21.86589
G1 X138.56 Y112.326 E21.91181
G1 X139.017 Y113.117 E21.95739
G1 X139.3 Y113.989 E22.00312
G1 X139.4 Y114.956 E22.05162
G1 X139.4 Y144.872 E23.54414
G1 X139.3 Y145.823 E23.59185
G1 X139.017 Y146.694 E23.63754
G1 X138.56 Y147.485 E23.68311
G1 X137.938 Y148.175 E23.72946
G1 X137.197 Y148.713 E23.77515
G1 X136.353 Y149.088 E23.82122
G1 X135.459 Y149.278 E23.86682
G0 F7500 X135.5 Y149.678
;TYPE:WALL-OUTER
G1 F1500 X84.496 Y149.677 E26.41142
G1 X83.513 Y149.468 E26.46156
G1 X82.599 Y149.06 E26.51149
G1 X81.789 Y148.471 E26.56146
G1 X81.116 Y147.724 E26.61162
G1 X80.616 Y146.857 E26.66155
G1 X80.306 Y145.904 E26.71155
G1 X80.2 Y144.895 E26.76217
G1 X80.2 Y114.917 E28.25778
G1 X80.306 Y113.907 E28.30844
G1 X80.616 Y112.954 E28.35844
G1 X81.116 Y112.088 E28.40833
G1 X81.794 Y111.336 E28.45884
G1 X82.602 Y110.749 E28.50867
G1 X83.52 Y110.341 E28.55879
G1 X84.5 Y110.133 E28.60877
G1 X135.504 Y110.134 E31.15337
G1 X136.487 Y110.343 E31.20351
G1 X137.401 Y110.751 E31.25345
G1 X138.213 Y111.343 E31.30358
G1 X138.884 Y112.088 E31.3536
G1 X139.384 Y112.954 E31.40349
G1 X139.694 Y113.907 E31.45349
G1 X139.8 Y114.934 E31.505
G1 X139.8 Y144.895 E32.99976
G1 X139.694 Y145.904 E33.05037
G1 X139.384 Y146.857 E33.10037
G1 X138.884 Y147.723 E33.15026
G1 X138.206 Y148.475 E33.20078
G1 X137.398 Y149.062 E33.2506
G1 X136.48 Y149.47 E33.30072
G1 X135.5 Y149.678 E33.3507
G0 F7500 X135.3 Y149.678
G0 X135.301 Y149.238
G0 X135.415 Y148.888
;TYPE:SKIN
G1 F1500 X84.581 Y148.887 E35.88682
G1 X83.754 Y148.711 E35.929
G1 X83.004 Y148.376 E35.96998
G1 X82.318 Y147.877 E36.01231
G1 X81.76 Y147.259 E36.05385
G1 X81.341 Y146.53 E36.0958
G1 X81.084 Y145.741 E36.13719
G1 X80.99 Y144.85 E36.18189
G1 X80.99 Y114.961 E37.67306
G1 X81.084 Y114.07 E37.71776
G1 X81.342 Y113.277 E37.75936
G1 X81.757 Y112.557 E37.80083
G1 X82.322 Y111.93 E37.84293
G1 X83.001 Y111.437 E37.8848
G1 X83.767 Y111.097 E37.92661
G1 X84.585 Y110.923 E37.96833
G1 X135.419 Y110.924 E40.50445
G1 X136.246 Y111.1 E40.54663
G1 X136.996 Y111.435 E40.58761
G1 X137.683 Y111.936 E40.63003
G1 X138.243 Y112.557 E40.67175
G1 X138.658 Y113.277 E40.71321
G1 X138.916 Y114.07 E40.75482
G1 X139.01 Y114.977 E40.80031
G1 X139.01 Y144.85 E42.29068
G1 X138.916 Y145.741 E42.33538
G1 X138.658 Y146.534 E42.37698
G1 X138.243 Y147.254 E42.41844
G1 X137.678 Y147.881 E42.46055
G1 X136.999 Y148.374 E42.50241
G1 X136.233 Y148.714 E42.54423
G1 X135.415 Y148.888 E42.58595
G1 F2700 E36.08595
G0 F7500 X135.414 Y149.167
G0 X136.298 Y148.926
G0 X137.111 Y148.564
G0 X137.821 Y148.048
G0 X138.422 Y147.383
G0 X138.86 Y146.625
G0 X139.132 Y145.786
G0 X139.229 Y144.862
G0 X139.229 Y114.966
G0 X139.132 Y114.025
G0 X138.86 Y113.186
G0 X138.505 Y112.573
G0 X137.604 Y111.533
G1 F2700 E42.58595
G0 F7500 X137.344 Y111.888
G1 F1500 X138.121 Y112.666 E42.64081
G0 F7500 X138.501 Y112.446
G0 X139.064 Y113.618
G0 X138.643 Y113.753
G1 F1500 X136.13 Y111.24 E42.81811
G0 F7500 X135.41 Y111.086
G1 F1500 X138.795 Y114.471 E43.05694
G0 F7500 X138.85 Y115.091
G1 F1500 X134.842 Y111.083 E43.33973
G0 F7500 X134.276 Y111.083
G1 F1500 X138.85 Y115.657 E43.66245
G0 F7500 X138.85 Y116.222
G1 F1500 X133.711 Y111.083 E44.02503
G0 F7500 X133.145 Y111.083
G1 F1500 X138.85 Y116.788 E44.42755
G0 F7500 X138.85 Y117.354
G1 F1500 X132.579 Y111.083 E44.87
G0 F7500 X132.014 Y111.083
G1 F1500 X138.85 Y117.919 E45.35232
G0 F7500 X138.85 Y118.485
G1 F1500 X131.448 Y111.083 E45.87457
G0 F7500 X130.882 Y111.083
G1 F1500 X138.85 Y119.051 E46.43676
G0 F7500 X138.85 Y119.617
G1 F1500 X130.316 Y111.083 E47.03888
G0 F7500 X129.751 Y111.083
G1 F1500 X138.85 Y120.182 E47.68086
G0 F7500 X138.85 Y120.748
G1 F1500 X129.185 Y111.083 E48.36278
G0 F7500 X128.619 Y111.083
G1 F1500 X138.85 Y121.314 E49.08463
G0 F7500 X138.85 Y121.879
G1 F1500 X128.054 Y111.083 E49.84635
G0 F7500 X127.488 Y111.083
G1 F1500 X138.85 Y122.445 E50.648
G0 F7500 X138.85 Y123.011
G1 F1500 X126.922 Y111.083 E51.48958
G0 F7500 X126.357 Y111.083
G1 F1500 X138.85 Y123.576 E52.37103
G0 F7500 X138.85 Y124.142
G1 F1500 X125.791 Y111.083 E53.29241
G0 F7500 X125.225 Y111.083
G1 F1500 X138.85 Y124.708 E54.25373
G0 F7500 X138.85 Y125.273
G1 F1500 X124.66 Y111.083 E55.25491
G0 F7500 X124.094 Y111.083
G1 F1500 X138.85 Y125.839 E56.29603
G0 F7500 X138.85 Y126.405
G1 F1500 X123.528 Y111.083 E57.37708
G0 F7500 X122.963 Y111.083
G1 F1500 X138.85 Y126.97 E58.49799
G0 F7500 X138.85 Y127.536
G1 F1500 X122.397 Y111.083 E59.65884
G0 F7500 X121.831 Y111.083
G1 F1500 X138.85 Y128.102 E60.85962
G0 F7500 X138.85 Y128.667
G1 F1500 X121.265 Y111.083 E62.1003
G0 F7500 X120.7 Y111.083
G1 F1500 X138.85 Y129.233 E63.38088
G0 F7500 X138.85 Y129.799
G1 F1500 X120.134 Y111.083 E64.7014
G0 F7500 X119.568 Y111.083
G1 F1500 X138.85 Y130.365 E66.06185
G0 F7500 X138.85 Y130.93
G1 F1500 X119.003 Y111.083 E67.46216
G0 F7500 X118.437 Y111.083
G1 F1500 X138.85 Y131.496 E68.90241
G0 F7500 X138.85 Y132.062
G1 F1500 X117.871 Y111.083 E70.38259
G0 F7500 X117.306 Y111.083
G1 F1500 X138.85 Y132.627 E71.90263
G0 F7500 X138.85 Y133.193
G1 F1500 X116.74 Y111.083 E73.46261
G0 F7500 X116.174 Y111.083
G1 F1500 X138.85 Y133.759 E75.06253
G0 F7500 X138.85 Y134.324
G1 F1500 X115.609 Y111.083 E76.70231
G0 F7500 X115.043 Y111.083
G1 F1500 X138.85 Y134.89 E78.38202
G0 F7500 X138.85 Y135.456
G1 F1500 X114.477 Y111.083 E80.10167
G0 F7500 X113.912 Y111.083
G1 F1500 X138.85 Y136.021 E81.86118
G0 F7500 X138.85 Y136.587
G1 F1500 X113.346 Y111.083 E83.66062
G0 F7500 X112.78 Y111.083
G1 F1500 X138.85 Y137.153 E85.5
G0 F7500 X138.85 Y137.718
G1 F1500 X112.215 Y111.083 E87.37924
G0 F7500 X111.649 Y111.083
G1 F1500 X138.85 Y138.284 E89.29842
G0 F7500 X138.85 Y138.85
G1 F1500 X111.083 Y111.083 E91.25753
G0 F7500 X110.517 Y111.083
G1 F1500 X138.85 Y139.416 E93.25658
G0 F7500 X138.85 Y139.981
G1 F1500 X109.951 Y111.082 E95.29556
G0 F7500 X109.385 Y111.082
G1 F1500 X138.85 Y140.547 E97.37448
G0 F7500 X138.85 Y141.113
G1 F1500 X108.82 Y111.082 E99.49329
G0 F7500 X108.254 Y111.082
G1 F1500 X138.85 Y141.678 E101.652
G0 F7500 X138.85 Y142.244
G1 F1500 X107.688 Y111.082 E103.85065
G0 F7500 X107.123 Y111.082
G1 F1500 X138.85 Y142.81 E106.0892
G0 F7500 X138.85 Y143.375
G1 F1500 X106.557 Y111.082 E108.36764
G0 F7500 X105.991 Y111.082
G1 F1500 X138.85 Y143.941 E110.68602
G0 F7500 X138.85 Y144.507
G1 F1500 X105.426 Y111.082 E113.0443
G0 F7500 X104.86 Y111.082
G1 F1500 X138.828 Y145.05 E115.44093
G0 F7500 X138.773 Y145.561
G1 F1500 X104.294 Y111.082 E117.87361
G0 F7500 X103.729 Y111.082
G1 F1500 X138.658 Y146.012 E120.33807
G0 F7500 X138.52 Y146.439
G1 F1500 X103.163 Y111.082 E122.8327
G0 F7500 X102.597 Y111.082
G1 F1500 X138.318 Y146.803 E125.35301
G0 F7500 X138.111 Y147.162
G1 F1500 X102.031 Y111.082 E127.89865
G0 F7500 X101.466 Y111.082
G1 F1500 X137.842 Y147.459 E130.46521
G0 F7500 X137.573 Y147.756
G1 F1500 X100.9 Y111.082 E133.05272
G0 F7500 X100.334 Y111.082
G1 F1500 X137.246 Y147.994 E135.65706
G0 F7500 X136.918 Y148.232
G1 F1500 X99.769 Y111.082 E138.27816
G0 F7500 X99.203 Y111.082
G1 F1500 X136.527 Y148.406 E140.91157
G0 F7500 X136.126 Y148.571
G1 F1500 X98.637 Y111.082 E143.55662
G0 F7500 X98.072 Y111.082
G1 F1500 X135.66 Y148.671 E146.20869
G0 F7500 X135.15 Y148.727
G1 F1500 X97.506 Y111.082 E148.86471
G0 F7500 X96.94 Y111.082
G1 F1500 X134.585 Y148.727 E151.52077
G0 F7500 X134.019 Y148.727
G1 F1500 X96.375 Y111.082 E154.17679
G0 F7500 X95.809 Y111.082
G1 F1500 X133.453 Y148.727 E156.83282
G0 F7500 X132.887 Y148.727
G1 F1500 X95.243 Y111.082 E159.48884
G0 F7500 X94.678 Y111.082
G1 F1500 X132.322 Y148.727 E162.14486
G0 F7500 X131.756 Y148.727
G1 F1500 X94.112 Y111.082 E164.80089
G0 F7500 X93.546 Y111.082
G1 F1500 X131.19 Y148.727 E167.45691
G0 F7500 X130.625 Y148.727
G1 F1500 X92.981 Y111.082 E170.11293
G0 F7500 X92.415 Y111.082
G1 F1500 X130.059 Y148.727 E172.76895
G0 F7500 X129.493 Y148.727
G1 F1500 X91.849 Y111.082 E175.42498
G0 F7500 X91.283 Y111.082
G1 F1500 X128.928 Y148.727 E178.08103
G0 F7500 X128.362 Y148.727
G1 F1500 X90.718 Y111.082 E180.73706
G0 F7500 X90.152 Y111.082
G1 F1500 X127.796 Y148.727 E183.39308
G0 F7500 X127.231 Y148.727
G1 F1500 X89.586 Y111.082 E186.04914
G0 F7500 X89.021 Y111.082
G1 F1500 X126.665 Y148.727 E188.70516
G0 F7500 X126.099 Y148.727
G1 F1500 X88.455 Y111.082 E191.36118
G0 F7500 X87.889 Y111.082
G1 F1500 X125.534 Y148.727 E194.01724
G0 F7500 X124.968 Y148.727
G1 F1500 X87.324 Y111.082 E196.67326
G0 F7500 X86.758 Y111.082
G1 F1500 X124.402 Y148.727 E199.32929
G0 F7500 X123.837 Y148.727
G1 F1500 X86.192 Y111.082 E201.98535
G0 F7500 X85.627 Y111.082
G1 F1500 X123.271 Y148.727 E204.64137
G0 F7500 X122.705 Y148.727
G1 F1500 X85.061 Y111.082 E207.29739
G0 F7500 X84.514 Y111.102
G1 F1500 X122.139 Y148.727 E209.95204
G0 F7500 X121.574 Y148.727
G1 F1500 X84.048 Y111.201 E212.5997
G0 F7500 X83.619 Y111.338
G1 F1500 X121.008 Y148.727 E215.2377
G0 F7500 X120.442 Y148.727
G1 F1500 X83.227 Y111.511 E217.86345
G0 F7500 X82.876 Y111.726
G1 F1500 X119.877 Y148.727 E220.47407
G0 F7500 X119.311 Y148.727
G1 F1500 X82.548 Y111.963 E223.06793
G0 F7500 X82.257 Y112.239
G1 F1500 X118.745 Y148.727 E225.64236
G0 F7500 X118.18 Y148.727
G1 F1500 X81.989 Y112.536 E228.19583
G0 F7500 X81.759 Y112.871
G1 F1500 X117.614 Y148.727 E230.72563
G0 F7500 X117.048 Y148.727
G1 F1500 X81.552 Y113.231 E233.23006
G0 F7500 X81.392 Y113.637
G1 F1500 X116.483 Y148.727 E235.70589
G0 F7500 X115.917 Y148.727
G1 F1500 X81.253 Y114.063 E238.15162
G0 F7500 X81.192 Y114.567
G1 F1500 X115.351 Y148.727 E240.56176
G0 F7500 X114.786 Y148.727
G1 F1500 X81.149 Y115.09 E242.93503
G0 F7500 X81.149 Y115.656
G1 F1500 X114.22 Y148.727 E245.26837
G0 F7500 X113.654 Y148.727
G1 F1500 X81.149 Y116.222 E247.56177
G0 F7500 X81.149 Y116.787
G1 F1500 X113.089 Y148.727 E249.81531
G0 F7500 X112.523 Y148.727
G1 F1500 X81.149 Y117.353 E252.02892
G0 F7500 X81.149 Y117.919
G1 F1500 X111.957 Y148.727 E254.20259
G0 F7500 X111.391 Y148.727
G1 F1500 X81.149 Y118.484 E256.33636
G0 F7500 X81.149 Y119.05
G1 F1500 X110.826 Y148.727 E258.43023
G0 F7500 X110.26 Y148.727
G1 F1500 X81.149 Y119.616 E260.48417
G0 F7500 X81.149 Y120.181
G1 F1500 X109.694 Y148.726 E262.49817
G0 F7500 X109.128 Y148.726
G1 F1500 X81.149 Y120.747 E264.47224
G0 F7500 X81.149 Y121.313
G1 F1500 X108.562 Y148.726 E266.40638
G0 F7500 X107.997 Y148.726
G1 F1500 X81.149 Y121.879 E268.30061
G0 F7500 X81.149 Y122.444
G1 F1500 X107.431 Y148.726 E270.15495
G0 F7500 X106.865 Y148.726
G1 F1500 X81.149 Y123.01 E271.96935
G0 F7500 X81.149 Y123.576
G1 F1500 X106.3 Y148.726 E273.74386
G0 F7500 X105.734 Y148.726
G1 F1500 X81.149 Y124.141 E275.47846
G0 F7500 X81.149 Y124.707
G1 F1500 X105.168 Y148.726 E277.17313
G0 F7500 X104.603 Y148.726
G1 F1500 X81.149 Y125.273 E278.8279
G0 F7500 X81.149 Y125.838
G1 F1500 X104.037 Y148.726 E280.44278
G0 F7500 X103.471 Y148.726
G1 F1500 X81.149 Y126.404 E282.01771
G0 F7500 X81.149 Y126.97
G1 F1500 X102.905 Y148.726 E283.55272
G0 F7500 X102.34 Y148.726
G1 F1500 X81.149 Y127.535 E285.04786
G0 F7500 X81.149 Y128.101
G1 F1500 X101.774 Y148.726 E286.50306
G0 F7500 X101.208 Y148.726
G1 F1500 X81.149 Y128.667 E287.91833
G0 F7500 X81.149 Y129.232
