;FLAVOR:Marlin
;TIME:13264
;Filament used: 10.0345m
;Layer height: 0.2
;MINX:73
;MINY:63.122
;MINZ:0.3
;MAXX:147
;MAXY:156.878
;MAXZ:40.1
;Generated with Cura_SteamEngine 4.13.1
M140 S60
M105
M190 S60
M104 S195
M105
M109 S195
M82 ;absolute extrusion mode
G28 ;Home
G1 Z15.0 F2000 ;Move the platform
G92 E0
G92 E0
G1 F2700 E-6.5
;LAYER_COUNT:200
;LAYER:0
M107
M204 S1000
G0 F7500 X75.372 Y66.657 Z0.3
;TYPE:SKIRT
G1 F2700 E0
G1 F1500 X75.792 Y66.191 E0.0313
G1 X76.322 Y65.662 E0.06866
G1 X76.874 Y65.216 E0.10406
G1 X77.384 Y64.845 E0.13553
G1 X78.012 Y64.438 E0.17286
G1 X78.658 Y64.11 E0.20901
G1 X79.227 Y63.857 E0.24007
G1 X79.926 Y63.59 E0.27741
G1 X80.617 Y63.406 E0.31308
G1 X81.234 Y63.275 E0.34455
G1 X81.973 Y63.159 E0.38187
G1 X82.688 Y63.122 E0.41759
G1 X135.312 Y63.122 E3.04301
G1 X136.059 Y63.162 E3.08033
G1 X136.766 Y63.275 E3.11605
G1 X137.383 Y63.406 E3.14752
G1 X138.105 Y63.6 E3.18482
G1 X138.773 Y63.857 E3.22053
G1 X139.342 Y64.11 E3.25159
G1 X140.008 Y64.45 E3.2889
G1 X140.616 Y64.845 E3.32507
G1 X141.126 Y65.216 E3.35654
G1 X141.706 Y65.688 E3.39384
G1 X142.208 Y66.191 E3.4293
G1 X142.628 Y66.657 E3.4606
G1 X143.098 Y67.238 E3.49788
G1 X143.489 Y67.841 E3.53373
G1 X143.801 Y68.381 E3.56485
G1 X144.14 Y69.048 E3.60218
G1 X144.397 Y69.72 E3.63807
G1 X144.591 Y70.317 E3.66939
G1 X144.784 Y71.039 E3.70667
G1 X144.895 Y71.744 E3.74228
G1 X144.961 Y72.368 E3.77359
G1 X145 Y73.104 E3.81036
G1 X145 Y102.905 E5.29713
G1 X144.961 Y103.64 E5.33385
G1 X144.895 Y104.265 E5.36521
G1 X144.777 Y105.004 E5.40255
G1 X144.591 Y105.693 E5.43815
G1 X144.397 Y106.29 E5.46947
G1 X144.128 Y106.988 E5.50679
G1 X144.075 Y107.092 E5.51261
G1 X144.248 Y107.284 E5.52551
G1 X144.718 Y107.866 E5.56283
G1 X145.108 Y108.467 E5.59857
G1 X145.629 Y109.369 E5.65054
G1 X145.968 Y110.036 E5.68787
G1 X146.222 Y110.701 E5.72338
G1 X146.546 Y111.695 E5.77554
G1 X146.74 Y112.417 E5.81284
G1 X146.854 Y113.147 E5.8497
G1 X146.963 Y114.206 E5.90281
G1 X147 Y114.923 E5.93863
G1 X147 Y144.905 E7.43444
G1 X146.962 Y145.634 E7.47086
G1 X146.853 Y146.675 E7.52308
G1 X146.735 Y147.414 E7.56042
G1 X146.546 Y148.115 E7.59664
G1 X146.222 Y149.109 E7.6488
G1 X145.953 Y149.807 E7.68612
G1 X145.63 Y150.438 E7.72148
G1 X145.109 Y151.341 E7.77349
G1 X144.701 Y151.968 E7.81081
G1 X144.246 Y152.529 E7.84685
G1 X143.544 Y153.308 E7.89917
G1 X143.014 Y153.836 E7.93649
G1 X142.454 Y154.289 E7.97243
G1 X141.606 Y154.904 E8.02469
G1 X140.977 Y155.31 E8.06204
G1 X140.341 Y155.633 E8.09763
G1 X139.388 Y156.057 E8.14966
G1 X138.69 Y156.324 E8.18695
G1 X137.997 Y156.508 E8.22272
G1 X136.975 Y156.725 E8.27484
G1 X136.236 Y156.841 E8.31217
G1 X135.521 Y156.878 E8.34788
G1 X84.475 Y156.877 E10.89458
G1 X83.728 Y156.837 E10.9319
G1 X83.019 Y156.724 E10.96772
G1 X81.994 Y156.506 E11.02
G1 X81.271 Y156.311 E11.05736
G1 X80.596 Y156.051 E11.09345
G1 X79.644 Y155.626 E11.14546
G1 X78.979 Y155.285 E11.18275
G1 X78.383 Y154.897 E11.21823
G1 X77.538 Y154.283 E11.27034
G1 X76.957 Y153.811 E11.30768
G1 X76.449 Y153.302 E11.34356
G1 X75.75 Y152.525 E11.3957
G1 X75.28 Y151.943 E11.43303
G1 X74.891 Y151.341 E11.46878
G1 X74.37 Y150.438 E11.5208
G1 X74.031 Y149.771 E11.55812
G1 X73.778 Y149.109 E11.59348
G1 X73.454 Y148.115 E11.64564
G1 X73.26 Y147.393 E11.68294
G1 X73.147 Y146.676 E11.71915
G1 X73.038 Y145.637 E11.77127
G1 X73 Y144.907 E11.80774
G1 X73 Y114.907 E13.30445
G1 X73.038 Y114.179 E13.34082
G1 X73.147 Y113.136 E13.39313
G1 X73.264 Y112.398 E13.43041
G1 X73.454 Y111.695 E13.46674
G1 X73.778 Y110.701 E13.5189
G1 X74.047 Y110.003 E13.55622
G1 X74.371 Y109.369 E13.59175
G1 X74.803 Y108.621 E13.63484
G1 X74.508 Y108.165 E13.66194
G1 X74.196 Y107.624 E13.69309
G1 X73.858 Y106.957 E13.7304
G1 X73.603 Y106.29 E13.76602
G1 X73.409 Y105.693 E13.79734
G1 X73.216 Y104.971 E13.83463
G1 X73.105 Y104.267 E13.87018
G1 X73.039 Y103.644 E13.90144
G1 X73 Y102.907 E13.93826
G1 X73 Y73.106 E15.42504
G1 X73.039 Y72.372 E15.46171
G1 X73.105 Y71.746 E15.49311
G1 X73.223 Y71.007 E15.53045
G1 X73.409 Y70.317 E15.5661
G1 X73.603 Y69.72 E15.59742
G1 X73.872 Y69.022 E15.63474
G1 X74.199 Y68.381 E15.67064
G1 X74.511 Y67.841 E15.70175
G1 X74.919 Y67.214 E15.73907
G1 X75.372 Y66.657 E15.77489
G0 F7500 X75.669 Y66.924
G1 F1500 X76.089 Y66.458 E15.80619
G1 X76.605 Y65.946 E15.84246
G1 X77.109 Y65.54 E15.87475
G1 X77.619 Y65.169 E15.90621
G1 X78.229 Y64.774 E15.94247
G1 X78.821 Y64.475 E15.97555
G1 X79.39 Y64.222 E16.00662
G1 X80.068 Y63.964 E16.04281
G1 X80.7 Y63.797 E16.07543
G1 X81.317 Y63.666 E16.10689
G1 X82.035 Y63.554 E16.14315
G1 X82.688 Y63.522 E16.17577
G1 X135.312 Y63.522 E18.80119
G1 X136.037 Y63.562 E18.83741
G1 X136.683 Y63.666 E18.87006
G1 X137.3 Y63.797 E18.90153
G1 X138.001 Y63.987 E18.93776
G1 X138.61 Y64.222 E18.97033
G1 X139.179 Y64.475 E19.0014
G1 X139.826 Y64.806 E19.03765
G1 X140.381 Y65.169 E19.07074
G1 X140.891 Y65.54 E19.1022
G1 X141.454 Y65.999 E19.13844
G1 X141.911 Y66.458 E19.17076
G1 X142.331 Y66.924 E19.20206
G1 X142.786 Y67.49 E19.23829
G1 X143.143 Y68.041 E19.27104
G1 X143.455 Y68.581 E19.30216
G1 X143.783 Y69.229 E19.33839
G1 X144.017 Y69.843 E19.37117
G1 X144.211 Y70.44 E19.40249
G1 X144.397 Y71.142 E19.43872
G1 X144.497 Y71.786 E19.47124
G1 X144.563 Y72.41 E19.50254
G1 X144.6 Y73.104 E19.53721
G1 X144.6 Y102.905 E21.02399
G1 X144.564 Y103.598 E21.05861
G1 X144.498 Y104.223 E21.08997
G1 X144.382 Y104.94 E21.1262
G1 X144.211 Y105.57 E21.15877
G1 X144.017 Y106.167 E21.19009
G1 X143.755 Y106.844 E21.22631
G1 X143.595 Y107.156 E21.2438
G1 X143.95 Y107.551 E21.27029
G1 X144.406 Y108.117 E21.30656
G1 X144.761 Y108.667 E21.33922
G1 X145.282 Y109.569 E21.39118
G1 X145.61 Y110.217 E21.42742
G1 X145.842 Y110.825 E21.45988
G1 X146.166 Y111.819 E21.51204
G1 X146.353 Y112.521 E21.54829
G1 X146.456 Y113.188 E21.58196
G1 X146.565 Y114.247 E21.63507
G1 X146.6 Y114.923 E21.66884
G1 X146.6 Y144.905 E23.16465
G1 X146.564 Y145.592 E23.19897
G1 X146.455 Y146.633 E23.25119
G1 X146.34 Y147.35 E23.28742
G1 X146.166 Y147.991 E23.32056
G1 X145.842 Y148.985 E23.37272
G1 X145.579 Y149.663 E23.409
G1 X145.284 Y150.238 E23.44124
G1 X144.763 Y151.141 E23.49325
G1 X144.366 Y151.75 E23.52952
G1 X143.949 Y152.261 E23.56243
G1 X143.247 Y153.04 E23.61474
G1 X142.732 Y153.552 E23.65097
G1 X142.219 Y153.965 E23.68383
G1 X141.371 Y154.58 E23.73609
G1 X140.76 Y154.973 E23.77234
G1 X140.179 Y155.267 E23.80482
G1 X139.226 Y155.691 E23.85686
G1 X138.547 Y155.949 E23.8931
G1 X137.914 Y156.117 E23.92577
G1 X136.892 Y156.334 E23.9779
G1 X136.174 Y156.446 E24.01415
G1 X135.521 Y156.478 E24.04677
G1 X84.475 Y156.477 E26.59346
G1 X83.75 Y156.437 E26.62969
G1 X83.102 Y156.333 E26.66243
G1 X82.077 Y156.115 E26.71471
G1 X81.376 Y155.925 E26.75095
G1 X80.76 Y155.686 E26.78391
G1 X79.808 Y155.261 E26.83593
G1 X79.162 Y154.929 E26.87216
G1 X78.618 Y154.573 E26.9046
G1 X77.773 Y153.959 E26.95671
G1 X77.21 Y153.501 E26.99292
G1 X76.746 Y153.034 E27.02576
G1 X76.047 Y152.257 E27.0779
G1 X75.592 Y151.691 E27.11413
G1 X75.237 Y151.141 E27.14679
G1 X74.716 Y150.238 E27.1988
G1 X74.388 Y149.59 E27.23504
G1 X74.158 Y148.985 E27.26733
G1 X73.834 Y147.991 E27.31949
G1 X73.647 Y147.289 E27.35573
G1 X73.545 Y146.635 E27.38876
G1 X73.436 Y145.596 E27.44088
G1 X73.4 Y144.907 E27.4753
G1 X73.4 Y114.907 E28.972
G1 X73.436 Y114.221 E29.00628
G1 X73.545 Y113.178 E29.05859
G1 X73.66 Y112.461 E29.09482
G1 X73.834 Y111.819 E29.12801
G1 X74.158 Y110.825 E29.18017
G1 X74.421 Y110.147 E29.21645
G1 X74.718 Y109.569 E29.24887
G1 X75.239 Y108.667 E29.30084
G1 X75.28 Y108.604 E29.30459
G1 X75.214 Y108.521 E29.30988
G1 X74.855 Y107.965 E29.3429
G1 X74.543 Y107.424 E29.37405
G1 X74.215 Y106.776 E29.41029
G1 X73.983 Y106.167 E29.4428
G1 X73.789 Y105.57 E29.47412
G1 X73.603 Y104.868 E29.51035
G1 X73.503 Y104.225 E29.54282
G1 X73.437 Y103.602 E29.57407
G1 X73.4 Y102.907 E29.60879
G1 X73.4 Y73.106 E31.09557
G1 X73.436 Y72.414 E31.13014
G1 X73.502 Y71.788 E31.16155
G1 X73.618 Y71.071 E31.19778
G1 X73.789 Y70.44 E31.2304
G1 X73.983 Y69.843 E31.26172
G1 X74.245 Y69.166 E31.29793
G1 X74.545 Y68.581 E31.33073
G1 X74.857 Y68.041 E31.36185
G1 X75.255 Y67.433 E31.3981
G1 X75.669 Y66.924 E31.43084
G0 F7500 X75.967 Y67.192
G1 F1500 X76.387 Y66.726 E31.46213
G1 X76.887 Y66.231 E31.49724
G1 X77.345 Y65.863 E31.52655
G1 X77.855 Y65.492 E31.55801
G1 X78.447 Y65.111 E31.59313
G1 X78.983 Y64.841 E31.62308
G1 X79.552 Y64.588 E31.65414
G1 X80.21 Y64.339 E31.68924
G1 X80.783 Y64.188 E31.71881
G1 X81.4 Y64.057 E31.75027
G1 X82.096 Y63.95 E31.78541
G1 X82.688 Y63.922 E31.81497
G1 X135.312 Y63.922 E34.4404
G1 X136.015 Y63.962 E34.47553
G1 X136.6 Y64.057 E34.50509
G1 X137.217 Y64.188 E34.53656
G1 X137.896 Y64.373 E34.57167
G1 X138.448 Y64.588 E34.60123
G1 X139.017 Y64.841 E34.63229
G1 X139.643 Y65.163 E34.66742
G1 X140.145 Y65.492 E34.69736
G1 X140.655 Y65.863 E34.72882
G1 X141.2 Y66.309 E34.76396
G1 X141.613 Y66.726 E34.79324
G1 X142.033 Y67.192 E34.82454
G1 X142.474 Y67.741 E34.85967
G1 X142.796 Y68.241 E34.88934
G1 X143.108 Y68.781 E34.92045
G1 X143.425 Y69.41 E34.95559
G1 X143.636 Y69.967 E34.98531
G1 X143.83 Y70.564 E35.01663
G1 X144.01 Y71.245 E35.05177
G1 X144.1 Y71.828 E35.0812
G1 X144.166 Y72.452 E35.11251
G1 X144.2 Y73.104 E35.14508
G1 X144.2 Y102.905 E36.63186
G1 X144.166 Y103.556 E36.66438
G1 X144.1 Y104.181 E36.69573
G1 X143.986 Y104.876 E36.73087
G1 X143.83 Y105.446 E36.76035
G1 X143.636 Y106.043 E36.79167
G1 X143.381 Y106.699 E36.82679
G1 X143.113 Y107.22 E36.85602
G1 X143.653 Y107.819 E36.89625
G1 X144.094 Y108.368 E36.93138
G1 X144.415 Y108.867 E36.96098
G1 X144.936 Y109.769 E37.01295
G1 X145.253 Y110.398 E37.04809
G1 X145.462 Y110.949 E37.07749
G1 X145.786 Y111.943 E37.12965
G1 X145.966 Y112.623 E37.16475
G1 X146.058 Y113.229 E37.19533
G1 X146.167 Y114.288 E37.24844
G1 X146.2 Y114.923 E37.28016
G1 X146.2 Y144.905 E38.77597
G1 X146.166 Y145.551 E38.80824
G1 X146.057 Y146.592 E38.86046
G1 X145.944 Y147.287 E38.89559
G1 X145.786 Y147.867 E38.92558
G1 X145.462 Y148.861 E38.97774
G1 X145.206 Y149.517 E39.01287
G1 X144.937 Y150.038 E39.04213
G1 X144.416 Y150.941 E39.09414
G1 X144.03 Y151.53 E39.12927
G1 X143.652 Y151.994 E39.15913
G1 X142.95 Y152.773 E39.21145
G1 X142.45 Y153.268 E39.24655
G1 X141.984 Y153.641 E39.27633
G1 X141.136 Y154.256 E39.32859
G1 X140.544 Y154.636 E39.36369
G1 X140.016 Y154.902 E39.39318
G1 X139.063 Y155.326 E39.44522
G1 X138.405 Y155.575 E39.48032
G1 X137.831 Y155.726 E39.50993
G1 X136.809 Y155.943 E39.56206
G1 X136.113 Y156.05 E39.59719
G1 X135.521 Y156.078 E39.62676
G1 X84.475 Y156.077 E42.17345
G1 X83.772 Y156.037 E42.20858
G1 X83.185 Y155.941 E42.23825
G1 X82.16 Y155.723 E42.29054
G1 X81.481 Y155.538 E42.32565
G1 X80.923 Y155.32 E42.35553
G1 X79.971 Y154.895 E42.40755
G1 X79.345 Y154.572 E42.44269
G1 X78.853 Y154.25 E42.47203
G1 X78.008 Y153.636 E42.52414
G1 X77.463 Y153.19 E42.55927
G1 X77.044 Y152.767 E42.58898
G1 X76.345 Y151.99 E42.64112
G1 X75.904 Y151.44 E42.67629
G1 X75.584 Y150.941 E42.70586
G1 X75.063 Y150.038 E42.75788
G1 X74.746 Y149.41 E42.79297
G1 X74.538 Y148.861 E42.82226
G1 X74.214 Y147.867 E42.87442
G1 X74.034 Y147.187 E42.90951
G1 X73.943 Y146.593 E42.9395
G1 X73.834 Y145.554 E42.99162
G1 X73.8 Y144.907 E43.02394
G1 X73.8 Y114.907 E44.52065
G1 X73.834 Y114.263 E44.55282
G1 X73.943 Y113.22 E44.60514
G1 X74.055 Y112.525 E44.64026
G1 X74.214 Y111.943 E44.67036
G1 X74.538 Y110.949 E44.72252
G1 X74.794 Y110.293 E44.75765
G1 X75.064 Y109.769 E44.78706
G1 X75.585 Y108.867 E44.83903
G1 X75.774 Y108.579 E44.85621
G1 X75.526 Y108.27 E44.87598
G1 X75.201 Y107.765 E44.90594
G1 X74.889 Y107.224 E44.9371
G1 X74.573 Y106.596 E44.97217
G1 X74.364 Y106.043 E45.00167
G1 X74.17 Y105.446 E45.03298
G1 X73.99 Y104.765 E45.06813
G1 X73.901 Y104.183 E45.0975
G1 X73.835 Y103.56 E45.12876
G1 X73.8 Y102.907 E45.16138
G1 X73.8 Y73.106 E46.64816
G1 X73.834 Y72.456 E46.68063
G1 X73.9 Y71.83 E46.71204
G1 X74.014 Y71.135 E46.74717
G1 X74.17 Y70.564 E46.7767
G1 X74.364 Y69.967 E46.80802
G1 X74.619 Y69.311 E46.84314
G1 X74.892 Y68.781 E46.87288
G1 X75.204 Y68.241 E46.90399
G1 X75.59 Y67.653 E46.93908
G1 X75.967 Y67.192 E46.9688
G0 F7500 X76.264 Y67.46
G1 F1500 X76.684 Y66.994 E47.00009
G1 X77.168 Y66.516 E47.03403
G1 X77.58 Y66.187 E47.06034
G1 X78.09 Y65.816 E47.0918
G1 X78.663 Y65.448 E47.12578
G1 X79.146 Y65.206 E47.15273
G1 X79.715 Y64.953 E47.18379
G1 X80.352 Y64.714 E47.21774
G1 X80.866 Y64.579 E47.24425
G1 X81.483 Y64.448 E47.27572
G1 X82.157 Y64.346 E47.30973
G1 X82.688 Y64.322 E47.33625
G1 X135.312 Y64.322 E49.96167
G1 X135.992 Y64.362 E49.99565
G1 X136.517 Y64.448 E50.02219
G1 X137.134 Y64.579 E50.05366
G1 X137.79 Y64.76 E50.08761
G1 X138.285 Y64.953 E50.11412
G1 X138.854 Y65.206 E50.14519
G1 X139.459 Y65.519 E50.17917
G1 X139.91 Y65.816 E50.20611
G1 X140.42 Y66.187 E50.23758
G1 X140.946 Y66.619 E50.27154
G1 X141.316 Y66.994 E50.29782
G1 X141.736 Y67.46 E50.32912
G1 X142.162 Y67.992 E50.36312
G1 X142.45 Y68.441 E50.38973
G1 X142.762 Y68.981 E50.42085
G1 X143.067 Y69.59 E50.45483
G1 X143.256 Y70.091 E50.48154
G1 X143.45 Y70.688 E50.51286
G1 X143.622 Y71.346 E50.54679
G1 X143.702 Y71.87 E50.57323
G1 X143.768 Y72.494 E50.60454
G1 X143.8 Y73.104 E50.63501
G1 X143.8 Y102.905 E52.12179
G1 X143.768 Y103.514 E52.15222
G1 X143.702 Y104.139 E52.18357
G1 X143.591 Y104.811 E52.21755
G1 X143.45 Y105.322 E52.244
G1 X143.256 Y105.919 E52.27532
G1 X143.008 Y106.554 E52.30933
G1 X142.764 Y107.025 E52.33579
G1 X142.62 Y107.274 E52.35014
G1 X142.659 Y107.313 E52.35289
G1 X143.356 Y108.087 E52.40486
G1 X143.781 Y108.619 E52.43883
G1 X144.068 Y109.067 E52.46537
G1 X144.589 Y109.969 E52.51734
G1 X144.895 Y110.578 E52.55134
G1 X145.081 Y111.073 E52.57773
G1 X145.405 Y112.067 E52.62988
G1 X145.578 Y112.725 E52.66383
G1 X145.661 Y113.27 E52.69133
G1 X145.77 Y114.329 E52.74444
G1 X145.8 Y114.923 E52.77412
G1 X145.8 Y144.905 E54.26992
G1 X145.768 Y145.509 E54.3001
G1 X145.659 Y146.55 E54.35232
G1 X145.549 Y147.222 E54.38629
G1 X145.405 Y147.743 E54.41326
G1 X145.081 Y148.737 E54.46542
G1 X144.833 Y149.371 E54.49938
G1 X144.591 Y149.839 E54.52567
G1 X144.07 Y150.742 E54.57768
G1 X143.695 Y151.31 E54.61164
G1 X143.355 Y151.726 E54.63844
G1 X142.653 Y152.505 E54.69076
G1 X142.168 Y152.983 E54.72473
G1 X141.749 Y153.317 E54.75146
G1 X140.901 Y153.932 E54.80373
G1 X140.327 Y154.299 E54.83772
G1 X139.854 Y154.536 E54.86411
G1 X138.901 Y154.96 E54.91615
G1 X138.263 Y155.2 E54.95016
G1 X137.748 Y155.335 E54.97672
G1 X136.726 Y155.552 E55.02884
G1 X136.052 Y155.654 E55.06285
G1 X135.521 Y155.678 E55.08937
G1 X84.475 Y155.677 E57.63607
G1 X83.795 Y155.637 E57.67005
G1 X83.268 Y155.55 E57.6967
G1 X82.243 Y155.332 E57.74898
G1 X81.587 Y155.152 E57.78292
G1 X81.086 Y154.955 E57.80977
G1 X80.134 Y154.53 E57.86179
G1 X79.529 Y154.217 E57.89577
G1 X79.089 Y153.926 E57.92209
G1 X78.244 Y153.312 E57.9742
G1 X77.717 Y152.88 E58.0082
G1 X77.341 Y152.499 E58.0349
G1 X76.642 Y151.722 E58.08705
G1 X76.217 Y151.19 E58.12102
G1 X75.93 Y150.742 E58.14756
G1 X75.409 Y149.839 E58.19957
G1 X75.104 Y149.23 E58.23355
G1 X74.919 Y148.737 E58.25982
G1 X74.595 Y147.743 E58.31198
G1 X74.422 Y147.085 E58.34593
G1 X74.341 Y146.551 E58.37287
G1 X74.232 Y145.512 E58.42499
G1 X74.2 Y144.907 E58.45522
G1 X74.2 Y114.907 E59.95192
G1 X74.231 Y114.304 E59.98205
G1 X74.34 Y113.261 E60.03437
G1 X74.451 Y112.589 E60.06835
G1 X74.595 Y112.067 E60.09536
G1 X74.919 Y111.073 E60.14752
G1 X75.167 Y110.439 E60.18149
G1 X75.411 Y109.969 E60.20791
G1 X75.932 Y109.067 E60.25987
G1 X76.268 Y108.556 E60.29039
G1 X75.838 Y108.019 E60.32471
G1 X75.548 Y107.566 E60.35154
G1 X75.236 Y107.025 E60.3827
G1 X74.931 Y106.416 E60.41668
G1 X74.744 Y105.919 E60.44317
G1 X74.55 Y105.322 E60.47449
G1 X74.378 Y104.664 E60.50842
G1 X74.298 Y104.141 E60.53482
G1 X74.232 Y103.518 E60.56607
G1 X74.2 Y102.907 E60.5966
G1 X74.2 Y73.106 E62.08338
G1 X74.232 Y72.498 E62.11375
G1 X74.298 Y71.872 E62.14515
G1 X74.409 Y71.2 E62.17914
G1 X74.55 Y70.688 E62.20563
G1 X74.744 Y70.091 E62.23695
G1 X74.992 Y69.456 E62.27096
G1 X75.238 Y68.981 E62.29765
G1 X75.55 Y68.441 E62.32876
G1 X75.925 Y67.873 E62.36272
G1 X76.264 Y67.46 E62.38937
