;FLAVOR:Marlin
;TIME:5370
;Filament used: 3.50279m
;Layer height: 0.2
;MINX:81.16
;MINY:81.158
;MINZ:0.3
;MAXX:138.84
;MAXY:138.84
;MAXZ:32.7
;Generated with Cura_SteamEngine 5.4.0
M140 S60
M105
M190 S60
M104 S195
M105
M109 S195
M82 ;absolute extrusion mode
G28 ;Home
G1 Z15.0 F2000 ;Move the platform
G92 E0
G92 E0
G1 F2700 E-6.5
;LAYER_COUNT:163
;LAYER:0
M107
M204 S1000
G0 F7500 X89.861 Y89.353 Z0.3
;TYPE:SKIRT
G1 F2700 E0
G1 F1500 X90.792 Y88.484 E0.06354
G1 X91.159 Y88.163 E0.08786
G1 X92.116 Y87.372 E0.14981
G1 X92.937 Y86.746 E0.20131
G1 X94.237 Y85.846 E0.2802
G1 X95.277 Y85.198 E0.34133
G1 X96.718 Y84.398 E0.42356
G1 X97.852 Y83.841 E0.48659
G1 X98.324 Y83.628 E0.51243
G1 X99.627 Y83.088 E0.58279
G1 X100.778 Y82.672 E0.64385
G1 X102.273 Y82.212 E0.72189
G1 X103.646 Y81.867 E0.79252
G1 X104.677 Y81.653 E0.84505
G1 X105.989 Y81.437 E0.91139
G1 X106.467 Y81.375 E0.93544
G1 X107.712 Y81.249 E0.99787
G1 X108.788 Y81.183 E1.05165
G1 X109.283 Y81.167 E1.07636
G1 X110.197 Y81.158 E1.12196
G1 X111.618 Y81.204 E1.19289
G1 X112.092 Y81.235 E1.21659
G1 X113.19 Y81.335 E1.27159
G1 X114.435 Y81.5 E1.33425
G1 X114.824 Y81.564 E1.35392
G1 X116.274 Y81.849 E1.42764
G1 X117.347 Y82.109 E1.48273
G1 X118.561 Y82.457 E1.54573
G1 X119.026 Y82.606 E1.57009
G1 X120.03 Y82.957 E1.62316
G1 X121.34 Y83.481 E1.69355
G1 X122.519 Y84.016 E1.75814
G1 X122.88 Y84.193 E1.7782
G1 X123.886 Y84.721 E1.83488
G1 X124.923 Y85.319 E1.8946
G1 X125.324 Y85.564 E1.91805
G1 X126.215 Y86.147 E1.97117
G1 X126.532 Y86.365 E1.99036
G1 X127.368 Y86.972 E2.04191
G1 X127.706 Y87.233 E2.06321
G1 X128.789 Y88.119 E2.13302
G1 X129.544 Y88.787 E2.18331
G1 X129.797 Y89.023 E2.20057
G1 X130.647 Y89.861 E2.26012
G1 X131.514 Y90.79 E2.32352
G1 X131.838 Y91.161 E2.3481
G1 X132.709 Y92.22 E2.4165
G1 X133.336 Y93.051 E2.46844
G1 X134.151 Y94.233 E2.54007
G1 X134.881 Y95.412 E2.60925
G1 X135.604 Y96.72 E2.68381
G1 X136.157 Y97.849 E2.74653
G1 X136.376 Y98.334 E2.77308
G1 X136.914 Y99.63 E2.84309
G1 X137.328 Y100.778 E2.90397
G1 X137.787 Y102.271 E2.9819
G1 X138.139 Y103.673 E3.05402
G1 X138.415 Y105.052 E3.12418
G1 X138.622 Y106.444 E3.19439
G1 X138.734 Y107.508 E3.24777
G1 X138.817 Y108.787 E3.31171
G1 X138.833 Y109.283 E3.33647
G1 X138.84 Y110.335 E3.38896
G1 X138.796 Y111.618 E3.453
G1 X138.765 Y112.091 E3.47665
G1 X138.665 Y113.19 E3.53171
G1 X138.514 Y114.337 E3.58943
G1 X138.436 Y114.823 E3.61398
G1 X138.145 Y116.302 E3.68918
G1 X137.799 Y117.689 E3.7605
G1 X137.545 Y118.554 E3.80548
G1 X137.395 Y119.023 E3.83005
G1 X137.042 Y120.033 E3.88342
G1 X136.552 Y121.266 E3.94962
G1 X135.984 Y122.52 E4.0183
G1 X135.77 Y122.953 E4.0424
G1 X135.285 Y123.876 E4.09442
G1 X134.636 Y125.001 E4.15921
G1 X134.435 Y125.327 E4.17832
G1 X133.897 Y126.15 E4.22737
G1 X133.589 Y126.596 E4.25441
G1 X132.995 Y127.41 E4.30469
G1 X132.077 Y128.559 E4.37806
G1 X131.277 Y129.472 E4.43862
G1 X130.918 Y129.857 E4.46489
G1 X130.161 Y130.624 E4.51865
G1 X129.21 Y131.514 E4.58363
G1 X128.839 Y131.838 E4.60821
G1 X127.78 Y132.709 E4.67661
G1 X126.949 Y133.337 E4.72858
G1 X125.9 Y134.063 E4.79223
G1 X125.441 Y134.36 E4.8195
G1 X124.588 Y134.881 E4.86937
G1 X123.28 Y135.604 E4.94393
G1 X122.234 Y136.118 E5.00208
G1 X121.666 Y136.376 E5.0332
G1 X120.37 Y136.914 E5.10321
G1 X119.22 Y137.329 E5.1642
G1 X117.727 Y137.788 E5.24213
G1 X116.354 Y138.133 E5.31276
G1 X115.323 Y138.347 E5.36529
G1 X114.017 Y138.562 E5.43132
G1 X113.536 Y138.625 E5.45553
G1 X112.287 Y138.751 E5.51816
G1 X111.212 Y138.817 E5.57189
G1 X110.717 Y138.833 E5.5966
G1 X109.665 Y138.84 E5.64908
G1 X108.382 Y138.796 E5.71313
G1 X107.909 Y138.765 E5.73678
G1 X106.81 Y138.665 E5.79183
G1 X105.663 Y138.514 E5.84955
G1 X105.177 Y138.436 E5.87411
G1 X103.698 Y138.145 E5.94931
G1 X102.311 Y137.799 E6.02063
G1 X101.446 Y137.545 E6.06561
G1 X100.974 Y137.394 E6.09033
G1 X99.97 Y137.043 E6.14339
G1 X98.66 Y136.519 E6.21378
G1 X97.481 Y135.984 E6.27838
G1 X97.12 Y135.807 E6.29844
G1 X96.114 Y135.279 E6.35512
G1 X95.077 Y134.681 E6.41484
G1 X94.676 Y134.436 E6.43828
G1 X93.785 Y133.853 E6.49141
G1 X93.468 Y133.635 E6.5106
G1 X92.632 Y133.028 E6.56214
G1 X92.294 Y132.767 E6.58345
G1 X91.211 Y131.881 E6.65326
G1 X90.456 Y131.213 E6.70355
G1 X90.203 Y130.977 E6.72081
G1 X89.353 Y130.139 E6.78036
G1 X88.481 Y129.205 E6.84411
G1 X88.162 Y128.84 E6.8683
G1 X87.288 Y127.778 E6.93692
G1 X86.738 Y127.052 E6.98236
G1 X85.847 Y125.764 E7.06049
G1 X85.118 Y124.586 E7.12961
G1 X84.396 Y123.282 E7.20397
G1 X83.881 Y122.233 E7.26227
G1 X83.624 Y121.666 E7.29333
G1 X83.086 Y120.37 E7.36334
G1 X82.671 Y119.22 E7.42433
G1 X82.218 Y117.749 E7.50112
G1 X81.944 Y116.687 E7.55584
G1 X81.685 Y115.487 E7.61709
G1 X81.589 Y114.973 E7.64317
G1 X81.449 Y114.085 E7.68802
G1 X81.375 Y113.533 E7.71581
G1 X81.249 Y112.288 E7.77824
G1 X81.183 Y111.212 E7.83202
G1 X81.167 Y110.718 E7.85668
G1 X81.16 Y109.666 E7.90917
G1 X81.204 Y108.382 E7.97326
G1 X81.235 Y107.908 E7.99696
G1 X81.335 Y106.808 E8.05207
G1 X81.488 Y105.645 E8.11059
G1 X81.583 Y105.074 E8.13947
G1 X81.849 Y103.723 E8.20816
G1 X82.109 Y102.652 E8.26315
G1 X82.426 Y101.54 E8.32084
G1 X82.579 Y101.055 E8.34621
G1 X82.957 Y99.97 E8.40353
G1 X83.483 Y98.655 E8.47419
G1 X84.016 Y97.481 E8.53851
G1 X84.193 Y97.12 E8.55857
G1 X84.721 Y96.115 E8.61521
G1 X85.364 Y94.999 E8.67947
G1 X85.566 Y94.672 E8.69864
G1 X86.185 Y93.729 E8.75492
G1 X87.011 Y92.582 E8.82544
G1 X87.929 Y91.434 E8.89877
G1 X88.727 Y90.525 E8.95912
G1 X89.081 Y90.144 E8.98507
G1 X89.861 Y89.353 E9.04049
G0 F7500 X90.134 Y89.645
G1 F1500 X91.055 Y88.785 E9.10336
G1 X91.414 Y88.471 E9.12715
G1 X92.359 Y87.69 E9.18831
G1 X93.165 Y87.075 E9.23889
G1 X94.449 Y86.185 E9.31684
G1 X95.471 Y85.548 E9.37692
G1 X96.894 Y84.757 E9.45814
G1 X98.017 Y84.206 E9.52055
G1 X98.489 Y83.993 E9.54639
G1 X99.763 Y83.464 E9.61521
G1 X100.896 Y83.054 E9.67532
G1 X102.371 Y82.6 E9.75231
G1 X103.727 Y82.259 E9.82207
G1 X104.742 Y82.048 E9.87379
G1 X106.041 Y81.834 E9.93947
G1 X106.508 Y81.773 E9.96297
G1 X107.736 Y81.648 E10.02455
G1 X108.801 Y81.583 E10.07778
G1 X109.287 Y81.567 E10.10204
G1 X110.184 Y81.558 E10.1468
G1 X111.592 Y81.603 E10.21708
G1 X112.056 Y81.633 E10.24028
G1 X113.138 Y81.732 E10.29448
G1 X114.371 Y81.895 E10.35653
G1 X114.747 Y81.956 E10.37554
G1 X116.18 Y82.238 E10.4484
G1 X117.237 Y82.494 E10.50266
G1 X118.439 Y82.838 E10.56503
G1 X118.894 Y82.984 E10.58887
G1 X119.898 Y83.335 E10.64194
G1 X121.175 Y83.845 E10.71054
G1 X122.343 Y84.375 E10.77453
G1 X122.694 Y84.547 E10.79403
G1 X123.686 Y85.067 E10.84991
G1 X124.714 Y85.66 E10.90912
G1 X125.105 Y85.899 E10.93198
G1 X125.988 Y86.476 E10.98461
G1 X126.297 Y86.689 E11.00333
G1 X127.124 Y87.289 E11.0543
G1 X127.453 Y87.543 E11.07504
G1 X128.524 Y88.418 E11.14404
G1 X129.271 Y89.08 E11.19383
G1 X129.516 Y89.308 E11.21053
G1 X130.355 Y90.134 E11.26927
G1 X131.213 Y91.053 E11.332
G1 X131.529 Y91.415 E11.35597
G1 X132.39 Y92.461 E11.42356
G1 X133.007 Y93.278 E11.47464
G1 X133.811 Y94.444 E11.5453
G1 X134.531 Y95.606 E11.6135
G1 X135.245 Y96.896 E11.68706
G1 X135.793 Y98.014 E11.74917
G1 X136.007 Y98.487 E11.77507
G1 X136.538 Y99.766 E11.84416
G1 X136.946 Y100.896 E11.9041
G1 X137.399 Y102.369 E11.98099
G1 X137.747 Y103.752 E12.05214
G1 X138.019 Y105.111 E12.12128
G1 X138.224 Y106.486 E12.19064
G1 X138.335 Y107.534 E12.24322
G1 X138.417 Y108.8 E12.30651
G1 X138.433 Y109.286 E12.33077
G1 X138.44 Y110.321 E12.38241
G1 X138.397 Y111.592 E12.44585
G1 X138.367 Y112.055 E12.469
G1 X138.268 Y113.138 E12.52326
G1 X138.119 Y114.274 E12.58042
G1 X138.044 Y114.746 E12.60426
G1 X137.757 Y116.205 E12.67845
G1 X137.415 Y117.576 E12.74894
G1 X137.164 Y118.432 E12.79345
G1 X137.017 Y118.891 E12.81749
G1 X136.67 Y119.885 E12.87002
G1 X136.185 Y121.107 E12.93561
G1 X136.042 Y121.438 E12.9536
G1 X135.625 Y122.343 E13.00331
G1 X135.416 Y122.767 E13.0269
G1 X134.938 Y123.676 E13.07813
G1 X134.295 Y124.791 E13.14235
G1 X134.1 Y125.108 E13.16092
G1 X133.568 Y125.923 E13.20947
G1 X133.266 Y126.36 E13.23597
G1 X132.682 Y127.16 E13.28539
G1 X131.776 Y128.295 E13.35784
G1 X130.984 Y129.199 E13.4178
G1 X130.633 Y129.576 E13.4435
G1 X129.888 Y130.332 E13.49646
G1 X128.947 Y131.213 E13.56077
G1 X128.585 Y131.529 E13.58474
G1 X127.539 Y132.39 E13.65233
G1 X126.721 Y133.008 E13.70348
G1 X125.683 Y133.727 E13.76648
G1 X125.232 Y134.019 E13.79328
G1 X124.394 Y134.531 E13.84227
G1 X123.104 Y135.245 E13.91583
G1 X122.068 Y135.754 E13.97342
G1 X121.513 Y136.007 E14.00385
G1 X120.234 Y136.538 E14.07294
G1 X119.102 Y136.947 E14.13299
G1 X117.629 Y137.4 E14.20987
G1 X116.273 Y137.741 E14.27963
G1 X115.258 Y137.952 E14.33135
G1 X113.965 Y138.165 E14.39673
G1 X113.496 Y138.227 E14.42033
G1 X112.263 Y138.352 E14.48216
G1 X111.199 Y138.417 E14.53534
G1 X110.714 Y138.433 E14.55955
G1 X109.679 Y138.44 E14.61119
G1 X108.408 Y138.397 E14.67464
G1 X107.945 Y138.367 E14.69779
G1 X106.862 Y138.268 E14.75204
G1 X105.726 Y138.119 E14.8092
G1 X105.254 Y138.044 E14.83305
G1 X103.795 Y137.757 E14.90723
G1 X102.424 Y137.415 E14.97773
G1 X101.568 Y137.164 E15.02223
G1 X101.106 Y137.016 E15.04643
G1 X100.102 Y136.665 E15.0995
G1 X98.825 Y136.155 E15.1681
G1 X97.657 Y135.625 E15.23209
G1 X97.306 Y135.453 E15.25159
G1 X96.314 Y134.933 E15.30747
G1 X95.286 Y134.34 E15.36668
G1 X94.895 Y134.101 E15.38954
G1 X94.012 Y133.524 E15.44217
G1 X93.703 Y133.311 E15.46089
G1 X92.876 Y132.711 E15.51186
G1 X92.547 Y132.457 E15.5326
G1 X91.476 Y131.582 E15.6016
G1 X90.729 Y130.92 E15.65139
G1 X90.484 Y130.692 E15.66809
G1 X89.645 Y129.866 E15.72683
G1 X88.782 Y128.942 E15.78991
G1 X88.471 Y128.586 E15.81349
G1 X87.607 Y127.536 E15.88133
G1 X87.067 Y126.824 E15.92591
G1 X86.187 Y125.553 E16.00304
G1 X85.468 Y124.392 E16.07117
G1 X84.755 Y123.105 E16.14457
G1 X84.245 Y122.068 E16.20223
G1 X83.993 Y121.513 E16.23264
G1 X83.462 Y120.234 E16.30173
G1 X83.053 Y119.102 E16.36178
G1 X82.605 Y117.649 E16.43764
G1 X82.335 Y116.602 E16.49158
G1 X82.078 Y115.414 E16.55222
G1 X81.984 Y114.91 E16.5778
G1 X81.845 Y114.032 E16.62215
G1 X81.773 Y113.492 E16.64933
G1 X81.648 Y112.264 E16.71091
G1 X81.583 Y111.199 E16.76414
G1 X81.567 Y110.715 E16.7883
G1 X81.56 Y109.68 E16.83994
G1 X81.603 Y108.408 E16.90343
G1 X81.633 Y107.944 E16.92663
G1 X81.732 Y106.86 E16.98094
G1 X81.883 Y105.71 E17.0388
G1 X81.975 Y105.151 E17.06707
G1 X82.238 Y103.817 E17.1349
G1 X82.494 Y102.762 E17.18906
G1 X82.808 Y101.66 E17.24623
G1 X82.957 Y101.187 E17.27097
G1 X83.335 Y100.102 E17.32829
G1 X83.847 Y98.82 E17.39717
G1 X84.375 Y97.657 E17.46089
G1 X84.547 Y97.306 E17.48039
G1 X85.067 Y96.315 E17.53622
G1 X85.705 Y95.209 E17.59992
G1 X85.9 Y94.892 E17.61849
G1 X86.51 Y93.963 E17.67394
G1 X87.324 Y92.832 E17.74346
G1 X88.23 Y91.698 E17.81587
G1 X89.02 Y90.797 E17.87566
G1 X89.366 Y90.425 E17.901
G1 X90.134 Y89.645 E17.95561
G1 F2700 E11.45561
;MESH:TriClampDN32676-QuickConnect.stl
G0 F7500 X103.269 Y107.222
G0 X109.636 Y117.091
;TYPE:WALL-INNER
G1 F2700 E17.95561
G1 F1500 X109.299 Y117.065 E17.97248
G1 X108.939 Y117.02 E17.99058
G1 X108.606 Y116.962 E18.00744
G1 X108.272 Y116.887 E18.02452
G1 X107.927 Y116.792 E18.04237
G1 X107.599 Y116.681 E18.05965
G1 X107.28 Y116.559 E18.07669
G1 X106.948 Y116.411 E18.09482
G1 X106.637 Y116.254 E18.1122
G1 X106.343 Y116.087 E18.12907
G1 X106.046 Y115.898 E18.14663
G1 X105.757 Y115.693 E18.16431
G1 X105.487 Y115.484 E18.18135
G1 X104.975 Y115.018 E18.21589
G1 X104.737 Y114.765 E18.23321
G1 X104.496 Y114.487 E18.25157
G1 X104.288 Y114.219 E18.2685
G1 X104.092 Y113.939 E18.28555
G1 X103.903 Y113.639 E18.30324
G1 X103.73 Y113.331 E18.32086
G1 X103.579 Y113.031 E18.33762
G1 X103.436 Y112.709 E18.35519
G1 X103.309 Y112.377 E18.37293
G1 X103.201 Y112.049 E18.39016
G1 X103.107 Y111.704 E18.408
G1 X103.031 Y111.363 E18.42543
G1 X102.975 Y111.032 E18.44217
G1 X102.932 Y110.677 E18.46002
G1 X102.908 Y110.342 E18.47677
G1 X102.9 Y109.993 E18.49419
G1 X102.909 Y109.627 E18.51245
G1 X102.935 Y109.299 E18.52887
G1 X102.98 Y108.936 E18.54712
G1 X103.041 Y108.589 E18.56469
G1 X103.118 Y108.254 E18.58184
G1 X103.201 Y107.949 E18.59761
G1 X103.317 Y107.604 E18.61577
G1 X103.443 Y107.277 E18.63326
G1 X103.59 Y106.947 E18.65128
G1 X103.748 Y106.632 E18.66886
G1 X103.912 Y106.344 E18.6854
G1 X104.109 Y106.035 E18.70368
G1 X104.297 Y105.769 E18.71993
G1 X104.516 Y105.488 E18.7377
G1 X104.752 Y105.218 E18.75559
G1 X104.99 Y104.967 E18.77285
G1 X105.234 Y104.738 E18.78954
G1 X105.497 Y104.509 E18.80694
G1 X105.761 Y104.302 E18.82368
G1 X106.059 Y104.093 E18.84184
G1 X106.351 Y103.908 E18.85908
G1 X106.666 Y103.732 E18.87709
G1 X106.985 Y103.571 E18.89491
G1 X107.577 Y103.325 E18.9269
G1 X107.941 Y103.204 E18.94603
G1 X108.284 Y103.11 E18.96378
G1 X108.627 Y103.033 E18.98132
G1 X108.96 Y102.976 E18.99817
G1 X109.322 Y102.932 E19.01636
G1 X109.659 Y102.908 E19.03322
G1 X110.01 Y102.9 E19.05074
G1 X110.364 Y102.909 E19.0684
G1 X110.701 Y102.935 E19.08527
G1 X111.061 Y102.98 E19.10337
G1 X111.394 Y103.038 E19.12023
G1 X111.728 Y103.113 E19.13731
G1 X112.073 Y103.208 E19.15516
G1 X112.401 Y103.319 E19.17244
G1 X112.72 Y103.441 E19.18948
G1 X113.052 Y103.589 E19.20761
G1 X113.362 Y103.746 E19.22495
G1 X113.654 Y103.911 E19.24168
G1 X113.948 Y104.098 E19.25906
G1 X114.243 Y104.307 E19.2771
G1 X114.483 Y104.491 E19.29219
G1 X114.77 Y104.742 E19.31121
G1 X115.014 Y104.972 E19.32794
G1 X115.268 Y105.239 E19.34632
G1 X115.491 Y105.497 E19.36334
G1 X115.709 Y105.777 E19.38104
G1 X115.907 Y106.059 E19.39823
G1 X116.09 Y106.35 E19.41538
G1 X116.265 Y106.657 E19.43301
G1 X116.429 Y106.987 E19.4514
G1 X116.564 Y107.296 E19.46822
G1 X116.692 Y107.625 E19.48583
G1 X116.796 Y107.941 E19.50243
G1 X116.889 Y108.279 E19.51992
G1 X116.966 Y108.622 E19.53746
G1 X117.024 Y108.961 E19.55462
G1 X117.068 Y109.321 E19.57271
G1 X117.092 Y109.655 E19.58942
G1 X117.1 Y110.007 E19.60698
G1 X117.091 Y110.369 E19.62505
G1 X117.065 Y110.701 E19.64166
G1 X117.02 Y111.061 E19.65976
G1 X116.962 Y111.393 E19.67658
G1 X116.883 Y111.745 E19.69457
G1 X116.799 Y112.051 E19.71041
G1 X116.685 Y112.392 E19.72834
G1 X116.559 Y112.721 E19.74592
G1 X116.416 Y113.041 E19.76341
G1 X116.252 Y113.368 E19.78166
G1 X116.096 Y113.644 E19.79747
G1 X115.902 Y113.948 E19.81547
G1 X115.708 Y114.224 E19.8323
G1 X115.506 Y114.487 E19.84884
G1 X115.259 Y114.769 E19.86754
G1 X115.028 Y115.015 E19.88438
G1 X114.766 Y115.262 E19.90234
G1 X114.498 Y115.495 E19.92006
G1 X114.227 Y115.706 E19.9372
G1 X113.93 Y115.913 E19.95526
G1 X113.647 Y116.093 E19.97199
G1 X113.334 Y116.268 E19.98988
G1 X113.015 Y116.429 E20.00771
G1 X112.408 Y116.681 E20.0405
G1 X112.059 Y116.796 E20.05883
G1 X111.716 Y116.89 E20.07657
G1 X111.373 Y116.967 E20.09411
G1 X111.04 Y117.024 E20.11097
G1 X110.678 Y117.068 E20.12916
G1 X110.341 Y117.092 E20.14602
G1 X109.99 Y117.1 E20.16353
G1 X109.636 Y117.091 E20.1812
G1 F2700 E13.6812
G0 F7500 X109.629 Y117.192
G0 X109.985 Y117.28
G0 X109.672 Y129.771
G0 X109.995 Y129.859
G0 X110 Y129.96
G1 F2700 E20.1812
G1 F1500 X110.971 Y129.936 E20.22966
G1 X111.965 Y129.863 E20.27938
G1 X112.92 Y129.745 E20.32739
G1 X113.903 Y129.575 E20.37716
G1 X114.85 Y129.362 E20.42559
G1 X115.786 Y129.103 E20.47404
G1 X116.731 Y128.79 E20.5237
G1 X117.63 Y128.444 E20.57176
G1 X118.541 Y128.04 E20.62148
G1 X119.403 Y127.606 E20.66963
G1 X120.269 Y127.116 E20.71927
G1 X121.082 Y126.6 E20.76731
G1 X121.885 Y126.034 E20.81632
G1 X122.667 Y125.424 E20.8658
G1 X123.409 Y124.784 E20.91469
G1 X124.118 Y124.108 E20.96356
G1 X124.784 Y123.41 E21.0117
G1 X125.433 Y122.655 E21.06137
G1 X126.036 Y121.883 E21.11024
G1 X126.599 Y121.082 E21.15908
G1 X127.116 Y120.269 E21.20715
G1 X127.606 Y119.403 E21.25679
G1 X128.04 Y118.541 E21.30494
G1 X128.444 Y117.63 E21.35466
G1 X128.79 Y116.731 E21.40272
G1 X129.103 Y115.786 E21.45238
G1 X129.364 Y114.842 E21.50125
G1 X129.575 Y113.903 E21.54926
G1 X129.745 Y112.92 E21.59903
G1 X129.865 Y111.949 E21.64784
G1 X129.936 Y110.971 E21.69677
G1 X129.96 Y109.993 E21.74557
G1 X129.936 Y109.029 E21.79368
G1 X129.863 Y108.035 E21.84341
G1 X129.743 Y107.064 E21.89222
G1 X129.575 Y106.098 E21.94114
G1 X129.36 Y105.142 E21.99002
